(02_T1_FLAT_FLOOR_REWORK_3175x42)
(Sylvan Dragoness pear 150x150x45 - 02_T1_FLAT_FLOOR_REWORK_3175x42)
(T1  Spiral O 3.175*42mm  Makera    D=3.175 CR=0. - ZMIN=-29.894 - flat end mill)
( =================================================== )
(   Z Origin Set To   : Stock Top )
(   Stock Height                    : 40. mm )
(   Toolpath Z Maximum from Stock Top: 15. mm )
(   Toolpath Z Min from Stock Top: -29.894 mm )
(  )
( =================================================== )

( The following values are based on the part position info used in fusion and can be used to roughly align the machine offset from anchor 1 if you use that feature. )
(   X Offset   : -75. mm )
(   Y Offset   : -75. mm )

( =================================================== )

G90 G94
G17
G21
(When using Fusion for Personal Use, the feedrate of rapid)
(moves is reduced to match the feedrate of cutting moves,)
(which can increase machining time. Unrestricted rapid moves)
(are available with a Fusion Subscription.)

(02_ANCHOR1_FLAT_FLOOR_REWORK_LONG_3175x42)
M6 T1 
(5)
M400
M851 S100
S13000 M3
G54
G0 X31.942 Y46.766
Z15.
G1 Z-25.137 F420.
S10000 M3
X32.034 Y46.837 Z-25.383 F160.
X32.142 Y46.941 Z-25.45
X32.17 Y46.975 Z-25.454
X32.234 Y47.055 Z-25.457
X32.384 Y47.314 Z-25.463
X32.748 Y48.093 Z-25.481
X32.896 Y48.573 Z-25.491
X32.921 Y48.653 Z-25.493
X32.963 Y48.91 Z-25.499
X32.968 Y49.088 Z-25.502
X32.979 Y49.141 Z-25.503
X33. Y49.194 Z-25.505
X33.033 Y49.248 Z-25.506
X33.066 Y49.283 Z-25.507
X33.126 Y49.33 Z-25.509
X33.147 Y49.342
X33.146 Y49.354
X33.09 Y49.492 Z-25.512
X33.049 Y49.626 Z-25.515
X33.033 Y49.693 Z-25.517
X33.026 Y49.699
X32.97 Y49.692 Z-25.518
X32.903 Y49.698 Z-25.52
X32.836 Y49.719 Z-25.521
X32.786 Y49.747 Z-25.522
X32.746 Y49.779 Z-25.523
X32.66 Y49.879 Z-25.526
X32.535 Y50.013 Z-25.53
X32.525
X32.375 Y49.766 Z-25.536
X32.332 Y49.709 Z-25.538
X32.091 Y49.47 Z-25.545
X32.033 Y49.425 Z-25.546
X31.807 Y49.288 Z-25.552
X31.523 Y49.178 Z-25.558
X31.433 Y49.156 Z-25.56
X31.239 Y48.933 Z-25.566
X31.162 Y48.857 Z-25.569
X30.955 Y48.693 Z-25.574
X30.748 Y48.573 Z-25.579
X30.67 Y48.538 Z-25.581
X30.386 Y48.447 Z-25.587
X30.102 Y48.41 Z-25.593
X29.818 Y48.423 Z-25.599
X29.821 Y48.337 Z-25.601
X29.789 Y48.075 Z-25.607
X29.785 Y48.004 Z-25.608
X29.792 Y47.862 Z-25.611
X29.809 Y47.703 Z-25.614
X29.806 Y47.649 Z-25.615
X29.794 Y47.596 Z-25.617
X29.772 Y47.543 Z-25.618
X29.736 Y47.489 Z-25.619
X29.701 Y47.454 Z-25.62
X29.696 Y47.445
X29.726 Y47.406 Z-25.621
X29.76 Y47.381 Z-25.622
X29.818 Y47.337 Z-25.624
X29.916 Y47.252 Z-25.627
X30.014 Y47.152 Z-25.629
X30.102 Y47.046 Z-25.632
X30.169 Y46.957 Z-25.635
X30.227 Y46.868 Z-25.637
X30.296 Y46.741 Z-25.64
X30.356 Y46.605 Z-25.643
X30.415 Y46.618 Z-25.644
X30.485 Y46.619 Z-25.646
X30.556 Y46.604 Z-25.647
X30.759 Y46.533 Z-25.652
X30.99 Y46.486 Z-25.657
X31.221 Y46.483 Z-25.662
X31.452 Y46.522 Z-25.667
X31.66 Y46.596 Z-25.671
X31.92 Y46.75 Z-25.677
X32.034 Y46.837 Z-25.68
X32.142 Y46.941 Z-25.684
X32.234 Y47.055 Z-25.687
X32.384 Y47.314 Z-25.693
X32.748 Y48.093 Z-25.711
X32.896 Y48.573 Z-25.721
X32.921 Y48.653 Z-25.723
X32.963 Y48.91 Z-25.729
X32.968 Y49.088 Z-25.732
X32.979 Y49.141 Z-25.734
X33. Y49.194 Z-25.735
X33.033 Y49.248 Z-25.736
X33.066 Y49.283 Z-25.737
X33.126 Y49.33 Z-25.739
X33.147 Y49.342
X33.146 Y49.354
X33.09 Y49.492 Z-25.743
X33.049 Y49.626 Z-25.746
X33.033 Y49.693 Z-25.747
X33.026 Y49.699
X32.97 Y49.692 Z-25.748
X32.903 Y49.698 Z-25.75
X32.836 Y49.719 Z-25.751
X32.786 Y49.747 Z-25.752
X32.746 Y49.779 Z-25.753
X32.66 Y49.879 Z-25.756
X32.535 Y50.013 Z-25.76
X32.525
X32.375 Y49.766 Z-25.766
X32.332 Y49.709 Z-25.768
X32.091 Y49.47 Z-25.775
X32.033 Y49.425 Z-25.776
X31.807 Y49.288 Z-25.782
X31.523 Y49.178 Z-25.788
X31.433 Y49.156 Z-25.79
X31.239 Y48.933 Z-25.797
X31.162 Y48.857 Z-25.799
X30.955 Y48.693 Z-25.804
X30.748 Y48.573 Z-25.809
X30.67 Y48.538 Z-25.811
X30.386 Y48.447 Z-25.817
X30.102 Y48.41 Z-25.823
X29.818 Y48.423 Z-25.829
X29.821 Y48.337 Z-25.831
X29.789 Y48.075 Z-25.837
X29.785 Y48.004 Z-25.838
X29.792 Y47.862 Z-25.841
X29.809 Y47.703 Z-25.844
X29.806 Y47.649 Z-25.846
X29.794 Y47.596 Z-25.847
X29.772 Y47.543 Z-25.848
X29.736 Y47.489 Z-25.849
X29.701 Y47.454 Z-25.85
X29.696 Y47.445 Z-25.851
X29.726 Y47.406 Z-25.852
X29.76 Y47.381
X29.818 Y47.337 Z-25.854
X29.916 Y47.252 Z-25.857
X30.014 Y47.152 Z-25.86
X30.102 Y47.046 Z-25.863
X30.169 Y46.957 Z-25.865
X30.227 Y46.868 Z-25.867
X30.296 Y46.741 Z-25.87
X30.356 Y46.605 Z-25.873
X30.415 Y46.618 Z-25.874
X30.485 Y46.619 Z-25.876
X30.556 Y46.604 Z-25.877
X30.759 Y46.533 Z-25.882
X30.99 Y46.486 Z-25.887
X31.221 Y46.483 Z-25.892
X31.452 Y46.522 Z-25.897
X31.66 Y46.596 Z-25.901
X31.92 Y46.75 Z-25.908
X32.034 Y46.837 Z-25.911
X32.142 Y46.941 Z-25.914
X32.234 Y47.055 Z-25.917
X32.384 Y47.314 Z-25.923
X32.748 Y48.093 Z-25.941
X32.896 Y48.573 Z-25.952
X32.921 Y48.653 Z-25.953
X32.963 Y48.91 Z-25.959
X32.968 Y49.088 Z-25.963
X32.979 Y49.141 Z-25.964
X33. Y49.194 Z-25.965
X33.033 Y49.248 Z-25.966
X33.066 Y49.283 Z-25.967
X33.126 Y49.33 Z-25.969
X33.147 Y49.342
X33.146 Y49.354 Z-25.97
X33.09 Y49.492 Z-25.973
X33.049 Y49.626 Z-25.976
X33.033 Y49.693 Z-25.977
X33.026 Y49.699
X32.97 Y49.692 Z-25.978
X32.903 Y49.698 Z-25.98
X32.836 Y49.719 Z-25.981
X32.786 Y49.747 Z-25.983
X32.746 Y49.779 Z-25.984
X32.66 Y49.879 Z-25.986
X32.535 Y50.013 Z-25.99
X32.525
X32.375 Y49.766 Z-25.996
X32.332 Y49.709 Z-25.998
X32.091 Y49.47 Z-26.005
X32.033 Y49.425 Z-26.007
X31.807 Y49.288 Z-26.012
X31.523 Y49.178 Z-26.019
X31.433 Y49.156 Z-26.02
X31.239 Y48.933 Z-26.027
X31.162 Y48.857 Z-26.029
X30.955 Y48.693 Z-26.034
X30.748 Y48.573 Z-26.039
X30.67 Y48.538 Z-26.041
X30.386 Y48.447 Z-26.048
X30.102 Y48.41 Z-26.054
X29.818 Y48.423 Z-26.059
X29.821 Y48.337 Z-26.061
X29.789 Y48.075 Z-26.067
X29.785 Y48.004 Z-26.068
X29.792 Y47.862 Z-26.071
X29.809 Y47.703 Z-26.075
X29.806 Y47.649 Z-26.076
X29.794 Y47.596 Z-26.077
X29.772 Y47.543 Z-26.078
X29.736 Y47.489 Z-26.079
X29.701 Y47.454 Z-26.08
X29.696 Y47.445 Z-26.081
X29.726 Y47.406 Z-26.082
X29.76 Y47.381 Z-26.083
X29.818 Y47.337 Z-26.084
X29.916 Y47.252 Z-26.087
X30.014 Y47.152 Z-26.09
X30.102 Y47.046 Z-26.093
X30.169 Y46.957 Z-26.095
X30.227 Y46.868 Z-26.097
X30.296 Y46.741 Z-26.1
X30.356 Y46.605 Z-26.103
X30.415 Y46.618 Z-26.105
X30.485 Y46.619 Z-26.106
X30.556 Y46.604 Z-26.108
X30.759 Y46.533 Z-26.112
X30.99 Y46.486 Z-26.117
X31.221 Y46.483 Z-26.122
X31.452 Y46.522 Z-26.127
X31.66 Y46.596 Z-26.131
X31.92 Y46.75 Z-26.138
X32.034 Y46.837 Z-26.141
X32.142 Y46.941 Z-26.144
X32.234 Y47.055 Z-26.147
X32.384 Y47.314 Z-26.153
X32.748 Y48.093 Z-26.171
X32.896 Y48.573 Z-26.182
X32.921 Y48.653 Z-26.184
X32.963 Y48.91 Z-26.189
X32.968 Y49.088 Z-26.193
X32.979 Y49.141 Z-26.194
X33. Y49.194 Z-26.195
X33.033 Y49.248 Z-26.196
X33.066 Y49.283 Z-26.197
X33.126 Y49.33 Z-26.199
X33.147 Y49.342
X33.146 Y49.354 Z-26.2
X33.09 Y49.492 Z-26.203
X33.049 Y49.626 Z-26.206
X33.033 Y49.693 Z-26.207
X33.026 Y49.699
X32.97 Y49.692 Z-26.209
X32.903 Y49.698 Z-26.21
X32.836 Y49.719 Z-26.211
X32.786 Y49.747 Z-26.213
X32.746 Y49.779 Z-26.214
X32.66 Y49.879 Z-26.217
X32.535 Y50.013 Z-26.22
X32.525 Z-26.221
X32.375 Y49.766 Z-26.227
X32.332 Y49.709 Z-26.228
X32.091 Y49.47 Z-26.235
X32.033 Y49.425 Z-26.237
X31.807 Y49.288 Z-26.242
X31.523 Y49.178 Z-26.249
X31.433 Y49.156 Z-26.251
X31.239 Y48.933 Z-26.257
X31.162 Y48.857 Z-26.259
X30.955 Y48.693 Z-26.265
X30.748 Y48.573 Z-26.27
X30.67 Y48.538 Z-26.271
X30.386 Y48.447 Z-26.278
X30.102 Y48.41 Z-26.284
X29.818 Y48.423 Z-26.29
X29.821 Y48.337 Z-26.291
X29.789 Y48.075 Z-26.297
X29.785 Y48.004 Z-26.298
X29.792 Y47.862 Z-26.301
X29.809 Y47.703 Z-26.305
X29.806 Y47.649 Z-26.306
X29.794 Y47.596 Z-26.307
X29.772 Y47.543 Z-26.308
X29.736 Y47.489 Z-26.31
X29.701 Y47.454 Z-26.311
X29.696 Y47.445
X29.726 Y47.406 Z-26.312
X29.76 Y47.381 Z-26.313
X29.818 Y47.337 Z-26.314
X29.916 Y47.252 Z-26.317
X30.014 Y47.152 Z-26.32
X30.102 Y47.046 Z-26.323
X30.169 Y46.957 Z-26.325
X30.227 Y46.868 Z-26.327
X30.296 Y46.741 Z-26.33
X30.356 Y46.605 Z-26.334
X30.415 Y46.618 Z-26.335
X30.485 Y46.619 Z-26.336
X30.556 Y46.604 Z-26.338
X30.759 Y46.533 Z-26.342
X30.99 Y46.486 Z-26.347
X31.221 Y46.483 Z-26.352
X31.452 Y46.522 Z-26.357
X31.66 Y46.596 Z-26.362
X31.92 Y46.75 Z-26.368
X32.034 Y46.837 Z-26.371
X32.142 Y46.941 Z-26.374
X32.234 Y47.055 Z-26.377
X32.384 Y47.314 Z-26.383
X32.748 Y48.093 Z-26.401
X32.896 Y48.573 Z-26.412
X32.921 Y48.653 Z-26.414
X32.963 Y48.91 Z-26.419
X32.968 Y49.088 Z-26.423
X32.979 Y49.141 Z-26.424
X33. Y49.194 Z-26.425
X33.033 Y49.248 Z-26.427
X33.066 Y49.283 Z-26.428
X33.126 Y49.33 Z-26.429
X33.147 Y49.342 Z-26.43
X33.146 Y49.354
X33.09 Y49.492 Z-26.433
X33.049 Y49.626 Z-26.436
X33.033 Y49.693 Z-26.437
X33.026 Y49.699 Z-26.438
X32.97 Y49.692 Z-26.439
X32.903 Y49.698 Z-26.44
X32.836 Y49.719 Z-26.442
X32.786 Y49.747 Z-26.443
X32.746 Y49.779 Z-26.444
X32.66 Y49.879 Z-26.447
X32.535 Y50.013 Z-26.45
X32.525 Z-26.451
X32.375 Y49.766 Z-26.457
X32.332 Y49.709 Z-26.458
X32.091 Y49.47 Z-26.465
X32.033 Y49.425 Z-26.467
X31.807 Y49.288 Z-26.472
X31.523 Y49.178 Z-26.479
X31.433 Y49.156 Z-26.481
X31.239 Y48.933 Z-26.487
X31.162 Y48.857 Z-26.489
X30.955 Y48.693 Z-26.495
X30.748 Y48.573 Z-26.5
X30.67 Y48.538 Z-26.502
X30.539 Y48.496 Z-26.504
S13000 M3
X30.386 Y48.447 F420.
X30.102 Y48.41
X29.818 Y48.423
X29.821 Y48.337
X29.789 Y48.075
X29.785 Y48.004
X29.792 Y47.862
X29.809 Y47.703
X29.806 Y47.649
X29.794 Y47.596
X29.772 Y47.543
X29.736 Y47.489
X29.701 Y47.454
X29.696 Y47.445
X29.726 Y47.406
X29.76 Y47.381
X29.818 Y47.337
X29.916 Y47.252
X30.014 Y47.152
X30.102 Y47.046
X30.169 Y46.957
X30.227 Y46.868
X30.296 Y46.741
X30.356 Y46.605
X30.415 Y46.618
X30.485 Y46.619
X30.556 Y46.604
X30.759 Y46.533
X30.99 Y46.486
X31.221 Y46.483
X31.452 Y46.522
X31.66 Y46.596
X31.92 Y46.75
X32.034 Y46.837
X32.142 Y46.941
X32.234 Y47.055
X32.384 Y47.314
X32.748 Y48.093
X32.896 Y48.573
X32.921 Y48.653
X32.963 Y48.91
X32.968 Y49.088
X32.979 Y49.141
X33. Y49.194
X33.033 Y49.248
X33.066 Y49.283
X33.126 Y49.33
X33.147 Y49.342
X33.146 Y49.354
X33.09 Y49.492
X33.049 Y49.626
X33.033 Y49.693
X33.026 Y49.699
X32.97 Y49.692
X32.903 Y49.698
X32.836 Y49.719
X32.786 Y49.747
X32.746 Y49.779
X32.66 Y49.879
X32.535 Y50.013
X32.525
X32.375 Y49.766
X32.332 Y49.709
X32.091 Y49.47
X32.033 Y49.425
X31.807 Y49.288
X31.523 Y49.178
X31.433 Y49.156
X31.239 Y48.933
X31.162 Y48.857
X30.955 Y48.693
X30.748 Y48.573
X30.67 Y48.538
X30.539 Y48.496
X30.476 Y48.465 Z-26.496 F1000.
X30.424 Y48.423 Z-26.473
X30.385 Y48.377 Z-26.435
X30.361 Y48.333 Z-26.385
X30.347 Y48.298 Z-26.325
X30.341 Y48.276 Z-26.258
X30.339 Y48.268 Z-26.187
Z5. F420.
X24.607 Y49.067
Z-23.988
S10000 M3
X24.654 Y49.221 Z-24.264 F160.
X24.673 Y49.354 Z-24.305
Y49.37 Z-24.306
X24.677 Y49.443 Z-24.307
X24.669 Y49.621 Z-24.311
X24.659 Y49.674 Z-24.312
X24.605 Y49.887 Z-24.317
X24.492 Y50.127 Z-24.322
X24.443 Y50.201 Z-24.324
X24.318 Y50.351 Z-24.328
X24.211 Y50.448 Z-24.331
X23.98 Y50.607 Z-24.337
X23.735 Y50.725 Z-24.343
X23.504 Y50.785 Z-24.348
X23.282 Y50.802 Z-24.352
X23.051 Y50.778 Z-24.357
X22.927 Y50.747 Z-24.36
X22.714 Y50.667 Z-24.365
X22.643 Y50.638 Z-24.366
X22.572 Y50.622 Z-24.368
X22.483 Y50.605 Z-24.37
X22.273 Y50.545 Z-24.374
X22.03 Y50.418 Z-24.38
X21.897 Y50.317 Z-24.383
X21.803 Y50.224 Z-24.386
X21.695 Y50.091 Z-24.39
X21.572 Y49.876 Z-24.395
X21.495 Y49.638 Z-24.4
X21.466 Y49.408 Z-24.405
X21.479 Y49.177 Z-24.41
X21.534 Y48.946 Z-24.415
X21.577 Y48.838 Z-24.417
X21.628 Y48.739 Z-24.42
X21.801 Y48.502 Z-24.426
X22.06 Y48.285 Z-24.433
X22.27 Y48.181 Z-24.438
X22.43 Y48.134 Z-24.441
X22.714 Y48.069 Z-24.447
X22.909 Y48.036 Z-24.452
X23.016 Y48.03 Z-24.454
X23.193 Y48.039 Z-24.458
X23.247 Y48.049 Z-24.459
X23.478 Y48.109 Z-24.464
X23.898 Y48.289 Z-24.473
X23.987 Y48.337 Z-24.475
X24.23 Y48.497 Z-24.481
X24.264 Y48.531 Z-24.482
X24.452 Y48.743 Z-24.488
X24.581 Y48.981 Z-24.494
X24.654 Y49.221 Z-24.499
X24.673 Y49.354 Z-24.502
X24.677 Y49.443 Z-24.504
X24.669 Y49.621 Z-24.508
X24.659 Y49.674 Z-24.509
X24.605 Y49.887 Z-24.513
X24.492 Y50.127 Z-24.519
X24.443 Y50.201 Z-24.521
X24.318 Y50.351 Z-24.525
X24.211 Y50.448 Z-24.528
X23.98 Y50.607 Z-24.534
X23.735 Y50.725 Z-24.54
X23.504 Y50.785 Z-24.545
X23.282 Y50.802 Z-24.549
X23.051 Y50.778 Z-24.554
X22.927 Y50.747 Z-24.557
X22.714 Y50.667 Z-24.562
X22.643 Y50.638 Z-24.563
X22.572 Y50.622 Z-24.565
X22.483 Y50.605 Z-24.567
X22.273 Y50.545 Z-24.571
X22.03 Y50.418 Z-24.577
X21.897 Y50.317 Z-24.58
X21.803 Y50.224 Z-24.583
X21.695 Y50.091 Z-24.587
X21.572 Y49.876 Z-24.592
X21.495 Y49.638 Z-24.597
X21.466 Y49.408 Z-24.602
X21.479 Y49.177 Z-24.607
X21.534 Y48.946 Z-24.612
X21.577 Y48.838 Z-24.614
X21.628 Y48.739 Z-24.617
X21.801 Y48.502 Z-24.623
X22.06 Y48.285 Z-24.63
X22.27 Y48.181 Z-24.635
X22.43 Y48.134 Z-24.638
X22.714 Y48.069 Z-24.644
X22.909 Y48.036 Z-24.648
X23.016 Y48.03 Z-24.651
X23.193 Y48.039 Z-24.654
X23.247 Y48.049 Z-24.656
X23.478 Y48.109 Z-24.661
X23.898 Y48.289 Z-24.67
X23.987 Y48.337 Z-24.672
X24.23 Y48.497 Z-24.678
X24.264 Y48.531 Z-24.679
X24.452 Y48.743 Z-24.685
X24.581 Y48.981 Z-24.691
X24.654 Y49.221 Z-24.696
X24.673 Y49.354 Z-24.699
X24.677 Y49.443 Z-24.701
X24.669 Y49.621 Z-24.705
X24.659 Y49.674 Z-24.706
X24.605 Y49.887 Z-24.71
X24.492 Y50.127 Z-24.716
X24.443 Y50.201 Z-24.718
X24.318 Y50.351 Z-24.722
X24.211 Y50.448 Z-24.725
X23.98 Y50.607 Z-24.731
X23.735 Y50.725 Z-24.736
X23.504 Y50.785 Z-24.741
X23.282 Y50.802 Z-24.746
X23.051 Y50.778 Z-24.751
X22.927 Y50.747 Z-24.754
X22.714 Y50.667 Z-24.758
X22.643 Y50.638 Z-24.76
X22.572 Y50.622 Z-24.762
X22.483 Y50.605 Z-24.763
X22.273 Y50.545 Z-24.768
X22.03 Y50.418 Z-24.774
X21.897 Y50.317 Z-24.777
X21.803 Y50.224 Z-24.78
X21.695 Y50.091 Z-24.784
X21.572 Y49.876 Z-24.789
X21.495 Y49.638 Z-24.794
X21.466 Y49.408 Z-24.799
X21.479 Y49.177 Z-24.804
X21.534 Y48.946 Z-24.809
X21.577 Y48.838 Z-24.811
X21.628 Y48.739 Z-24.814
X21.801 Y48.502 Z-24.82
X22.06 Y48.285 Z-24.827
X22.27 Y48.181 Z-24.832
X22.43 Y48.134 Z-24.835
X22.714 Y48.069 Z-24.841
X22.909 Y48.036 Z-24.845
X23.016 Y48.03 Z-24.848
X23.193 Y48.039 Z-24.851
X23.247 Y48.049 Z-24.853
X23.478 Y48.109 Z-24.858
X23.898 Y48.289 Z-24.867
X23.987 Y48.337 Z-24.869
X24.23 Y48.497 Z-24.875
X24.264 Y48.531 Z-24.876
X24.452 Y48.743 Z-24.882
X24.581 Y48.981 Z-24.888
X24.654 Y49.221 Z-24.893
X24.673 Y49.354 Z-24.896
X24.677 Y49.443 Z-24.898
X24.669 Y49.621 Z-24.902
X24.659 Y49.674 Z-24.903
X24.605 Y49.887 Z-24.907
X24.492 Y50.127 Z-24.913
X24.443 Y50.201 Z-24.915
X24.318 Y50.351 Z-24.919
X24.211 Y50.448 Z-24.922
X23.98 Y50.607 Z-24.928
X23.735 Y50.725 Z-24.933
X23.504 Y50.785 Z-24.938
X23.282 Y50.802 Z-24.943
X23.051 Y50.778 Z-24.948
X22.927 Y50.747 Z-24.951
X22.714 Y50.667 Z-24.955
X22.643 Y50.638 Z-24.957
X22.572 Y50.622 Z-24.959
X22.483 Y50.605 Z-24.96
X22.273 Y50.545 Z-24.965
X22.03 Y50.418 Z-24.971
X21.897 Y50.317 Z-24.974
X21.803 Y50.224 Z-24.977
X21.695 Y50.091 Z-24.981
X21.572 Y49.876 Z-24.986
X21.495 Y49.638 Z-24.991
X21.466 Y49.408 Z-24.996
X21.479 Y49.177 Z-25.001
X21.534 Y48.946 Z-25.006
X21.577 Y48.838 Z-25.008
X21.628 Y48.739 Z-25.01
X21.801 Y48.502 Z-25.017
X22.06 Y48.285 Z-25.024
X22.27 Y48.181 Z-25.029
X22.43 Y48.134 Z-25.032
X22.714 Y48.069 Z-25.038
X22.909 Y48.036 Z-25.042
X23.016 Y48.03 Z-25.045
X23.193 Y48.039 Z-25.048
X23.247 Y48.049 Z-25.049
X23.478 Y48.109 Z-25.054
X23.898 Y48.289 Z-25.064
X23.987 Y48.337 Z-25.066
X24.23 Y48.497 Z-25.072
X24.264 Y48.531 Z-25.073
X24.452 Y48.743 Z-25.079
X24.581 Y48.981 Z-25.085
X24.654 Y49.221 Z-25.09
X24.673 Y49.354 Z-25.093
X24.677 Y49.443 Z-25.095
X24.669 Y49.621 Z-25.098
X24.659 Y49.674 Z-25.1
X24.605 Y49.887 Z-25.104
X24.492 Y50.127 Z-25.11
X24.443 Y50.201 Z-25.112
X24.318 Y50.351 Z-25.116
X24.211 Y50.448 Z-25.119
X23.98 Y50.607 Z-25.125
X23.735 Y50.725 Z-25.13
X23.504 Y50.785 Z-25.135
X23.282 Y50.802 Z-25.14
X23.051 Y50.778 Z-25.145
X22.927 Y50.747 Z-25.148
X22.714 Y50.667 Z-25.152
X22.643 Y50.638 Z-25.154
X22.572 Y50.622 Z-25.155
X22.483 Y50.605 Z-25.157
X22.273 Y50.545 Z-25.162
X22.03 Y50.418 Z-25.168
X21.897 Y50.317 Z-25.171
X21.803 Y50.224 Z-25.174
X21.695 Y50.091 Z-25.178
X21.572 Y49.876 Z-25.183
X21.495 Y49.638 Z-25.188
X21.466 Y49.408 Z-25.193
X21.479 Y49.177 Z-25.198
X21.534 Y48.946 Z-25.203
X21.577 Y48.838 Z-25.205
X21.628 Y48.739 Z-25.207
X21.801 Y48.502 Z-25.214
X22.06 Y48.285 Z-25.221
X22.27 Y48.181 Z-25.226
X22.43 Y48.134 Z-25.229
X22.714 Y48.069 Z-25.235
X22.909 Y48.036 Z-25.239
X23.016 Y48.03 Z-25.242
X23.193 Y48.039 Z-25.245
X23.247 Y48.049 Z-25.246
X23.478 Y48.109 Z-25.251
X23.898 Y48.289 Z-25.261
X23.987 Y48.337 Z-25.263
X24.23 Y48.497 Z-25.269
X24.264 Y48.531 Z-25.27
X24.452 Y48.743 Z-25.276
X24.581 Y48.981 Z-25.282
X24.654 Y49.221 Z-25.287
X24.673 Y49.354 Z-25.29
X24.677 Y49.443 Z-25.292
X24.669 Y49.621 Z-25.295
X24.659 Y49.674 Z-25.297
X24.605 Y49.887 Z-25.301
X24.492 Y50.127 Z-25.307
X24.443 Y50.201 Z-25.309
X24.318 Y50.351 Z-25.313
X24.211 Y50.448 Z-25.316
X23.98 Y50.607 Z-25.322
X23.735 Y50.725 Z-25.327
X23.504 Y50.785 Z-25.332
X23.282 Y50.802 Z-25.337
X23.051 Y50.778 Z-25.342
X22.927 Y50.747 Z-25.344
X22.714 Y50.667 Z-25.349
X22.643 Y50.638 Z-25.351
X22.572 Y50.622 Z-25.352
X22.483 Y50.605 Z-25.354
X22.426 Y50.589 Z-25.356
S13000 M3
X22.273 Y50.545 F420.
X22.03 Y50.418
X21.897 Y50.317
X21.803 Y50.224
X21.695 Y50.091
X21.572 Y49.876
X21.495 Y49.638
X21.466 Y49.408
X21.479 Y49.177
X21.534 Y48.946
X21.577 Y48.838
X21.628 Y48.739
X21.801 Y48.502
X22.06 Y48.285
X22.27 Y48.181
X22.43 Y48.134
X22.714 Y48.069
X22.909 Y48.036
X23.016 Y48.03
X23.193 Y48.039
X23.247 Y48.049
X23.478 Y48.109
X23.898 Y48.289
X23.987 Y48.337
X24.23 Y48.497
X24.264 Y48.531
X24.452 Y48.743
X24.581 Y48.981
X24.654 Y49.221
X24.673 Y49.354
X24.677 Y49.443
X24.669 Y49.621
X24.659 Y49.674
X24.605 Y49.887
X24.492 Y50.127
X24.443 Y50.201
X24.318 Y50.351
X24.211 Y50.448
X23.98 Y50.607
X23.735 Y50.725
X23.504 Y50.785
X23.282 Y50.802
X23.051 Y50.778
X22.927 Y50.747
X22.714 Y50.667
X22.643 Y50.638
X22.572 Y50.622
X22.483 Y50.605
X22.426 Y50.589
X22.208 Y50.196 F1000.
X22.296 Y49.891 Z-25.038
Z5. F420.
X32.313 Y62.257
Z-23.988
S10000 M3
X32.213 Y62.322 Z-24.236 F160.
X32.039 Y62.401 Z-24.306
X31.976 Y62.43 Z-24.307
X31.807 Y62.475 Z-24.311
X31.754 Y62.482 Z-24.312
X31.523 Y62.494 Z-24.317
X31.31 Y62.468 Z-24.321
X31.061 Y62.388 Z-24.327
X30.844 Y62.28 Z-24.332
X30.748 Y62.223 Z-24.334
X30.588 Y62.104 Z-24.338
X30.386 Y61.907 Z-24.344
X30.102 Y61.595 Z-24.353
X29.91 Y61.36 Z-24.359
X29.471 Y60.792 Z-24.374
X29.016 Y60.223 Z-24.39
X28.965 Y60.147 Z-24.391
X28.835 Y59.922 Z-24.397
X28.777 Y59.797 Z-24.4
X28.728 Y59.655 Z-24.403
X28.707 Y59.579 Z-24.405
X28.673 Y59.347 Z-24.41
X28.681 Y59.11 Z-24.414
X28.709 Y58.963 Z-24.418
X28.731 Y58.891 Z-24.419
X28.83 Y58.661 Z-24.424
X28.953 Y58.47 Z-24.429
X28.991 Y58.426 Z-24.43
X29.185 Y58.234 Z-24.436
X29.25 Y58.191 Z-24.438
X29.392 Y58.104 Z-24.441
X29.631 Y58.011 Z-24.447
X29.782 Y57.979 Z-24.45
X29.853 Y57.972 Z-24.451
X30.084 Y57.971 Z-24.456
X30.333 Y58.006 Z-24.461
X30.573 Y58.069 Z-24.467
X30.82 Y58.179 Z-24.472
X30.955 Y58.266 Z-24.476
X31.025 Y58.321 Z-24.478
X31.239 Y58.52 Z-24.484
X31.523 Y58.834 Z-24.493
X31.684 Y59.024 Z-24.498
X31.807 Y59.141 Z-24.501
X32.058 Y59.371 Z-24.508
X32.241 Y59.578 Z-24.514
X32.296 Y59.655 Z-24.516
X32.375 Y59.785 Z-24.519
X32.592 Y60.223 Z-24.53
X32.66 Y60.4 Z-24.534
X32.705 Y60.508 Z-24.536
X32.819 Y60.881 Z-24.544
X32.829 Y60.934 Z-24.545
X32.853 Y61.094 Z-24.549
X32.848 Y61.334 Z-24.554
X32.803 Y61.556 Z-24.559
X32.702 Y61.807 Z-24.564
X32.66 Y61.881 Z-24.566
X32.567 Y62.016 Z-24.569
X32.429 Y62.163 Z-24.574
X32.318 Y62.254 Z-24.577
X32.213 Y62.322 Z-24.579
X31.976 Y62.43 Z-24.585
X31.807 Y62.475 Z-24.588
X31.754 Y62.482 Z-24.589
X31.523 Y62.494 Z-24.594
X31.31 Y62.468 Z-24.599
X31.061 Y62.388 Z-24.604
X30.844 Y62.28 Z-24.609
X30.748 Y62.223 Z-24.612
X30.588 Y62.104 Z-24.616
X30.386 Y61.907 Z-24.622
X30.102 Y61.595 Z-24.631
X29.91 Y61.36 Z-24.637
X29.471 Y60.792 Z-24.652
X29.016 Y60.223 Z-24.667
X28.965 Y60.147 Z-24.669
X28.835 Y59.922 Z-24.675
X28.777 Y59.797 Z-24.678
X28.728 Y59.655 Z-24.681
X28.707 Y59.579 Z-24.682
X28.673 Y59.347 Z-24.687
X28.681 Y59.11 Z-24.692
X28.709 Y58.963 Z-24.695
X28.731 Y58.891 Z-24.697
X28.83 Y58.661 Z-24.702
X28.953 Y58.47 Z-24.707
X28.991 Y58.426 Z-24.708
X29.185 Y58.234 Z-24.714
X29.25 Y58.191 Z-24.716
X29.392 Y58.104 Z-24.719
X29.631 Y58.011 Z-24.724
X29.782 Y57.979 Z-24.728
X29.853 Y57.972 Z-24.729
X30.084 Y57.971 Z-24.734
X30.333 Y58.006 Z-24.739
X30.573 Y58.069 Z-24.744
X30.82 Y58.179 Z-24.75
X30.955 Y58.266 Z-24.753
X31.025 Y58.321 Z-24.755
X31.239 Y58.52 Z-24.761
X31.523 Y58.834 Z-24.77
X31.684 Y59.024 Z-24.775
X31.807 Y59.141 Z-24.779
X32.058 Y59.371 Z-24.786
X32.241 Y59.578 Z-24.792
X32.296 Y59.655 Z-24.794
X32.375 Y59.785 Z-24.797
X32.592 Y60.223 Z-24.807
X32.66 Y60.4 Z-24.811
X32.705 Y60.508 Z-24.814
X32.819 Y60.881 Z-24.822
X32.829 Y60.934 Z-24.823
X32.853 Y61.094 Z-24.826
X32.848 Y61.334 Z-24.832
X32.803 Y61.556 Z-24.836
X32.702 Y61.807 Z-24.842
X32.66 Y61.881 Z-24.844
X32.567 Y62.016 Z-24.847
X32.429 Y62.163 Z-24.851
X32.318 Y62.254 Z-24.854
X32.213 Y62.322 Z-24.857
X31.976 Y62.43 Z-24.862
X31.807 Y62.475 Z-24.866
X31.754 Y62.482 Z-24.867
X31.523 Y62.494 Z-24.872
X31.31 Y62.468 Z-24.877
X31.061 Y62.388 Z-24.882
X30.844 Y62.28 Z-24.887
X30.748 Y62.223 Z-24.889
X30.588 Y62.104 Z-24.894
X30.386 Y61.907 Z-24.9
X30.102 Y61.595 Z-24.908
X29.91 Y61.36 Z-24.915
X29.471 Y60.792 Z-24.93
X29.016 Y60.223 Z-24.945
X28.965 Y60.147 Z-24.947
X28.835 Y59.922 Z-24.952
X28.777 Y59.797 Z-24.955
X28.728 Y59.655 Z-24.958
X28.707 Y59.579 Z-24.96
X28.673 Y59.347 Z-24.965
X28.681 Y59.11 Z-24.97
X28.709 Y58.963 Z-24.973
X28.731 Y58.891 Z-24.975
X28.83 Y58.661 Z-24.98
X28.953 Y58.47 Z-24.985
X28.991 Y58.426 Z-24.986
X29.185 Y58.234 Z-24.992
X29.25 Y58.191 Z-24.993
X29.392 Y58.104 Z-24.997
X29.631 Y58.011 Z-25.002
X29.782 Y57.979 Z-25.005
X29.853 Y57.972 Z-25.007
X30.084 Y57.971 Z-25.012
X30.333 Y58.006 Z-25.017
X30.573 Y58.069 Z-25.022
X30.82 Y58.179 Z-25.028
X30.955 Y58.266 Z-25.031
X31.025 Y58.321 Z-25.033
X31.239 Y58.52 Z-25.039
X31.523 Y58.834 Z-25.048
X31.684 Y59.024 Z-25.053
X31.807 Y59.141 Z-25.057
X32.058 Y59.371 Z-25.064
X32.241 Y59.578 Z-25.07
X32.296 Y59.655 Z-25.072
X32.375 Y59.785 Z-25.075
X32.592 Y60.223 Z-25.085
X32.66 Y60.4 Z-25.089
X32.705 Y60.508 Z-25.092
X32.819 Y60.881 Z-25.1
X32.829 Y60.934 Z-25.101
X32.853 Y61.094 Z-25.104
X32.848 Y61.334 Z-25.109
X32.803 Y61.556 Z-25.114
X32.702 Y61.807 Z-25.12
X32.66 Y61.881 Z-25.121
X32.567 Y62.016 Z-25.125
X32.429 Y62.163 Z-25.129
X32.318 Y62.254 Z-25.132
X32.213 Y62.322 Z-25.135
X31.976 Y62.43 Z-25.14
X31.807 Y62.475 Z-25.144
X31.754 Y62.482 Z-25.145
X31.523 Y62.494 Z-25.15
X31.31 Y62.468 Z-25.154
X31.061 Y62.388 Z-25.16
X30.844 Y62.28 Z-25.165
X30.748 Y62.223 Z-25.167
X30.588 Y62.104 Z-25.171
X30.386 Y61.907 Z-25.177
X30.102 Y61.595 Z-25.186
X29.91 Y61.36 Z-25.192
X29.471 Y60.792 Z-25.208
X29.016 Y60.223 Z-25.223
X28.965 Y60.147 Z-25.225
X28.835 Y59.922 Z-25.23
X28.777 Y59.797 Z-25.233
X28.728 Y59.655 Z-25.236
X28.707 Y59.579 Z-25.238
X28.673 Y59.347 Z-25.243
X28.681 Y59.11 Z-25.248
X28.709 Y58.963 Z-25.251
X28.731 Y58.891 Z-25.252
X28.83 Y58.661 Z-25.258
X28.953 Y58.47 Z-25.262
X28.991 Y58.426 Z-25.264
X29.185 Y58.234 Z-25.269
X29.25 Y58.191 Z-25.271
X29.392 Y58.104 Z-25.274
X29.631 Y58.011 Z-25.28
X29.782 Y57.979 Z-25.283
X29.853 Y57.972 Z-25.285
X30.084 Y57.971 Z-25.289
X30.333 Y58.006 Z-25.295
X30.573 Y58.069 Z-25.3
X30.82 Y58.179 Z-25.306
X30.955 Y58.266 Z-25.309
X31.025 Y58.321 Z-25.311
X31.239 Y58.52 Z-25.317
X31.523 Y58.834 Z-25.326
X31.684 Y59.024 Z-25.331
X31.807 Y59.141 Z-25.335
X32.058 Y59.371 Z-25.342
X32.241 Y59.578 Z-25.347
X32.296 Y59.655 Z-25.349
X32.375 Y59.785 Z-25.353
X32.436 Y59.909 Z-25.356
S13000 M3
X32.592 Y60.223 F420.
X32.66 Y60.4
X32.705 Y60.508
X32.819 Y60.881
X32.829 Y60.934
X32.853 Y61.094
X32.848 Y61.334
X32.803 Y61.556
X32.702 Y61.807
X32.66 Y61.881
X32.567 Y62.016
X32.429 Y62.163
X32.318 Y62.254
X32.213 Y62.322
X31.976 Y62.43
X31.807 Y62.475
X31.754 Y62.482
X31.523 Y62.494
X31.31 Y62.468
X31.061 Y62.388
X30.844 Y62.28
X30.748 Y62.223
X30.588 Y62.104
X30.386 Y61.907
X30.102 Y61.595
X29.91 Y61.36
X29.471 Y60.792
X29.016 Y60.223
X28.965 Y60.147
X28.835 Y59.922
X28.777 Y59.797
X28.728 Y59.655
X28.707 Y59.579
X28.673 Y59.347
X28.681 Y59.11
X28.709 Y58.963
X28.731 Y58.891
X28.83 Y58.661
X28.953 Y58.47
X28.991 Y58.426
X29.185 Y58.234
X29.25 Y58.191
X29.392 Y58.104
X29.631 Y58.011
X29.782 Y57.979
X29.853 Y57.972
X30.084 Y57.971
X30.333 Y58.006
X30.573 Y58.069
X30.82 Y58.179
X30.955 Y58.266
X31.025 Y58.321
X31.239 Y58.52
X31.523 Y58.834
X31.684 Y59.024
X31.807 Y59.141
X32.058 Y59.371
X32.18 Y59.51
X32.241 Y59.578
X32.296 Y59.655
X32.375 Y59.785
X32.436 Y59.909
X32.459 Y59.976 Z-25.348 F1000.
X32.465 Y60.043 Z-25.324
X32.458 Y60.102 Z-25.286
X32.444 Y60.15 Z-25.236
X32.428 Y60.185 Z-25.176
X32.416 Y60.205 Z-25.109
X32.412 Y60.212 Z-25.038
Z5. F420.
X29.851 Y64.833
Z-24.841
S10000 M3
X29.818 Y64.869 Z-25.01 F160.
X29.686 Y65.054 Z-25.156
X29.67 Y65.085 Z-25.158
X29.516 Y65.386 Z-25.165
X29.51 Y65.391 Z-25.166
X29.356 Y65.438 Z-25.169
X29.25 Y65.468 Z-25.171
X28.965 Y65.588 Z-25.178
X28.906 Y65.623 Z-25.179
X28.666 Y65.799 Z-25.185
X28.557 Y65.907 Z-25.189
X28.485 Y65.99 Z-25.191
X28.425 Y66.068 Z-25.193
X28.397 Y66.074 Z-25.194
X28.113 Y66.165 Z-25.2
X28.055 Y66.191 Z-25.201
X27.815 Y66.333 Z-25.207
X27.691 Y66.431 Z-25.21
X27.682 Y66.426 Z-25.211
X27.716 Y66.38 Z-25.212
X27.763 Y66.331 Z-25.213
X28.012 Y66.131 Z-25.22
X28.113 Y66.069 Z-25.222
X28.413 Y65.907 Z-25.23
X28.468 Y65.861 Z-25.231
X28.508 Y65.812 Z-25.232
X28.537 Y65.757 Z-25.234
X28.554 Y65.696 Z-25.235
X28.56 Y65.637 Z-25.236
X28.542 Y65.338 Z-25.242
X28.547 Y65.072 Z-25.248
X28.578 Y64.841 Z-25.253
X28.662 Y64.59 Z-25.258
X28.778 Y64.362 Z-25.264
X28.941 Y64.133 Z-25.27
X29.171 Y63.922 Z-25.276
X29.25 Y63.875 Z-25.278
X29.383 Y63.802 Z-25.281
X29.64 Y63.716 Z-25.287
X29.729 Y63.695 Z-25.289
X29.782 Y63.67 Z-25.29
X29.826 Y63.64 Z-25.291
X29.835 Z-25.292
X29.934 Y63.782 Z-25.295
X30.258 Y64.202 Z-25.306
X30.428 Y64.417 Z-25.312
X30.284 Y64.486 Z-25.315
X30.102 Y64.601 Z-25.32
X29.907 Y64.77 Z-25.325
X29.818 Y64.869 Z-25.328
X29.686 Y65.054 Z-25.333
X29.516 Y65.386 Z-25.341
X29.51 Y65.391
X29.356 Y65.438 Z-25.344
X29.25 Y65.468 Z-25.346
X28.965 Y65.588 Z-25.353
X28.906 Y65.623 Z-25.354
X28.666 Y65.799 Z-25.361
X28.557 Y65.907 Z-25.364
X28.485 Y65.99 Z-25.366
X28.425 Y66.068 Z-25.368
X28.397 Y66.074 Z-25.369
X28.113 Y66.165 Z-25.375
X28.055 Y66.191 Z-25.376
X27.815 Y66.333 Z-25.382
X27.691 Y66.431 Z-25.386
X27.682 Y66.426
X27.716 Y66.38 Z-25.387
X27.763 Y66.331 Z-25.388
X28.012 Y66.131 Z-25.395
X28.113 Y66.069 Z-25.398
X28.413 Y65.907 Z-25.405
X28.468 Y65.861 Z-25.406
X28.508 Y65.812 Z-25.407
X28.537 Y65.757 Z-25.409
X28.554 Y65.696 Z-25.41
X28.56 Y65.637 Z-25.411
X28.542 Y65.338 Z-25.418
X28.547 Y65.072 Z-25.423
X28.578 Y64.841 Z-25.428
X28.662 Y64.59 Z-25.434
X28.778 Y64.362 Z-25.439
X28.941 Y64.133 Z-25.445
X29.171 Y63.922 Z-25.451
X29.25 Y63.875 Z-25.453
X29.383 Y63.802 Z-25.457
X29.64 Y63.716 Z-25.462
X29.729 Y63.695 Z-25.464
X29.782 Y63.67 Z-25.465
X29.826 Y63.64 Z-25.466
X29.835 Z-25.467
X29.934 Y63.782 Z-25.47
X30.258 Y64.202 Z-25.481
X30.428 Y64.417 Z-25.487
X30.284 Y64.486 Z-25.49
X30.102 Y64.601 Z-25.495
X29.907 Y64.77 Z-25.5
X29.818 Y64.869 Z-25.503
X29.686 Y65.054 Z-25.508
X29.516 Y65.386 Z-25.516
X29.51 Y65.391
X29.356 Y65.438 Z-25.519
X29.25 Y65.468 Z-25.522
X28.965 Y65.588 Z-25.528
X28.906 Y65.623 Z-25.53
X28.666 Y65.799 Z-25.536
X28.557 Y65.907 Z-25.539
X28.485 Y65.99 Z-25.541
X28.425 Y66.068 Z-25.543
X28.397 Y66.074 Z-25.544
X28.113 Y66.165 Z-25.55
X28.055 Y66.191 Z-25.552
X27.815 Y66.333 Z-25.557
X27.691 Y66.431 Z-25.561
X27.682 Y66.426
X27.716 Y66.38 Z-25.562
X27.763 Y66.331 Z-25.563
X28.012 Y66.131 Z-25.57
X28.113 Y66.069 Z-25.573
X28.413 Y65.907 Z-25.58
X28.468 Y65.861 Z-25.581
X28.508 Y65.812 Z-25.583
X28.537 Y65.757 Z-25.584
X28.554 Y65.696 Z-25.585
X28.56 Y65.637 Z-25.587
X28.542 Y65.338 Z-25.593
X28.547 Y65.072 Z-25.598
X28.578 Y64.841 Z-25.603
X28.662 Y64.59 Z-25.609
X28.778 Y64.362 Z-25.614
X28.941 Y64.133 Z-25.62
X29.171 Y63.922 Z-25.627
X29.25 Y63.875 Z-25.628
X29.383 Y63.802 Z-25.632
X29.64 Y63.716 Z-25.637
X29.729 Y63.695 Z-25.639
X29.782 Y63.67 Z-25.641
X29.826 Y63.64 Z-25.642
X29.835
X29.934 Y63.782 Z-25.645
X30.258 Y64.202 Z-25.657
X30.428 Y64.417 Z-25.662
X30.284 Y64.486 Z-25.666
X30.102 Y64.601 Z-25.67
X29.907 Y64.77 Z-25.676
X29.818 Y64.869 Z-25.678
X29.686 Y65.054 Z-25.683
X29.516 Y65.386 Z-25.691
X29.51 Y65.391
X29.356 Y65.438 Z-25.694
X29.25 Y65.468 Z-25.697
X28.965 Y65.588 Z-25.703
X28.906 Y65.623 Z-25.705
X28.666 Y65.799 Z-25.711
X28.557 Y65.907 Z-25.714
X28.485 Y65.99 Z-25.716
X28.425 Y66.068 Z-25.718
X28.397 Y66.074 Z-25.719
X28.113 Y66.165 Z-25.725
X28.055 Y66.191 Z-25.727
X27.815 Y66.333 Z-25.732
X27.691 Y66.431 Z-25.736
X27.682 Y66.426
X27.716 Y66.38 Z-25.737
X27.763 Y66.331 Z-25.739
X28.012 Y66.131 Z-25.745
X28.113 Y66.069 Z-25.748
X28.413 Y65.907 Z-25.755
X28.468 Y65.861 Z-25.756
X28.508 Y65.812 Z-25.758
X28.537 Y65.757 Z-25.759
X28.554 Y65.696 Z-25.76
X28.56 Y65.637 Z-25.762
X28.542 Y65.338 Z-25.768
X28.547 Y65.072 Z-25.773
X28.578 Y64.841 Z-25.778
X28.662 Y64.59 Z-25.784
X28.778 Y64.362 Z-25.789
X28.941 Y64.133 Z-25.795
X29.171 Y63.922 Z-25.802
X29.25 Y63.875 Z-25.804
X29.383 Y63.802 Z-25.807
X29.64 Y63.716 Z-25.812
X29.729 Y63.695 Z-25.814
X29.782 Y63.67 Z-25.816
X29.826 Y63.64 Z-25.817
X29.835
X29.934 Y63.782 Z-25.821
X30.258 Y64.202 Z-25.832
X30.428 Y64.417 Z-25.837
X30.284 Y64.486 Z-25.841
X30.102 Y64.601 Z-25.845
X29.907 Y64.77 Z-25.851
X29.818 Y64.869 Z-25.853
X29.686 Y65.054 Z-25.858
X29.516 Y65.386 Z-25.866
X29.51 Y65.391
X29.356 Y65.438 Z-25.87
X29.25 Y65.468 Z-25.872
X28.965 Y65.588 Z-25.878
X28.906 Y65.623 Z-25.88
X28.666 Y65.799 Z-25.886
X28.557 Y65.907 Z-25.889
X28.485 Y65.99 Z-25.892
X28.425 Y66.068 Z-25.894
X28.397 Y66.074
X28.113 Y66.165 Z-25.9
X28.055 Y66.191 Z-25.902
X27.815 Y66.333 Z-25.908
X27.691 Y66.431 Z-25.911
X27.682 Y66.426
X27.716 Y66.38 Z-25.912
X27.763 Y66.331 Z-25.914
X28.012 Y66.131 Z-25.92
X28.113 Y66.069 Z-25.923
X28.413 Y65.907 Z-25.93
X28.468 Y65.861 Z-25.932
X28.508 Y65.812 Z-25.933
X28.537 Y65.757 Z-25.934
X28.554 Y65.696 Z-25.936
X28.56 Y65.637 Z-25.937
X28.542 Y65.338 Z-25.943
X28.547 Y65.072 Z-25.949
X28.578 Y64.841 Z-25.954
X28.662 Y64.59 Z-25.959
X28.778 Y64.362 Z-25.964
X28.941 Y64.133 Z-25.97
X29.171 Y63.922 Z-25.977
X29.25 Y63.875 Z-25.979
X29.383 Y63.802 Z-25.982
X29.64 Y63.716 Z-25.988
X29.729 Y63.695 Z-25.99
X29.782 Y63.67 Z-25.991
X29.826 Y63.64 Z-25.992
X29.835
X29.934 Y63.782 Z-25.996
X30.258 Y64.202 Z-26.007
X30.428 Y64.417 Z-26.013
X30.284 Y64.486 Z-26.016
X30.102 Y64.601 Z-26.02
X29.907 Y64.77 Z-26.026
X29.818 Y64.869 Z-26.029
X29.686 Y65.054 Z-26.033
X29.516 Y65.386 Z-26.041
X29.51 Y65.391
X29.356 Y65.438 Z-26.045
X29.25 Y65.468 Z-26.047
X28.965 Y65.588 Z-26.053
X28.906 Y65.623 Z-26.055
X28.666 Y65.799 Z-26.061
X28.557 Y65.907 Z-26.064
X28.485 Y65.99 Z-26.067
X28.425 Y66.068 Z-26.069
X28.397 Y66.074
X28.113 Y66.165 Z-26.076
X28.055 Y66.191 Z-26.077
X27.815 Y66.333 Z-26.083
X27.691 Y66.431 Z-26.086
X27.682 Y66.426
X27.716 Y66.38 Z-26.087
X27.763 Y66.331 Z-26.089
X28.012 Y66.131 Z-26.096
X28.113 Y66.069 Z-26.098
X28.413 Y65.907 Z-26.105
X28.468 Y65.861 Z-26.107
X28.508 Y65.812 Z-26.108
X28.537 Y65.757 Z-26.109
X28.554 Y65.696 Z-26.111
X28.56 Y65.637 Z-26.112
X28.542 Y65.338 Z-26.118
X28.547 Y65.072 Z-26.124
X28.578 Y64.841 Z-26.129
X28.662 Y64.59 Z-26.134
X28.778 Y64.362 Z-26.14
X28.941 Y64.133 Z-26.145
X29.171 Y63.922 Z-26.152
X29.25 Y63.875 Z-26.154
X29.383 Y63.802 Z-26.157
X29.64 Y63.716 Z-26.163
X29.729 Y63.695 Z-26.165
X29.782 Y63.67 Z-26.166
X29.826 Y63.64 Z-26.167
X29.835
X29.934 Y63.782 Z-26.171
X30.258 Y64.202 Z-26.182
X30.428 Y64.417 Z-26.188
X30.284 Y64.486 Z-26.191
X30.102 Y64.601 Z-26.196
X29.907 Y64.77 Z-26.201
X29.818 Y64.869 Z-26.204
X29.689 Y65.05 Z-26.208
S13000 M3
X29.686 Y65.054 F420.
X29.516 Y65.386
X29.51 Y65.391
X29.356 Y65.438
X29.25 Y65.468
X28.965 Y65.588
X28.906 Y65.623
X28.666 Y65.799
X28.557 Y65.907
X28.485 Y65.99
X28.425 Y66.068
X28.397 Y66.074
X28.113 Y66.165
X28.055 Y66.191
X27.815 Y66.333
X27.691 Y66.431
X27.682 Y66.426
X27.716 Y66.38
X27.763 Y66.331
X28.012 Y66.131
X28.113 Y66.069
X28.413 Y65.907
X28.468 Y65.861
X28.508 Y65.812
X28.537 Y65.757
X28.554 Y65.696
X28.56 Y65.637
X28.542 Y65.338
X28.547 Y65.072
X28.578 Y64.841
X28.662 Y64.59
X28.778 Y64.362
X28.941 Y64.133
X29.171 Y63.922
X29.25 Y63.875
X29.383 Y63.802
X29.64 Y63.716
X29.729 Y63.695
X29.782 Y63.67
X29.826 Y63.64
X29.835
X29.934 Y63.782
X30.258 Y64.202
X30.428 Y64.417
X30.284 Y64.486
X30.102 Y64.601
X29.907 Y64.77
X29.818 Y64.869
X29.689 Y65.05
X29.246 Y65.124 F1000.
X28.988 Y64.94 Z-25.891
Z5. F420.
X29.844 Y79.069
Z-24.724
S10000 M3
X29.765 Y79.088 Z-24.937 F160.
X29.536 Y79.099 Z-25.042
X29.534
X29.312 Y79.07 Z-25.047
X29.066 Y78.99 Z-25.052
X28.823 Y78.871 Z-25.058
X28.599 Y78.723 Z-25.063
X28.374 Y78.487 Z-25.07
X28.248 Y78.268 Z-25.075
X28.168 Y78.037 Z-25.081
X28.135 Y77.842 Z-25.085
X28.082 Y77.392 Z-25.094
X28.092 Y77.383
X28.1 Y77.393 Z-25.095
X28.253 Y77.557 Z-25.099
X28.397 Y77.676 Z-25.103
X28.682 Y77.842 Z-25.11
X28.965 Y77.938 Z-25.116
X29.25 Y77.979 Z-25.123
X29.534 Y77.969 Z-25.128
X29.818 Y77.915 Z-25.135
X30.102 Y77.839 Z-25.141
X30.386 Y77.701 Z-25.147
X30.67 Y77.572 Z-25.154
X30.728 Y77.557 Z-25.155
X30.955 Y77.479 Z-25.16
X31.094 Y77.411 Z-25.163
X31.1 Y77.42 Z-25.164
X31.062 Y77.469 Z-25.165
X31.036 Y77.518 Z-25.166
X31.018 Y77.575 Z-25.167
X30.986 Y77.842 Z-25.173
X30.955 Y78.031 Z-25.177
X30.928 Y78.126 Z-25.179
X30.872 Y78.277 Z-25.182
X30.722 Y78.53 Z-25.189
X30.508 Y78.749 Z-25.195
X30.475 Y78.773 Z-25.196
X30.259 Y78.909 Z-25.201
X30.131 Y78.978 Z-25.204
X29.996 Y79.033 Z-25.207
X29.765 Y79.088 Z-25.212
X29.534 Y79.099 Z-25.217
X29.312 Y79.07 Z-25.222
X29.066 Y78.99 Z-25.227
X28.823 Y78.871 Z-25.233
X28.599 Y78.723 Z-25.238
X28.374 Y78.487 Z-25.245
X28.248 Y78.268 Z-25.251
X28.168 Y78.037 Z-25.256
X28.135 Y77.842 Z-25.26
X28.082 Y77.392 Z-25.269
X28.092 Y77.383 Z-25.27
X28.1 Y77.393
X28.253 Y77.557 Z-25.275
X28.397 Y77.676 Z-25.279
X28.682 Y77.842 Z-25.285
X28.965 Y77.938 Z-25.292
X29.25 Y77.979 Z-25.298
X29.534 Y77.969 Z-25.304
X29.818 Y77.915 Z-25.31
X30.102 Y77.839 Z-25.316
X30.386 Y77.701 Z-25.323
X30.67 Y77.572 Z-25.329
X30.728 Y77.557 Z-25.33
X30.955 Y77.479 Z-25.335
X31.094 Y77.411 Z-25.339
X31.1 Y77.42
X31.062 Y77.469 Z-25.34
X31.036 Y77.518 Z-25.341
X31.018 Y77.575 Z-25.343
X30.986 Y77.842 Z-25.348
X30.955 Y78.031 Z-25.352
X30.928 Y78.126 Z-25.354
X30.872 Y78.277 Z-25.358
X30.722 Y78.53 Z-25.364
X30.508 Y78.749 Z-25.37
X30.475 Y78.773 Z-25.371
X30.259 Y78.909 Z-25.376
X30.131 Y78.978 Z-25.379
X29.996 Y79.033 Z-25.382
X29.765 Y79.088 Z-25.387
X29.534 Y79.099 Z-25.392
X29.312 Y79.07 Z-25.397
X29.066 Y78.99 Z-25.402
X28.823 Y78.871 Z-25.408
X28.599 Y78.723 Z-25.414
X28.374 Y78.487 Z-25.421
X28.248 Y78.268 Z-25.426
X28.168 Y78.037 Z-25.431
X28.135 Y77.842 Z-25.435
X28.082 Y77.392 Z-25.445
X28.092 Y77.383
X28.1 Y77.393
X28.253 Y77.557 Z-25.45
X28.397 Y77.676 Z-25.454
X28.682 Y77.842 Z-25.461
X28.965 Y77.938 Z-25.467
X29.25 Y77.979 Z-25.473
X29.534 Y77.969 Z-25.479
X29.818 Y77.915 Z-25.485
X30.102 Y77.839 Z-25.491
X30.386 Y77.701 Z-25.498
X30.67 Y77.572 Z-25.504
X30.728 Y77.557 Z-25.506
X30.955 Y77.479 Z-25.511
X31.094 Y77.411 Z-25.514
X31.1 Y77.42
X31.062 Y77.469 Z-25.515
X31.036 Y77.518 Z-25.516
X31.018 Y77.575 Z-25.518
X30.986 Y77.842 Z-25.523
X30.955 Y78.031 Z-25.527
X30.928 Y78.126 Z-25.529
X30.872 Y78.277 Z-25.533
X30.722 Y78.53 Z-25.539
X30.508 Y78.749 Z-25.545
X30.475 Y78.773 Z-25.546
X30.259 Y78.909 Z-25.552
X30.131 Y78.978 Z-25.555
X29.996 Y79.033 Z-25.558
X29.765 Y79.088 Z-25.563
X29.534 Y79.099 Z-25.568
X29.312 Y79.07 Z-25.572
X29.066 Y78.99 Z-25.578
X28.823 Y78.871 Z-25.583
X28.599 Y78.723 Z-25.589
X28.374 Y78.487 Z-25.596
X28.248 Y78.268 Z-25.601
X28.168 Y78.037 Z-25.606
X28.135 Y77.842 Z-25.61
X28.082 Y77.392 Z-25.62
X28.092 Y77.383
X28.1 Y77.393
X28.253 Y77.557 Z-25.625
X28.397 Y77.676 Z-25.629
X28.682 Y77.842 Z-25.636
X28.965 Y77.938 Z-25.642
X29.25 Y77.979 Z-25.648
X29.534 Y77.969 Z-25.654
X29.818 Y77.915 Z-25.66
X30.102 Y77.839 Z-25.666
X30.386 Y77.701 Z-25.673
X30.67 Y77.572 Z-25.679
X30.728 Y77.557 Z-25.681
X30.955 Y77.479 Z-25.686
X31.094 Y77.411 Z-25.689
X31.1 Y77.42
X31.062 Y77.469 Z-25.691
X31.036 Y77.518 Z-25.692
X31.018 Y77.575 Z-25.693
X30.986 Y77.842 Z-25.699
X30.955 Y78.031 Z-25.703
X30.928 Y78.126 Z-25.705
X30.872 Y78.277 Z-25.708
X30.722 Y78.53 Z-25.714
X30.508 Y78.749 Z-25.721
X30.475 Y78.773
X30.259 Y78.909 Z-25.727
X30.131 Y78.978 Z-25.73
X29.996 Y79.033 Z-25.733
X29.765 Y79.088 Z-25.738
X29.534 Y79.099 Z-25.743
X29.312 Y79.07 Z-25.747
X29.066 Y78.99 Z-25.753
X28.823 Y78.871 Z-25.758
X28.599 Y78.723 Z-25.764
X28.374 Y78.487 Z-25.771
X28.248 Y78.268 Z-25.776
X28.168 Y78.037 Z-25.781
X28.135 Y77.842 Z-25.786
X28.082 Y77.392 Z-25.795
X28.092 Y77.383
X28.1 Y77.393 Z-25.796
X28.253 Y77.557 Z-25.8
X28.397 Y77.676 Z-25.804
X28.682 Y77.842 Z-25.811
X28.965 Y77.938 Z-25.817
X29.25 Y77.979 Z-25.823
X29.534 Y77.969 Z-25.829
X29.818 Y77.915 Z-25.835
X30.102 Y77.839 Z-25.842
X30.386 Y77.701 Z-25.848
X30.67 Y77.572 Z-25.855
X30.728 Y77.557 Z-25.856
X30.955 Y77.479 Z-25.861
X31.094 Y77.411 Z-25.864
X31.1 Y77.42
X31.062 Y77.469 Z-25.866
X31.036 Y77.518 Z-25.867
X31.018 Y77.575 Z-25.868
X30.986 Y77.842 Z-25.874
X30.955 Y78.031 Z-25.878
X30.928 Y78.126 Z-25.88
X30.872 Y78.277 Z-25.883
X30.722 Y78.53 Z-25.889
X30.508 Y78.749 Z-25.896
X30.475 Y78.773 Z-25.897
X30.259 Y78.909 Z-25.902
X30.131 Y78.978 Z-25.905
X29.996 Y79.033 Z-25.908
X29.765 Y79.088 Z-25.913
X29.534 Y79.099 Z-25.918
X29.312 Y79.07 Z-25.923
X29.066 Y78.99 Z-25.928
X28.823 Y78.871 Z-25.934
X28.599 Y78.723 Z-25.939
X28.374 Y78.487 Z-25.946
X28.248 Y78.268 Z-25.951
X28.168 Y78.037 Z-25.957
X28.135 Y77.842 Z-25.961
X28.082 Y77.392 Z-25.97
X28.092 Y77.383
X28.1 Y77.393 Z-25.971
X28.253 Y77.557 Z-25.975
X28.397 Y77.676 Z-25.979
X28.682 Y77.842 Z-25.986
X28.965 Y77.938 Z-25.993
X29.25 Y77.979 Z-25.999
X29.534 Y77.969 Z-26.005
X29.818 Y77.915 Z-26.011
X30.102 Y77.839 Z-26.017
X30.386 Y77.701 Z-26.023
X30.67 Y77.572 Z-26.03
X30.728 Y77.557 Z-26.031
X30.955 Y77.479 Z-26.036
X31.094 Y77.411 Z-26.039
X31.1 Y77.42 Z-26.04
X31.062 Y77.469 Z-26.041
X31.036 Y77.518 Z-26.042
X31.018 Y77.575 Z-26.043
X30.986 Y77.842 Z-26.049
X30.955 Y78.031 Z-26.053
X30.928 Y78.126 Z-26.055
X30.872 Y78.277 Z-26.058
X30.722 Y78.53 Z-26.065
X30.508 Y78.749 Z-26.071
X30.475 Y78.773 Z-26.072
X30.259 Y78.909 Z-26.077
X30.131 Y78.978 Z-26.08
X29.996 Y79.033 Z-26.083
X29.765 Y79.088 Z-26.088
X29.596 Y79.096 Z-26.092
S13000 M3
X29.534 Y79.099 F420.
X29.312 Y79.07
X29.066 Y78.99
X28.823 Y78.871
X28.599 Y78.723
X28.374 Y78.487
X28.248 Y78.268
X28.168 Y78.037
X28.135 Y77.842
X28.082 Y77.392
X28.092 Y77.383
X28.1 Y77.393
X28.253 Y77.557
X28.397 Y77.676
X28.682 Y77.842
X28.965 Y77.938
X29.25 Y77.979
X29.534 Y77.969
X29.818 Y77.915
X30.102 Y77.839
X30.386 Y77.701
X30.67 Y77.572
X30.728 Y77.557
X30.955 Y77.479
X31.094 Y77.411
X31.1 Y77.42
X31.062 Y77.469
X31.036 Y77.518
X31.018 Y77.575
X30.986 Y77.842
X30.955 Y78.031
X30.928 Y78.126
X30.872 Y78.277
X30.722 Y78.53
X30.508 Y78.749
X30.475 Y78.773
X30.259 Y78.909
X30.131 Y78.978
X29.996 Y79.033
X29.765 Y79.088
X29.596 Y79.096
X29.525 Y79.089 Z-26.084 F1000.
X29.462 Y79.069 Z-26.06
X29.41 Y79.039 Z-26.023
X29.371 Y79.007 Z-25.972
X29.346 Y78.978 Z-25.912
X29.332 Y78.959 Z-25.845
X29.328 Y78.953 Z-25.774
Z5. F420.
X11.03 Y80.949
Z-24.551
S10000 M3
X10.951 Y81.007 Z-24.78 F160.
X10.894 Y81.039 Z-24.828
X10.76 Y81.099 Z-24.868
X10.672 Y81.139 Z-24.87
X10.442 Y81.192 Z-24.875
X10.22 Y81.203 Z-24.88
X9.989 Y81.172 Z-24.884
X9.767 Y81.099 Z-24.889
X9.55 Y80.979 Z-24.895
X9.308 Y80.761 Z-24.901
X9.147 Y80.523 Z-24.907
X9.081 Y80.378 Z-24.911
X9.055 Y80.296 Z-24.913
X9.013 Y80.115 Z-24.916
X8.948 Y79.778 Z-24.924
X8.93 Y79.529 Z-24.929
X8.939 Y79.405 Z-24.931
X8.965 Y79.262 Z-24.934
X9.022 Y78.978 Z-24.941
X9.054 Y78.694 Z-24.947
X9.074 Y78.571 Z-24.949
X9.093 Y78.49 Z-24.951
X9.119 Y78.41 Z-24.953
X9.218 Y78.126 Z-24.959
X9.279 Y77.895 Z-24.964
X9.312 Y77.557 Z-24.971
X9.344 Y77.327 Z-24.976
X9.381 Y77.183 Z-24.979
X9.407 Y77.112 Z-24.981
X9.534 Y76.868 Z-24.986
X9.612 Y76.763 Z-24.989
X9.723 Y76.646 Z-24.993
X9.829 Y76.557 Z-24.995
X10.057 Y76.421 Z-25.001
X10.291 Y76.34 Z-25.006
X10.53 Y76.306 Z-25.011
X10.779 Y76.308 Z-25.016
X10.886 Y76.321 Z-25.019
X10.992 Y76.345 Z-25.021
X11.216 Y76.424 Z-25.026
X11.45 Y76.566 Z-25.032
X11.554 Y76.654 Z-25.035
X11.674 Y76.785 Z-25.038
X11.741 Y76.879 Z-25.041
X11.865 Y77.122 Z-25.046
X11.902 Y77.238 Z-25.049
X11.926 Y77.343 Z-25.051
X11.947 Y77.566 Z-25.056
X11.924 Y77.842 Z-25.062
X11.885 Y78.126 Z-25.068
X11.824 Y78.694 Z-25.08
X11.807 Y78.978 Z-25.086
X11.775 Y79.262 Z-25.092
X11.733 Y79.547 Z-25.098
X11.683 Y79.831 Z-25.104
X11.626 Y80.115 Z-25.11
X11.606 Y80.186 Z-25.111
X11.573 Y80.275 Z-25.113
X11.439 Y80.523 Z-25.119
X11.318 Y80.683 Z-25.123
X11.254 Y80.761 Z-25.125
X11.127 Y80.879 Z-25.129
X10.951 Y81.007 Z-25.134
X10.894 Y81.039 Z-25.135
X10.672 Y81.139 Z-25.14
X10.442 Y81.192 Z-25.145
X10.22 Y81.203 Z-25.15
X9.989 Y81.172 Z-25.155
X9.767 Y81.099 Z-25.16
X9.55 Y80.979 Z-25.165
X9.308 Y80.761 Z-25.172
X9.147 Y80.523 Z-25.178
X9.081 Y80.378 Z-25.181
X9.055 Y80.296 Z-25.183
X9.013 Y80.115 Z-25.187
X8.948 Y79.778 Z-25.194
X8.93 Y79.529 Z-25.199
X8.939 Y79.405 Z-25.202
X8.965 Y79.262 Z-25.205
X9.022 Y78.978 Z-25.211
X9.054 Y78.694 Z-25.217
X9.074 Y78.571 Z-25.219
X9.093 Y78.49 Z-25.221
X9.119 Y78.41 Z-25.223
X9.218 Y78.126 Z-25.229
X9.279 Y77.895 Z-25.234
X9.312 Y77.557 Z-25.241
X9.344 Y77.327 Z-25.246
X9.381 Y77.183 Z-25.249
X9.407 Y77.112 Z-25.251
X9.534 Y76.868 Z-25.257
X9.612 Y76.763 Z-25.259
X9.723 Y76.646 Z-25.263
X9.829 Y76.557 Z-25.266
X10.057 Y76.421 Z-25.271
X10.291 Y76.34 Z-25.276
X10.53 Y76.306 Z-25.281
X10.779 Y76.308 Z-25.287
X10.886 Y76.321 Z-25.289
X10.992 Y76.345 Z-25.291
X11.216 Y76.424 Z-25.296
X11.45 Y76.566 Z-25.302
X11.554 Y76.654 Z-25.305
X11.674 Y76.785 Z-25.308
X11.741 Y76.879 Z-25.311
X11.865 Y77.122 Z-25.317
X11.902 Y77.238 Z-25.319
X11.926 Y77.343 Z-25.321
X11.947 Y77.566 Z-25.326
X11.924 Y77.842 Z-25.332
X11.885 Y78.126 Z-25.338
X11.824 Y78.694 Z-25.35
X11.807 Y78.978 Z-25.356
X11.775 Y79.262 Z-25.362
X11.733 Y79.547 Z-25.368
X11.683 Y79.831 Z-25.374
X11.626 Y80.115 Z-25.38
X11.606 Y80.186 Z-25.381
X11.573 Y80.275 Z-25.383
X11.439 Y80.523 Z-25.389
X11.318 Y80.683 Z-25.394
X11.254 Y80.761 Z-25.396
X11.127 Y80.879 Z-25.399
X10.951 Y81.007 Z-25.404
X10.894 Y81.039 Z-25.405
X10.672 Y81.139 Z-25.41
X10.442 Y81.192 Z-25.415
X10.22 Y81.203 Z-25.42
X9.989 Y81.172 Z-25.425
X9.767 Y81.099 Z-25.43
X9.55 Y80.979 Z-25.435
X9.308 Y80.761 Z-25.442
X9.147 Y80.523 Z-25.448
X9.081 Y80.378 Z-25.451
X9.055 Y80.296 Z-25.453
X9.013 Y80.115 Z-25.457
X8.948 Y79.778 Z-25.464
X8.93 Y79.529 Z-25.469
X8.939 Y79.405 Z-25.472
X8.965 Y79.262 Z-25.475
X9.022 Y78.978 Z-25.481
X9.054 Y78.694 Z-25.487
X9.074 Y78.571 Z-25.489
X9.093 Y78.49 Z-25.491
X9.119 Y78.41 Z-25.493
X9.218 Y78.126 Z-25.499
X9.279 Y77.895 Z-25.504
X9.312 Y77.557 Z-25.511
X9.344 Y77.327 Z-25.516
X9.381 Y77.183 Z-25.519
X9.407 Y77.112 Z-25.521
X9.534 Y76.868 Z-25.527
X9.612 Y76.763 Z-25.529
X9.723 Y76.646 Z-25.533
X9.829 Y76.557 Z-25.536
X10.057 Y76.421 Z-25.541
X10.291 Y76.34 Z-25.546
X10.53 Y76.306 Z-25.552
X10.779 Y76.308 Z-25.557
X10.886 Y76.321 Z-25.559
X10.992 Y76.345 Z-25.561
X11.216 Y76.424 Z-25.566
X11.45 Y76.566 Z-25.572
X11.554 Y76.654 Z-25.575
X11.674 Y76.785 Z-25.579
X11.741 Y76.879 Z-25.581
X11.865 Y77.122 Z-25.587
X11.902 Y77.238 Z-25.589
X11.926 Y77.343 Z-25.592
X11.947 Y77.566 Z-25.596
X11.924 Y77.842 Z-25.602
X11.885 Y78.126 Z-25.608
X11.824 Y78.694 Z-25.62
X11.807 Y78.978 Z-25.626
X11.775 Y79.262 Z-25.632
X11.733 Y79.547 Z-25.638
X11.683 Y79.831 Z-25.644
X11.626 Y80.115 Z-25.65
X11.606 Y80.186 Z-25.652
X11.573 Y80.275 Z-25.654
X11.439 Y80.523 Z-25.66
X11.318 Y80.683 Z-25.664
X11.254 Y80.761 Z-25.666
X11.127 Y80.879 Z-25.669
X10.951 Y81.007 Z-25.674
X10.894 Y81.039 Z-25.675
X10.672 Y81.139 Z-25.68
X10.442 Y81.192 Z-25.685
X10.22 Y81.203 Z-25.69
X9.989 Y81.172 Z-25.695
X9.767 Y81.099 Z-25.7
X9.55 Y80.979 Z-25.705
X9.308 Y80.761 Z-25.712
X9.147 Y80.523 Z-25.718
X9.081 Y80.378 Z-25.721
X9.055 Y80.296 Z-25.723
X9.013 Y80.115 Z-25.727
X8.948 Y79.778 Z-25.734
X8.93 Y79.529 Z-25.739
X8.939 Y79.405 Z-25.742
X8.965 Y79.262 Z-25.745
X9.022 Y78.978 Z-25.751
X9.054 Y78.694 Z-25.757
X9.074 Y78.571 Z-25.76
X9.093 Y78.49 Z-25.761
X9.119 Y78.41 Z-25.763
X9.218 Y78.126 Z-25.769
X9.279 Y77.895 Z-25.774
X9.312 Y77.557 Z-25.782
X9.344 Y77.327 Z-25.786
X9.381 Y77.183 Z-25.79
X9.407 Y77.112 Z-25.791
X9.534 Y76.868 Z-25.797
X9.612 Y76.763 Z-25.8
X9.723 Y76.646 Z-25.803
X9.829 Y76.557 Z-25.806
X10.057 Y76.421 Z-25.812
X10.291 Y76.34 Z-25.817
X10.53 Y76.306 Z-25.822
X10.779 Y76.308 Z-25.827
X10.886 Y76.321 Z-25.829
X10.992 Y76.345 Z-25.831
X11.216 Y76.424 Z-25.836
X11.45 Y76.566 Z-25.842
X11.554 Y76.654 Z-25.845
X11.674 Y76.785 Z-25.849
X11.741 Y76.879 Z-25.851
X11.865 Y77.122 Z-25.857
X11.902 Y77.238 Z-25.859
X11.926 Y77.343 Z-25.862
X11.947 Y77.566 Z-25.866
X11.924 Y77.842 Z-25.872
X11.885 Y78.126 Z-25.878
X11.824 Y78.694 Z-25.89
X11.807 Y78.978 Z-25.896
X11.775 Y79.262 Z-25.902
X11.733 Y79.547 Z-25.908
X11.683 Y79.831 Z-25.914
X11.648 Y80.006 Z-25.918
S13000 M3
X11.626 Y80.115 F420.
X11.606 Y80.186
X11.573 Y80.275
X11.439 Y80.523
X11.318 Y80.683
X11.254 Y80.761
X11.127 Y80.879
X10.951 Y81.007
X10.894 Y81.039
X10.672 Y81.139
X10.442 Y81.192
X10.22 Y81.203
X9.989 Y81.172
X9.767 Y81.099
X9.55 Y80.979
X9.308 Y80.761
X9.147 Y80.523
X9.081 Y80.378
X9.055 Y80.296
X9.013 Y80.115
X8.948 Y79.778
X8.93 Y79.529
X8.939 Y79.405
X8.965 Y79.262
X9.022 Y78.978
X9.054 Y78.694
X9.074 Y78.571
X9.093 Y78.49
X9.119 Y78.41
X9.218 Y78.126
X9.279 Y77.895
X9.312 Y77.557
X9.344 Y77.327
X9.381 Y77.183
X9.407 Y77.112
X9.534 Y76.868
X9.612 Y76.763
X9.723 Y76.646
X9.829 Y76.557
X10.057 Y76.421
X10.291 Y76.34
X10.53 Y76.306
X10.779 Y76.308
X10.886 Y76.321
X10.992 Y76.345
X11.216 Y76.424
X11.45 Y76.566
X11.554 Y76.654
X11.674 Y76.785
X11.741 Y76.879
X11.865 Y77.122
X11.902 Y77.238
X11.926 Y77.343
X11.947 Y77.566
X11.924 Y77.842
X11.885 Y78.126
X11.824 Y78.694
X11.807 Y78.978
X11.775 Y79.262
X11.733 Y79.547
X11.683 Y79.831
X11.648 Y80.006
X11.274 Y80.255 F1000.
X10.962 Y80.192 Z-25.6
Z5. F420.
X7.973 Y65.581
Z-25.448
S10000 M3
X7.831 Y65.497 Z-25.726 F160.
X7.717 Y65.406 Z-25.765
X7.68 Y65.376 Z-25.766
X7.607 Y65.303 Z-25.768
X7.493 Y65.157 Z-25.772
X7.369 Y64.926 Z-25.778
X7.282 Y64.669 Z-25.783
X7.292 Y64.661 Z-25.784
X7.337 Y64.738 Z-25.786
X7.369 Y64.788 Z-25.787
X7.502 Y64.958 Z-25.791
X7.596 Y65.054 Z-25.794
X7.653 Y65.106 Z-25.796
X7.937 Y65.303 Z-25.803
X8.222 Y65.472 Z-25.81
X8.506 Y65.593 Z-25.816
X8.666 Y65.634 Z-25.82
X8.79 Y65.654 Z-25.822
X9.089 Y65.663 Z-25.829
X9.179 Y65.654 Z-25.831
X9.358 Y65.621 Z-25.834
X9.642 Y65.523 Z-25.841
X9.927 Y65.419 Z-25.847
X10.069 Y65.376 Z-25.85
X10.211 Y65.323 Z-25.853
X10.318 Y65.276 Z-25.856
X10.327 Y65.283
X10.311 Y65.338 Z-25.857
X10.305 Y65.406 Z-25.859
X10.309 Y65.444 Z-25.86
X10.302 Y65.454
X10.211 Y65.473 Z-25.862
X10.069 Y65.514 Z-25.865
X9.927 Y65.569 Z-25.868
X9.81 Y65.623 Z-25.871
X9.642 Y65.714 Z-25.875
X9.502 Y65.803 Z-25.878
X9.358 Y65.91 Z-25.882
X9.281 Y65.978 Z-25.884
X9.235 Y65.935 Z-25.885
X9.179 Y65.899 Z-25.887
X9.119 Y65.876 Z-25.888
X9.074 Y65.867 Z-25.889
X8.79 Y65.878 Z-25.895
X8.697 Y65.871 Z-25.897
X8.561 Y65.849 Z-25.9
X8.337 Y65.78 Z-25.905
X8.042 Y65.623 Z-25.912
X7.831 Y65.497 Z-25.917
X7.68 Y65.376 Z-25.921
X7.607 Y65.303 Z-25.923
X7.493 Y65.157 Z-25.927
X7.369 Y64.926 Z-25.933
X7.282 Y64.669 Z-25.938
X7.292 Y64.661
X7.337 Y64.738 Z-25.94
X7.369 Y64.788 Z-25.942
X7.502 Y64.958 Z-25.946
X7.596 Y65.054 Z-25.949
X7.653 Y65.106 Z-25.951
X7.937 Y65.303 Z-25.958
X8.222 Y65.472 Z-25.965
X8.506 Y65.593 Z-25.971
X8.666 Y65.634 Z-25.975
X8.79 Y65.654 Z-25.977
X9.089 Y65.663 Z-25.984
X9.179 Y65.654 Z-25.985
X9.358 Y65.621 Z-25.989
X9.642 Y65.523 Z-25.996
X9.927 Y65.419 Z-26.002
X10.069 Y65.376 Z-26.005
X10.211 Y65.323 Z-26.008
X10.318 Y65.276 Z-26.011
X10.327 Y65.283
X10.311 Y65.338 Z-26.012
X10.305 Y65.406 Z-26.013
X10.309 Y65.444 Z-26.014
X10.302 Y65.454 Z-26.015
X10.211 Y65.473 Z-26.017
X10.069 Y65.514 Z-26.02
X9.927 Y65.569 Z-26.023
X9.81 Y65.623 Z-26.025
X9.642 Y65.714 Z-26.029
X9.502 Y65.803 Z-26.033
X9.358 Y65.91 Z-26.037
X9.281 Y65.978 Z-26.039
X9.235 Y65.935 Z-26.04
X9.179 Y65.899 Z-26.042
X9.119 Y65.876 Z-26.043
X9.074 Y65.867 Z-26.044
X8.79 Y65.878 Z-26.05
X8.697 Y65.871 Z-26.052
X8.561 Y65.849 Z-26.055
X8.337 Y65.78 Z-26.06
X8.042 Y65.623 Z-26.067
X7.831 Y65.497 Z-26.072
X7.68 Y65.376 Z-26.076
X7.607 Y65.303 Z-26.078
X7.493 Y65.157 Z-26.082
X7.369 Y64.926 Z-26.087
X7.282 Y64.669 Z-26.093
X7.292 Y64.661
X7.337 Y64.738 Z-26.095
X7.369 Y64.788 Z-26.096
X7.502 Y64.958 Z-26.101
X7.596 Y65.054 Z-26.104
X7.653 Y65.106 Z-26.105
X7.937 Y65.303 Z-26.113
X8.222 Y65.472 Z-26.12
X8.506 Y65.593 Z-26.126
X8.666 Y65.634 Z-26.129
X8.79 Y65.654 Z-26.132
X9.089 Y65.663 Z-26.138
X9.179 Y65.654 Z-26.14
X9.358 Y65.621 Z-26.144
X9.642 Y65.523 Z-26.15
X9.927 Y65.419 Z-26.157
X10.069 Y65.376 Z-26.16
X10.211 Y65.323 Z-26.163
X10.318 Y65.276 Z-26.165
X10.327 Y65.283 Z-26.166
X10.311 Y65.338 Z-26.167
X10.305 Y65.406 Z-26.168
X10.309 Y65.444 Z-26.169
X10.302 Y65.454
X10.211 Y65.473 Z-26.171
X10.069 Y65.514 Z-26.174
X9.927 Y65.569 Z-26.178
X9.81 Y65.623 Z-26.18
X9.642 Y65.714 Z-26.184
X9.502 Y65.803 Z-26.188
X9.358 Y65.91 Z-26.192
X9.281 Y65.978 Z-26.194
X9.235 Y65.935 Z-26.195
X9.179 Y65.899 Z-26.196
X9.119 Y65.876 Z-26.198
X9.074 Y65.867 Z-26.199
X8.79 Y65.878 Z-26.205
X8.697 Y65.871 Z-26.207
X8.561 Y65.849 Z-26.209
X8.337 Y65.78 Z-26.214
X8.042 Y65.623 Z-26.221
X7.831 Y65.497 Z-26.227
X7.68 Y65.376 Z-26.231
X7.607 Y65.303 Z-26.233
X7.493 Y65.157 Z-26.237
X7.369 Y64.926 Z-26.242
X7.282 Y64.669 Z-26.248
X7.292 Y64.661
X7.337 Y64.738 Z-26.25
X7.369 Y64.788 Z-26.251
X7.502 Y64.958 Z-26.256
X7.596 Y65.054 Z-26.259
X7.653 Y65.106 Z-26.26
X7.937 Y65.303 Z-26.267
X8.222 Y65.472 Z-26.274
X8.506 Y65.593 Z-26.281
X8.666 Y65.634 Z-26.284
X8.79 Y65.654 Z-26.287
X9.089 Y65.663 Z-26.293
X9.179 Y65.654 Z-26.295
X9.358 Y65.621 Z-26.299
X9.642 Y65.523 Z-26.305
X9.927 Y65.419 Z-26.312
X10.069 Y65.376 Z-26.315
X10.211 Y65.323 Z-26.318
X10.318 Y65.276 Z-26.32
X10.327 Y65.283
X10.311 Y65.338 Z-26.322
X10.305 Y65.406 Z-26.323
X10.309 Y65.444 Z-26.324
X10.302 Y65.454
X10.211 Y65.473 Z-26.326
X10.069 Y65.514 Z-26.329
X9.927 Y65.569 Z-26.332
X9.81 Y65.623 Z-26.335
X9.642 Y65.714 Z-26.339
X9.502 Y65.803 Z-26.343
X9.358 Y65.91 Z-26.346
X9.281 Y65.978 Z-26.348
X9.235 Y65.935 Z-26.35
X9.179 Y65.899 Z-26.351
X9.119 Y65.876 Z-26.353
X9.074 Y65.867 Z-26.354
X8.79 Y65.878 Z-26.359
X8.697 Y65.871 Z-26.361
X8.561 Y65.849 Z-26.364
X8.337 Y65.78 Z-26.369
X8.042 Y65.623 Z-26.376
X7.831 Y65.497 Z-26.381
X7.68 Y65.376 Z-26.385
X7.607 Y65.303 Z-26.388
X7.493 Y65.157 Z-26.391
X7.369 Y64.926 Z-26.397
X7.282 Y64.669 Z-26.403
X7.292 Y64.661
X7.337 Y64.738 Z-26.405
X7.369 Y64.788 Z-26.406
X7.502 Y64.958 Z-26.411
X7.596 Y65.054 Z-26.413
X7.653 Y65.106 Z-26.415
X7.937 Y65.303 Z-26.422
X8.222 Y65.472 Z-26.429
X8.506 Y65.593 Z-26.436
X8.666 Y65.634 Z-26.439
X8.79 Y65.654 Z-26.442
X9.089 Y65.663 Z-26.448
X9.179 Y65.654 Z-26.45
X9.358 Y65.621 Z-26.454
X9.642 Y65.523 Z-26.46
X9.927 Y65.419 Z-26.466
X10.069 Y65.376 Z-26.469
X10.211 Y65.323 Z-26.473
X10.318 Y65.276 Z-26.475
X10.327 Y65.283
X10.311 Y65.338 Z-26.476
X10.305 Y65.406 Z-26.478
X10.309 Y65.444 Z-26.479
X10.302 Y65.454
X10.211 Y65.473 Z-26.481
X10.069 Y65.514 Z-26.484
X9.927 Y65.569 Z-26.487
X9.81 Y65.623 Z-26.49
X9.642 Y65.714 Z-26.494
X9.502 Y65.803 Z-26.497
X9.358 Y65.91 Z-26.501
X9.281 Y65.978 Z-26.503
X9.235 Y65.935 Z-26.505
X9.179 Y65.899 Z-26.506
X9.119 Y65.876 Z-26.507
X9.074 Y65.867 Z-26.508
X8.79 Y65.878 Z-26.514
X8.697 Y65.871 Z-26.516
X8.561 Y65.849 Z-26.519
X8.337 Y65.78 Z-26.524
X8.042 Y65.623 Z-26.531
X7.831 Y65.497 Z-26.536
X7.68 Y65.376 Z-26.54
X7.607 Y65.303 Z-26.542
X7.493 Y65.157 Z-26.546
X7.369 Y64.926 Z-26.552
X7.282 Y64.669 Z-26.557
X7.292 Y64.661 Z-26.558
X7.337 Y64.738 Z-26.56
X7.369 Y64.788 Z-26.561
X7.502 Y64.958 Z-26.565
X7.596 Y65.054 Z-26.568
X7.653 Y65.106 Z-26.57
X7.937 Y65.303 Z-26.577
X8.222 Y65.472 Z-26.584
X8.506 Y65.593 Z-26.59
X8.666 Y65.634 Z-26.594
X8.79 Y65.654 Z-26.597
X9.089 Y65.663 Z-26.603
X9.179 Y65.654 Z-26.605
X9.358 Y65.621 Z-26.608
X9.642 Y65.523 Z-26.615
X9.927 Y65.419 Z-26.621
X10.069 Y65.376 Z-26.624
X10.211 Y65.323 Z-26.627
X10.318 Y65.276 Z-26.63
X10.327 Y65.283
X10.311 Y65.338 Z-26.631
X10.305 Y65.406 Z-26.633
X10.309 Y65.444 Z-26.634
X10.302 Y65.454
X10.211 Y65.473 Z-26.636
X10.069 Y65.514 Z-26.639
X9.927 Y65.569 Z-26.642
X9.81 Y65.623 Z-26.645
X9.642 Y65.714 Z-26.649
X9.502 Y65.803 Z-26.652
X9.358 Y65.91 Z-26.656
X9.281 Y65.978 Z-26.658
X9.235 Y65.935 Z-26.659
X9.179 Y65.899 Z-26.661
X9.119 Y65.876 Z-26.662
X9.074 Y65.867 Z-26.663
X8.79 Y65.878 Z-26.669
X8.697 Y65.871 Z-26.671
X8.561 Y65.849 Z-26.674
X8.337 Y65.78 Z-26.679
X8.042 Y65.623 Z-26.686
X7.831 Y65.497 Z-26.691
X7.68 Y65.376 Z-26.695
X7.607 Y65.303 Z-26.697
X7.493 Y65.157 Z-26.701
X7.369 Y64.926 Z-26.707
X7.282 Y64.669 Z-26.712
X7.292 Y64.661 Z-26.713
X7.337 Y64.738 Z-26.714
X7.369 Y64.788 Z-26.716
X7.502 Y64.958 Z-26.72
X7.596 Y65.054 Z-26.723
X7.653 Y65.106 Z-26.725
X7.937 Y65.303 Z-26.732
X8.222 Y65.472 Z-26.739
X8.506 Y65.593 Z-26.745
X8.666 Y65.634 Z-26.749
X8.79 Y65.654 Z-26.751
X9.089 Y65.663 Z-26.758
X9.179 Y65.654 Z-26.759
X9.358 Y65.621 Z-26.763
X9.642 Y65.523 Z-26.77
X9.927 Y65.419 Z-26.776
X10.069 Y65.376 Z-26.779
X10.211 Y65.323 Z-26.782
X10.318 Y65.276 Z-26.785
X10.327 Y65.283
X10.311 Y65.338 Z-26.786
X10.305 Y65.406 Z-26.788
X10.309 Y65.444
X10.302 Y65.454 Z-26.789
X10.211 Y65.473 Z-26.791
X10.069 Y65.514 Z-26.794
X9.927 Y65.569 Z-26.797
X9.81 Y65.623 Z-26.799
X9.642 Y65.714 Z-26.803
X9.502 Y65.803 Z-26.807
X9.358 Y65.91 Z-26.811
X9.281 Y65.978 Z-26.813
X9.235 Y65.935 Z-26.814
X9.196 Y65.909 Z-26.815
S13000 M3
X9.179 Y65.899 F420.
X9.119 Y65.876
X9.074 Y65.867
X8.79 Y65.878
X8.697 Y65.871
X8.561 Y65.849
X8.337 Y65.78
X8.042 Y65.623
X7.831 Y65.497
X7.68 Y65.376
X7.607 Y65.303
X7.493 Y65.157
X7.369 Y64.926
X7.282 Y64.669
X7.292 Y64.661
X7.337 Y64.738
X7.369 Y64.788
X7.502 Y64.958
X7.596 Y65.054
X7.653 Y65.106
X7.937 Y65.303
X8.222 Y65.472
X8.506 Y65.593
X8.666 Y65.634
X8.79 Y65.654
X9.089 Y65.663
X9.179 Y65.654
X9.358 Y65.621
X9.642 Y65.523
X9.927 Y65.419
X10.069 Y65.376
X10.211 Y65.323
X10.318 Y65.276
X10.327 Y65.283
X10.311 Y65.338
X10.305 Y65.406
X10.309 Y65.444
X10.302 Y65.454
X10.211 Y65.473
X10.069 Y65.514
X9.927 Y65.569
X9.81 Y65.623
X9.642 Y65.714
X9.502 Y65.803
X9.358 Y65.91
X9.281 Y65.978
X9.235 Y65.935
X9.196 Y65.909
X9.167 Y65.886 Z-26.811 F1000.
X9.145 Y65.858 Z-26.798
X9.13 Y65.829 Z-26.778
X9.122 Y65.804 Z-26.752
X9.119 Y65.784 Z-26.72
Y65.771 Z-26.684
X9.118 Y65.767 Z-26.646
Z5. F420.
X8.465 Y57.832
Z-24.399
S10000 M3
X8.666 Y57.597 Z-24.716 F160.
X8.667 Y57.596
X8.721 Y57.552 Z-24.718
X8.965 Y57.389 Z-24.724
X9.172 Y57.309 Z-24.728
X9.394 Y57.264 Z-24.733
X9.625 Y57.26 Z-24.738
X9.855 Y57.299 Z-24.743
X10.083 Y57.382 Z-24.748
X10.313 Y57.524 Z-24.754
X10.495 Y57.676 Z-24.759
X10.549 Y57.727 Z-24.76
X10.654 Y57.856 Z-24.764
X10.783 Y58.078 Z-24.769
X10.862 Y58.314 Z-24.774
X10.893 Y58.536 Z-24.779
X10.886 Y58.767 Z-24.784
X10.837 Y59.007 Z-24.789
X10.779 Y59.159 Z-24.792
X10.723 Y59.286 Z-24.795
X10.71 Y59.355 Z-24.797
X10.709 Y59.385
X10.702 Y59.39 Z-24.798
X10.554 Y59.339 Z-24.801
X10.495 Y59.323 Z-24.802
X10.211 Y59.273 Z-24.808
X9.927 Y59.27 Z-24.814
X9.642 Y59.318 Z-24.82
X9.48 Y59.371 Z-24.824
X9.358 Y59.394 Z-24.826
X8.79 Y59.579 Z-24.839
X8.491 Y59.655 Z-24.845
X8.222 Y59.735 Z-24.851
X8.154 Y59.763 Z-24.853
X8.118 Y59.681 Z-24.855
X8.021 Y59.513 Z-24.859
X7.948 Y59.334 Z-24.863
X7.933 Y59.271 Z-24.864
X7.894 Y59.051 Z-24.869
X7.89 Y58.945 Z-24.871
X7.898 Y58.803 Z-24.874
X7.915 Y58.699 Z-24.876
X7.937 Y58.595 Z-24.878
X7.961 Y58.519 Z-24.88
X8.024 Y58.359 Z-24.884
X8.082 Y58.252 Z-24.886
X8.166 Y58.129 Z-24.889
X8.29 Y57.992 Z-24.893
X8.446 Y57.855 Z-24.898
X8.666 Y57.597 Z-24.905
X8.721 Y57.552 Z-24.906
X8.965 Y57.389 Z-24.912
X9.172 Y57.309 Z-24.917
X9.394 Y57.264 Z-24.922
X9.625 Y57.26 Z-24.926
X9.855 Y57.299 Z-24.931
X10.083 Y57.382 Z-24.936
X10.313 Y57.524 Z-24.942
X10.495 Y57.676 Z-24.947
X10.549 Y57.727 Z-24.949
X10.654 Y57.856 Z-24.952
X10.783 Y58.078 Z-24.958
X10.862 Y58.314 Z-24.963
X10.893 Y58.536 Z-24.967
X10.886 Y58.767 Z-24.972
X10.837 Y59.007 Z-24.977
X10.779 Y59.159 Z-24.981
X10.723 Y59.286 Z-24.984
X10.71 Y59.355 Z-24.985
X10.709 Y59.385 Z-24.986
X10.702 Y59.39
X10.554 Y59.339 Z-24.989
X10.495 Y59.323 Z-24.991
X10.211 Y59.273 Z-24.997
X9.927 Y59.27 Z-25.003
X9.642 Y59.318 Z-25.009
X9.48 Y59.371 Z-25.012
X9.358 Y59.394 Z-25.015
X8.79 Y59.579 Z-25.027
X8.491 Y59.655 Z-25.034
X8.222 Y59.735 Z-25.04
X8.154 Y59.763 Z-25.041
X8.118 Y59.681 Z-25.043
X8.021 Y59.513 Z-25.047
X7.948 Y59.334 Z-25.051
X7.933 Y59.271 Z-25.053
X7.894 Y59.051 Z-25.057
X7.89 Y58.945 Z-25.059
X7.898 Y58.803 Z-25.062
X7.915 Y58.699 Z-25.065
X7.937 Y58.595 Z-25.067
X7.961 Y58.519 Z-25.069
X8.024 Y58.359 Z-25.072
X8.082 Y58.252 Z-25.075
X8.166 Y58.129 Z-25.078
X8.29 Y57.992 Z-25.082
X8.446 Y57.855 Z-25.086
X8.666 Y57.597 Z-25.093
X8.721 Y57.552 Z-25.095
X8.965 Y57.389 Z-25.101
X9.172 Y57.309 Z-25.105
X9.394 Y57.264 Z-25.11
X9.625 Y57.26 Z-25.115
X9.855 Y57.299 Z-25.12
X10.083 Y57.382 Z-25.125
X10.313 Y57.524 Z-25.131
X10.495 Y57.676 Z-25.136
X10.549 Y57.727 Z-25.137
X10.654 Y57.856 Z-25.141
X10.783 Y58.078 Z-25.146
X10.862 Y58.314 Z-25.151
X10.893 Y58.536 Z-25.156
X10.886 Y58.767 Z-25.161
X10.837 Y59.007 Z-25.166
X10.779 Y59.159 Z-25.169
X10.723 Y59.286 Z-25.172
X10.71 Y59.355 Z-25.174
X10.709 Y59.385
X10.702 Y59.39
X10.554 Y59.339 Z-25.178
X10.495 Y59.323 Z-25.179
X10.211 Y59.273 Z-25.185
X9.927 Y59.27 Z-25.191
X9.642 Y59.318 Z-25.197
X9.48 Y59.371 Z-25.201
X9.358 Y59.394 Z-25.203
X8.79 Y59.579 Z-25.216
X8.491 Y59.655 Z-25.222
X8.222 Y59.735 Z-25.228
X8.154 Y59.763 Z-25.23
X8.118 Y59.681 Z-25.231
X8.021 Y59.513 Z-25.236
X7.948 Y59.334 Z-25.24
X7.933 Y59.271 Z-25.241
X7.894 Y59.051 Z-25.246
X7.89 Y58.945 Z-25.248
X7.898 Y58.803 Z-25.251
X7.915 Y58.699 Z-25.253
X7.937 Y58.595 Z-25.255
X7.961 Y58.519 Z-25.257
X8.024 Y58.359 Z-25.261
X8.082 Y58.252 Z-25.263
X8.166 Y58.129 Z-25.266
X8.29 Y57.992 Z-25.27
X8.446 Y57.855 Z-25.274
X8.666 Y57.597 Z-25.282
X8.721 Y57.552 Z-25.283
X8.965 Y57.389 Z-25.289
X9.172 Y57.309 Z-25.294
X9.394 Y57.264 Z-25.299
X9.625 Y57.26 Z-25.303
X9.855 Y57.299 Z-25.308
X10.083 Y57.382 Z-25.313
X10.313 Y57.524 Z-25.319
X10.495 Y57.676 Z-25.324
X10.549 Y57.727 Z-25.326
X10.654 Y57.856 Z-25.329
X10.783 Y58.078 Z-25.334
X10.862 Y58.314 Z-25.34
X10.893 Y58.536 Z-25.344
X10.886 Y58.767 Z-25.349
X10.837 Y59.007 Z-25.354
X10.779 Y59.159 Z-25.358
X10.723 Y59.286 Z-25.361
X10.71 Y59.355 Z-25.362
X10.709 Y59.385 Z-25.363
X10.702 Y59.39
X10.554 Y59.339 Z-25.366
X10.495 Y59.323 Z-25.367
X10.211 Y59.273 Z-25.374
X9.927 Y59.27 Z-25.379
X9.642 Y59.318 Z-25.385
X9.48 Y59.371 Z-25.389
X9.358 Y59.394 Z-25.392
X8.79 Y59.579 Z-25.404
X8.491 Y59.655 Z-25.411
X8.222 Y59.735 Z-25.417
X8.154 Y59.763 Z-25.418
X8.118 Y59.681 Z-25.42
X8.021 Y59.513 Z-25.424
X7.948 Y59.334 Z-25.428
X7.933 Y59.271 Z-25.429
X7.894 Y59.051 Z-25.434
X7.89 Y58.945 Z-25.436
X7.898 Y58.803 Z-25.439
X7.915 Y58.699 Z-25.441
X7.937 Y58.595 Z-25.444
X7.961 Y58.519 Z-25.445
X8.024 Y58.359 Z-25.449
X8.082 Y58.252 Z-25.452
X8.166 Y58.129 Z-25.455
X8.29 Y57.992 Z-25.459
X8.446 Y57.855 Z-25.463
X8.666 Y57.597 Z-25.47
X8.721 Y57.552 Z-25.471
X8.965 Y57.389 Z-25.478
X9.172 Y57.309 Z-25.482
X9.394 Y57.264 Z-25.487
X9.625 Y57.26 Z-25.492
X9.855 Y57.299 Z-25.497
X10.083 Y57.382 Z-25.502
X10.313 Y57.524 Z-25.507
X10.495 Y57.676 Z-25.512
X10.549 Y57.727 Z-25.514
X10.654 Y57.856 Z-25.517
X10.783 Y58.078 Z-25.523
X10.862 Y58.314 Z-25.528
X10.893 Y58.536 Z-25.533
X10.886 Y58.767 Z-25.538
X10.837 Y59.007 Z-25.543
X10.779 Y59.159 Z-25.546
X10.723 Y59.286 Z-25.549
X10.71 Y59.355 Z-25.551
X10.709 Y59.385
X10.702 Y59.39
X10.554 Y59.339 Z-25.555
X10.495 Y59.323 Z-25.556
X10.211 Y59.273 Z-25.562
X9.927 Y59.27 Z-25.568
X9.642 Y59.318 Z-25.574
X9.48 Y59.371 Z-25.578
X9.358 Y59.394 Z-25.58
X8.79 Y59.579 Z-25.593
X8.491 Y59.655 Z-25.599
X8.222 Y59.735 Z-25.605
X8.154 Y59.763 Z-25.607
X8.118 Y59.681 Z-25.608
X8.021 Y59.513 Z-25.612
X7.948 Y59.334 Z-25.616
X7.933 Y59.271 Z-25.618
X7.894 Y59.051 Z-25.623
X7.89 Y58.945 Z-25.625
X7.898 Y58.803 Z-25.628
X7.915 Y58.699 Z-25.63
X7.937 Y58.595 Z-25.632
X7.961 Y58.519 Z-25.634
X8.024 Y58.359 Z-25.637
X8.082 Y58.252 Z-25.64
X8.166 Y58.129 Z-25.643
X8.29 Y57.992 Z-25.647
X8.446 Y57.855 Z-25.651
X8.666 Y57.597 Z-25.658
X8.721 Y57.552 Z-25.66
X8.965 Y57.389 Z-25.666
X9.172 Y57.309 Z-25.671
X9.394 Y57.264 Z-25.675
X9.625 Y57.26 Z-25.68
X9.855 Y57.299 Z-25.685
X10.083 Y57.382 Z-25.69
X10.313 Y57.524 Z-25.696
X10.495 Y57.676 Z-25.701
X10.549 Y57.727 Z-25.702
X10.654 Y57.856 Z-25.706
X10.783 Y58.078 Z-25.711
X10.862 Y58.314 Z-25.717
X10.893 Y58.536 Z-25.721
X10.886 Y58.767 Z-25.726
X10.837 Y59.007 Z-25.731
X10.779 Y59.159 Z-25.735
X10.723 Y59.286 Z-25.738
X10.71 Y59.355 Z-25.739
X10.709 Y59.385 Z-25.74
X10.702 Y59.39
X10.554 Y59.339 Z-25.743
X10.495 Y59.323 Z-25.744
X10.211 Y59.273 Z-25.75
X9.927 Y59.27 Z-25.756
X9.642 Y59.318 Z-25.762
X9.48 Y59.371 Z-25.766
X9.467 Y59.373
S13000 M3
X9.358 Y59.394 F420.
X8.79 Y59.579
X8.491 Y59.655
X8.222 Y59.735
X8.154 Y59.763
X8.118 Y59.681
X8.021 Y59.513
X7.948 Y59.334
X7.933 Y59.271
X7.894 Y59.051
X7.89 Y58.945
X7.898 Y58.803
X7.915 Y58.699
X7.937 Y58.595
X7.961 Y58.519
X8.024 Y58.359
X8.082 Y58.252
X8.166 Y58.129
X8.29 Y57.992
X8.446 Y57.855
X8.666 Y57.597
X8.721 Y57.552
X8.965 Y57.389
X9.172 Y57.309
X9.394 Y57.264
X9.625 Y57.26
X9.855 Y57.299
X10.083 Y57.382
X10.313 Y57.524
X10.495 Y57.676
X10.549 Y57.727
X10.654 Y57.856
X10.783 Y58.078
X10.862 Y58.314
X10.893 Y58.536
X10.886 Y58.767
X10.837 Y59.007
X10.779 Y59.159
X10.723 Y59.286
X10.71 Y59.355
X10.709 Y59.385
X10.702 Y59.39
X10.554 Y59.339
X10.495 Y59.323
X10.211 Y59.273
X9.927 Y59.27
X9.642 Y59.318
X9.48 Y59.371
X9.467 Y59.373
X9.4 Y59.273 F1000.
X9.556 Y59.037
X9.646 Y58.986
X10.025 Y58.914
X10.213 Y59.056
X10.054 Y59.229
S10000 M3
X9.927 Y59.228 Z-25.769 F160.
X9.642 Y59.278 Z-25.775
X9.533 Y59.309 Z-25.777
S13000 M3
X9.317 Y59.371 F420.
X8.79 Y59.539
X8.327 Y59.655
X8.222 Y59.69
X8.084 Y59.748
X8.078 Y59.742
X8.057 Y59.698
X8.031 Y59.655
X7.949 Y59.495
X7.884 Y59.291
X7.852 Y59.069
X7.861 Y58.838
X7.916 Y58.592
X7.937 Y58.522
X8.002 Y58.359
X8.059 Y58.252
X8.136 Y58.138
X8.186 Y58.078
X8.312 Y57.95
X8.546 Y57.666
X8.607 Y57.6
X8.729 Y57.492
X8.79 Y57.446
X8.912 Y57.368
X9.062 Y57.297
X9.216 Y57.247
X9.358 Y57.209
X9.536 Y57.183
X9.642 Y57.18
X9.873 Y57.202
X10.104 Y57.27
X10.316 Y57.376
X10.574 Y57.58
X10.644 Y57.666
X10.783 Y57.849
X10.881 Y58.066
X10.938 Y58.288
X10.954 Y58.519
X10.934 Y58.767
X10.88 Y58.998
X10.809 Y59.174
X10.796 Y59.226
X10.793 Y59.28
X10.799 Y59.335
X10.808 Y59.371
X10.8 Y59.374
X10.779 Y59.365
X10.495 Y59.278
X10.211 Y59.23
X9.927 Y59.228
X9.642 Y59.278
X9.533 Y59.309
X9.14 Y59.091 F1000.
X9.052 Y58.786 Z-25.46
Z5. F420.
X3.524 Y58.415
Z-26.75
S10000 M3
X3.526 Y58.536 Z-27. F160.
X3.548 Y58.725 Z-27.068
X3.556 Y58.803 Z-27.069
X3.582 Y59.108 Z-27.076
X3.583 Y59.16 Z-27.077
X3.574 Y59.166
X3.517 Y59.087 Z-27.079
X3.391 Y58.942 Z-27.083
X3.233 Y58.803 Z-27.087
X3.107 Y58.714 Z-27.091
X2.822 Y58.569 Z-27.097
X2.673 Y58.519 Z-27.101
X2.538 Y58.487 Z-27.104
X2.254 Y58.459 Z-27.11
X1.97 Y58.483 Z-27.116
X1.813 Y58.519 Z-27.119
X1.686 Y58.56 Z-27.122
X1.402 Y58.701 Z-27.128
X1.257 Y58.803 Z-27.132
X1.117 Y58.927 Z-27.136
X0.979 Y59.087 Z-27.14
X0.975 Z-27.141
Y57.879 Z-27.166
X0.988 Y57.719 Z-27.169
X1.05 Y57.471 Z-27.175
X1.117 Y57.312 Z-27.178
X1.148 Y57.259 Z-27.179
X1.334 Y57.011 Z-27.186
X1.594 Y56.806 Z-27.193
X1.828 Y56.696 Z-27.198
X1.899 Y56.669 Z-27.2
X1.952 Y56.637 Z-27.201
X2.005 Y56.588 Z-27.203
X2.112 Y56.659 Z-27.205
X2.254 Y56.74 Z-27.209
X2.333 Y56.779 Z-27.211
X2.412 Y56.814 Z-27.212
X2.538 Y56.858 Z-27.215
X2.68 Y56.896 Z-27.218
X2.822 Y56.929 Z-27.221
X2.965 Y56.95 Z-27.224
X3.107 Y56.958 Z-27.227
X3.187 Y56.957 Z-27.229
X3.195 Y56.966
X3.207 Y57.028 Z-27.231
X3.228 Y57.08 Z-27.232
X3.322 Y57.223 Z-27.235
X3.391 Y57.349 Z-27.238
X3.447 Y57.488 Z-27.242
X3.503 Y57.728 Z-27.247
X3.515 Y57.879 Z-27.25
X3.526 Y58.536 Z-27.264
X3.556 Y58.803 Z-27.269
X3.582 Y59.108 Z-27.276
X3.583 Y59.16 Z-27.277
X3.574 Y59.166
X3.517 Y59.087 Z-27.279
X3.391 Y58.942 Z-27.283
X3.233 Y58.803 Z-27.287
X3.107 Y58.714 Z-27.291
X2.822 Y58.569 Z-27.297
X2.673 Y58.519 Z-27.301
X2.538 Y58.487 Z-27.304
X2.254 Y58.459 Z-27.31
X1.97 Y58.483 Z-27.316
X1.813 Y58.519 Z-27.319
X1.686 Y58.56 Z-27.322
X1.402 Y58.701 Z-27.328
X1.257 Y58.803 Z-27.332
X1.117 Y58.927 Z-27.336
X0.979 Y59.087 Z-27.34
X0.975
Y57.879 Z-27.366
X0.988 Y57.719 Z-27.369
X1.05 Y57.471 Z-27.375
X1.117 Y57.312 Z-27.378
X1.148 Y57.259 Z-27.379
X1.334 Y57.011 Z-27.386
X1.594 Y56.806 Z-27.393
X1.828 Y56.696 Z-27.398
X1.899 Y56.669 Z-27.4
X1.952 Y56.637 Z-27.401
X2.005 Y56.588 Z-27.403
X2.112 Y56.659 Z-27.405
X2.254 Y56.74 Z-27.409
X2.333 Y56.779 Z-27.411
X2.412 Y56.814 Z-27.412
X2.538 Y56.858 Z-27.415
X2.68 Y56.896 Z-27.418
X2.822 Y56.929 Z-27.421
X2.965 Y56.95 Z-27.424
X3.107 Y56.958 Z-27.427
X3.187 Y56.957 Z-27.429
X3.195 Y56.966
X3.207 Y57.028 Z-27.431
X3.228 Y57.08 Z-27.432
X3.322 Y57.223 Z-27.435
X3.391 Y57.349 Z-27.438
X3.447 Y57.488 Z-27.442
X3.503 Y57.728 Z-27.447
X3.515 Y57.879 Z-27.45
X3.526 Y58.536 Z-27.464
X3.556 Y58.803 Z-27.469
X3.582 Y59.108 Z-27.476
X3.583 Y59.16 Z-27.477
X3.574 Y59.166
X3.517 Y59.087 Z-27.479
X3.391 Y58.942 Z-27.483
X3.233 Y58.803 Z-27.487
X3.107 Y58.714 Z-27.491
X2.822 Y58.569 Z-27.497
X2.673 Y58.519 Z-27.501
X2.538 Y58.487 Z-27.504
X2.254 Y58.459 Z-27.51
X1.97 Y58.483 Z-27.515
X1.813 Y58.519 Z-27.519
X1.686 Y58.56 Z-27.522
X1.402 Y58.701 Z-27.528
X1.257 Y58.803 Z-27.532
X1.117 Y58.927 Z-27.536
X0.979 Y59.087 Z-27.54
X0.975
Y57.879 Z-27.566
X0.988 Y57.719 Z-27.569
X1.05 Y57.471 Z-27.574
X1.117 Y57.312 Z-27.578
X1.148 Y57.259 Z-27.579
X1.334 Y57.011 Z-27.586
X1.594 Y56.806 Z-27.593
X1.828 Y56.696 Z-27.598
X1.899 Y56.669 Z-27.6
X1.952 Y56.637 Z-27.601
X2.005 Y56.588 Z-27.603
X2.112 Y56.659 Z-27.605
X2.254 Y56.74 Z-27.609
X2.333 Y56.779 Z-27.611
X2.412 Y56.814 Z-27.612
X2.538 Y56.858 Z-27.615
X2.68 Y56.896 Z-27.618
X2.822 Y56.929 Z-27.621
X2.965 Y56.95 Z-27.624
X3.107 Y56.958 Z-27.627
X3.187 Y56.957 Z-27.629
X3.195 Y56.966
X3.207 Y57.028 Z-27.631
X3.228 Y57.08 Z-27.632
X3.322 Y57.223 Z-27.635
X3.391 Y57.349 Z-27.638
X3.447 Y57.488 Z-27.641
X3.503 Y57.728 Z-27.647
X3.515 Y57.879 Z-27.65
X3.526 Y58.536 Z-27.664
X3.556 Y58.803 Z-27.669
X3.582 Y59.108 Z-27.676
X3.583 Y59.16 Z-27.677
X3.574 Y59.166
X3.517 Y59.087 Z-27.679
X3.391 Y58.942 Z-27.683
X3.233 Y58.803 Z-27.687
X3.107 Y58.714 Z-27.691
X2.822 Y58.569 Z-27.697
X2.673 Y58.519 Z-27.701
X2.538 Y58.487 Z-27.704
X2.254 Y58.459 Z-27.709
X1.97 Y58.483 Z-27.715
X1.813 Y58.519 Z-27.719
X1.686 Y58.56 Z-27.722
X1.402 Y58.701 Z-27.728
X1.257 Y58.803 Z-27.732
X1.117 Y58.927 Z-27.736
X0.979 Y59.087 Z-27.74
X0.975
Y57.879 Z-27.766
X0.988 Y57.719 Z-27.769
X1.05 Y57.471 Z-27.774
X1.117 Y57.312 Z-27.778
X1.148 Y57.259 Z-27.779
X1.334 Y57.011 Z-27.786
X1.594 Y56.806 Z-27.793
X1.828 Y56.696 Z-27.798
X1.899 Y56.669 Z-27.8
X1.952 Y56.637 Z-27.801
X2.005 Y56.588 Z-27.803
X2.112 Y56.659 Z-27.805
X2.254 Y56.74 Z-27.809
X2.333 Y56.779 Z-27.811
X2.412 Y56.814 Z-27.812
X2.538 Y56.858 Z-27.815
X2.68 Y56.896 Z-27.818
X2.822 Y56.929 Z-27.821
X2.965 Y56.95 Z-27.824
X3.107 Y56.958 Z-27.827
X3.187 Y56.957 Z-27.829
X3.195 Y56.966
X3.207 Y57.028 Z-27.831
X3.228 Y57.08 Z-27.832
X3.322 Y57.223 Z-27.835
X3.391 Y57.349 Z-27.838
X3.447 Y57.488 Z-27.841
X3.503 Y57.728 Z-27.847
X3.515 Y57.879 Z-27.85
X3.526 Y58.536 Z-27.864
X3.556 Y58.803 Z-27.869
X3.582 Y59.108 Z-27.876
X3.583 Y59.16 Z-27.877
X3.574 Y59.166
X3.517 Y59.087 Z-27.879
X3.391 Y58.942 Z-27.883
X3.233 Y58.803 Z-27.887
X3.107 Y58.714 Z-27.891
X2.822 Y58.569 Z-27.897
X2.673 Y58.519 Z-27.901
X2.538 Y58.487 Z-27.903
X2.254 Y58.459 Z-27.909
X1.97 Y58.483 Z-27.915
X1.813 Y58.519 Z-27.919
X1.686 Y58.56 Z-27.922
X1.402 Y58.701 Z-27.928
X1.257 Y58.803 Z-27.932
X1.117 Y58.927 Z-27.936
X0.979 Y59.087 Z-27.94
X0.975
Y57.879 Z-27.966
X0.988 Y57.719 Z-27.969
X1.05 Y57.471 Z-27.974
X1.117 Y57.312 Z-27.978
X1.148 Y57.259 Z-27.979
X1.334 Y57.011 Z-27.986
X1.594 Y56.806 Z-27.993
X1.828 Y56.696 Z-27.998
X1.899 Y56.669 Z-28.
X1.952 Y56.637 Z-28.001
X2.005 Y56.588 Z-28.003
X2.112 Y56.659 Z-28.005
X2.254 Y56.74 Z-28.009
X2.333 Y56.779 Z-28.01
X2.412 Y56.814 Z-28.012
X2.538 Y56.858 Z-28.015
X2.68 Y56.896 Z-28.018
X2.822 Y56.929 Z-28.021
X2.965 Y56.95 Z-28.024
X3.107 Y56.958 Z-28.027
X3.187 Y56.957 Z-28.029
X3.195 Y56.966
X3.207 Y57.028 Z-28.03
X3.228 Y57.08 Z-28.032
X3.322 Y57.223 Z-28.035
X3.391 Y57.349 Z-28.038
X3.447 Y57.488 Z-28.041
X3.503 Y57.728 Z-28.047
X3.515 Y57.879 Z-28.05
X3.526 Y58.536 Z-28.063
X3.556 Y58.803 Z-28.069
X3.582 Y59.108 Z-28.076
X3.583 Y59.16 Z-28.077
X3.574 Y59.166
X3.517 Y59.087 Z-28.079
X3.391 Y58.942 Z-28.083
X3.233 Y58.803 Z-28.087
X3.107 Y58.714 Z-28.091
X2.822 Y58.569 Z-28.097
X2.673 Y58.519 Z-28.101
X2.538 Y58.487 Z-28.103
X2.254 Y58.459 Z-28.109
X1.97 Y58.483 Z-28.115
X1.864 Y58.507 Z-28.118
S13000 M3
X1.813 Y58.519 F420.
X1.686 Y58.56
X1.402 Y58.701
X1.257 Y58.803
X1.117 Y58.927
X0.979 Y59.087
X0.975
Y57.879
X0.988 Y57.719
X1.05 Y57.471
X1.117 Y57.312
X1.148 Y57.259
X1.334 Y57.011
X1.594 Y56.806
X1.828 Y56.696
X1.899 Y56.669
X1.952 Y56.637
X2.005 Y56.588
X2.112 Y56.659
X2.254 Y56.74
X2.333 Y56.779
X2.412 Y56.814
X2.538 Y56.858
X2.68 Y56.896
X2.822 Y56.929
X2.965 Y56.95
X3.107 Y56.958
X3.187 Y56.957
X3.195 Y56.966
X3.207 Y57.028
X3.228 Y57.08
X3.322 Y57.223
X3.391 Y57.349
X3.447 Y57.488
X3.503 Y57.728
X3.515 Y57.879
X3.526 Y58.536
X3.556 Y58.803
X3.582 Y59.108
X3.583 Y59.16
X3.574 Y59.166
X3.517 Y59.087
X3.391 Y58.942
X3.233 Y58.803
X3.107 Y58.714
X2.822 Y58.569
X2.673 Y58.519
X2.538 Y58.487
X2.254 Y58.459
X1.97 Y58.483
X1.864 Y58.507
X1.483 Y58.268 F1000.
X1.413 Y57.958 Z-27.8
Z5. F420.
X4.971 Y50.244
Z-24.475
S10000 M3
X4.962 Y50.278 Z-24.62 F160.
X4.914 Y50.42 Z-24.763
X4.884 Y50.491 Z-24.787
X4.861 Y50.533 Z-24.792
X4.812 Y50.626 Z-24.794
X4.783 Y50.667 Z-24.795
X4.586 Y50.895 Z-24.802
X4.243 Y51.141 Z-24.81
X4.119 Y51.204 Z-24.813
X3.879 Y51.283 Z-24.819
X3.657 Y51.314 Z-24.823
X3.426 Y51.304 Z-24.828
X3.195 Y51.25 Z-24.833
X2.96 Y51.146 Z-24.839
X2.739 Y50.983 Z-24.844
X2.663 Y50.905 Z-24.847
X2.513 Y50.71 Z-24.852
X2.436 Y50.562 Z-24.855
X2.394 Y50.455 Z-24.858
X2.33 Y50.216 Z-24.863
X2.308 Y49.976 Z-24.868
X2.317 Y49.727 Z-24.873
X2.349 Y49.487 Z-24.878
X2.465 Y49.141 Z-24.886
X2.538 Y48.936 Z-24.89
X2.561 Y48.857 Z-24.892
X2.601 Y48.75 Z-24.894
X2.616 Y48.715 Z-24.895
X2.768 Y48.462 Z-24.901
X2.982 Y48.207 Z-24.908
X3.034 Y48.156 Z-24.91
X3.266 Y47.985 Z-24.916
X3.497 Y47.881 Z-24.921
X3.728 Y47.827 Z-24.926
X3.959 Y47.817 Z-24.931
X4.181 Y47.847 Z-24.936
X4.412 Y47.923 Z-24.941
X4.569 Y48.004 Z-24.945
X4.629 Y48.046 Z-24.946
X4.85 Y48.241 Z-24.952
X5.003 Y48.457 Z-24.958
X5.088 Y48.635 Z-24.962
X5.139 Y48.807 Z-24.966
X5.158 Y48.91 Z-24.968
X5.177 Y49.159 Z-24.973
X5.16 Y49.425 Z-24.979
X5.147 Y49.567 Z-24.982
X5.131 Y49.656 Z-24.984
X5.035 Y49.994 Z-24.991
X4.962 Y50.278 Z-24.997
X4.914 Y50.42 Z-25.
X4.884 Y50.491 Z-25.002
X4.812 Y50.626 Z-25.005
X4.783 Y50.667 Z-25.006
X4.586 Y50.895 Z-25.012
X4.243 Y51.141 Z-25.021
X4.119 Y51.204 Z-25.024
X3.879 Y51.283 Z-25.03
X3.657 Y51.314 Z-25.034
X3.426 Y51.304 Z-25.039
X3.195 Y51.25 Z-25.044
X2.96 Y51.146 Z-25.049
X2.739 Y50.983 Z-25.055
X2.663 Y50.905 Z-25.057
X2.513 Y50.71 Z-25.063
X2.436 Y50.562 Z-25.066
X2.394 Y50.455 Z-25.069
X2.33 Y50.216 Z-25.074
X2.308 Y49.976 Z-25.079
X2.317 Y49.727 Z-25.084
X2.349 Y49.487 Z-25.089
X2.465 Y49.141 Z-25.097
X2.538 Y48.936 Z-25.101
X2.561 Y48.857 Z-25.103
X2.601 Y48.75 Z-25.105
X2.616 Y48.715 Z-25.106
X2.768 Y48.462 Z-25.112
X2.982 Y48.207 Z-25.119
X3.034 Y48.156 Z-25.121
X3.266 Y47.985 Z-25.127
X3.497 Y47.881 Z-25.132
X3.728 Y47.827 Z-25.137
X3.959 Y47.817 Z-25.142
X4.181 Y47.847 Z-25.147
X4.412 Y47.923 Z-25.152
X4.569 Y48.004 Z-25.155
X4.629 Y48.046 Z-25.157
X4.85 Y48.241 Z-25.163
X5.003 Y48.457 Z-25.169
X5.088 Y48.635 Z-25.173
X5.139 Y48.807 Z-25.177
X5.158 Y48.91 Z-25.179
X5.177 Y49.159 Z-25.184
X5.16 Y49.425 Z-25.19
X5.147 Y49.567 Z-25.193
X5.131 Y49.656 Z-25.195
X5.035 Y49.994 Z-25.202
X4.962 Y50.278 Z-25.208
X4.914 Y50.42 Z-25.211
X4.884 Y50.491 Z-25.213
X4.812 Y50.626 Z-25.216
X4.783 Y50.667 Z-25.217
X4.586 Y50.895 Z-25.223
X4.243 Y51.141 Z-25.232
X4.119 Y51.204 Z-25.235
X3.879 Y51.283 Z-25.24
X3.657 Y51.314 Z-25.245
X3.426 Y51.304 Z-25.25
X3.195 Y51.25 Z-25.255
X2.96 Y51.146 Z-25.26
X2.739 Y50.983 Z-25.266
X2.663 Y50.905 Z-25.268
X2.513 Y50.71 Z-25.273
X2.436 Y50.562 Z-25.277
X2.394 Y50.455 Z-25.279
X2.33 Y50.216 Z-25.285
X2.308 Y49.976 Z-25.29
X2.317 Y49.727 Z-25.295
X2.349 Y49.487 Z-25.3
X2.465 Y49.141 Z-25.308
X2.538 Y48.936 Z-25.312
X2.561 Y48.857 Z-25.314
X2.601 Y48.75 Z-25.316
X2.616 Y48.715 Z-25.317
X2.768 Y48.462 Z-25.323
X2.982 Y48.207 Z-25.33
X3.034 Y48.156 Z-25.332
X3.266 Y47.985 Z-25.338
X3.497 Y47.881 Z-25.343
X3.728 Y47.827 Z-25.348
X3.959 Y47.817 Z-25.353
X4.181 Y47.847 Z-25.358
X4.412 Y47.923 Z-25.363
X4.569 Y48.004 Z-25.366
X4.629 Y48.046 Z-25.368
X4.85 Y48.241 Z-25.374
X5.003 Y48.457 Z-25.38
X5.088 Y48.635 Z-25.384
X5.139 Y48.807 Z-25.387
X5.158 Y48.91 Z-25.39
X5.177 Y49.159 Z-25.395
X5.16 Y49.425 Z-25.4
X5.147 Y49.567 Z-25.403
X5.131 Y49.656 Z-25.405
X5.035 Y49.994 Z-25.413
X4.962 Y50.278 Z-25.419
X4.914 Y50.42 Z-25.422
X4.884 Y50.491 Z-25.424
X4.812 Y50.626 Z-25.427
X4.783 Y50.667 Z-25.428
X4.586 Y50.895 Z-25.434
X4.243 Y51.141 Z-25.443
X4.119 Y51.204 Z-25.446
X3.879 Y51.283 Z-25.451
X3.657 Y51.314 Z-25.456
X3.426 Y51.304 Z-25.461
X3.195 Y51.25 Z-25.466
X2.96 Y51.146 Z-25.471
X2.739 Y50.983 Z-25.477
X2.663 Y50.905 Z-25.479
X2.513 Y50.71 Z-25.484
X2.436 Y50.562 Z-25.488
X2.394 Y50.455 Z-25.49
X2.33 Y50.216 Z-25.495
X2.308 Y49.976 Z-25.5
X2.317 Y49.727 Z-25.506
X2.349 Y49.487 Z-25.511
X2.465 Y49.141 Z-25.518
X2.538 Y48.936 Z-25.523
X2.561 Y48.857 Z-25.525
X2.601 Y48.75 Z-25.527
X2.616 Y48.715 Z-25.528
X2.768 Y48.462 Z-25.534
X2.982 Y48.207 Z-25.541
X3.034 Y48.156 Z-25.543
X3.266 Y47.985 Z-25.549
X3.497 Y47.881 Z-25.554
X3.728 Y47.827 Z-25.559
X3.959 Y47.817 Z-25.564
X4.181 Y47.847 Z-25.568
X4.412 Y47.923 Z-25.573
X4.569 Y48.004 Z-25.577
X4.629 Y48.046 Z-25.579
X4.85 Y48.241 Z-25.585
X5.003 Y48.457 Z-25.59
X5.088 Y48.635 Z-25.595
X5.139 Y48.807 Z-25.598
X5.158 Y48.91 Z-25.6
X5.177 Y49.159 Z-25.606
X5.16 Y49.425 Z-25.611
X5.147 Y49.567 Z-25.614
X5.131 Y49.656 Z-25.616
X5.035 Y49.994 Z-25.624
X4.962 Y50.278 Z-25.63
X4.914 Y50.42 Z-25.633
X4.884 Y50.491 Z-25.634
X4.812 Y50.626 Z-25.638
X4.783 Y50.667 Z-25.639
X4.586 Y50.895 Z-25.645
X4.243 Y51.141 Z-25.654
X4.119 Y51.204 Z-25.657
X3.879 Y51.283 Z-25.662
X3.657 Y51.314 Z-25.667
X3.426 Y51.304 Z-25.672
X3.195 Y51.25 Z-25.677
X2.96 Y51.146 Z-25.682
X2.739 Y50.983 Z-25.688
X2.663 Y50.905 Z-25.69
X2.513 Y50.71 Z-25.695
X2.436 Y50.562 Z-25.699
X2.394 Y50.455 Z-25.701
X2.33 Y50.216 Z-25.706
X2.308 Y49.976 Z-25.711
X2.317 Y49.727 Z-25.716
X2.349 Y49.487 Z-25.722
X2.465 Y49.141 Z-25.729
X2.538 Y48.936 Z-25.734
X2.561 Y48.857 Z-25.735
X2.601 Y48.75 Z-25.738
X2.616 Y48.715 Z-25.739
X2.768 Y48.462 Z-25.745
X2.982 Y48.207 Z-25.752
X3.034 Y48.156 Z-25.753
X3.266 Y47.985 Z-25.759
X3.497 Y47.881 Z-25.765
X3.728 Y47.827 Z-25.77
X3.959 Y47.817 Z-25.775
X4.181 Y47.847 Z-25.779
X4.412 Y47.923 Z-25.784
X4.569 Y48.004 Z-25.788
X4.629 Y48.046 Z-25.79
X4.85 Y48.241 Z-25.796
X5.003 Y48.457 Z-25.801
X5.088 Y48.635 Z-25.805
X5.139 Y48.807 Z-25.809
X5.158 Y48.91 Z-25.811
X5.177 Y49.159 Z-25.817
X5.16 Y49.425 Z-25.822
X5.147 Y49.567 Z-25.825
X5.131 Y49.656 Z-25.827
X5.035 Y49.994 Z-25.834
X4.962 Y50.278 Z-25.841
X4.938 Y50.348 Z-25.842
S13000 M3
X4.914 Y50.42 F420.
X4.884 Y50.491
X4.812 Y50.626
X4.783 Y50.667
X4.586 Y50.895
X4.243 Y51.141
X4.119 Y51.204
X3.879 Y51.283
X3.657 Y51.314
X3.426 Y51.304
X3.195 Y51.25
X2.96 Y51.146
X2.739 Y50.983
X2.663 Y50.905
X2.513 Y50.71
X2.436 Y50.562
X2.394 Y50.455
X2.33 Y50.216
X2.308 Y49.976
X2.317 Y49.727
X2.349 Y49.487
X2.465 Y49.141
X2.538 Y48.936
X2.561 Y48.857
X2.601 Y48.75
X2.616 Y48.715
X2.768 Y48.462
X2.982 Y48.207
X3.034 Y48.156
X3.266 Y47.985
X3.497 Y47.881
X3.728 Y47.827
X3.959 Y47.817
X4.181 Y47.847
X4.412 Y47.923
X4.569 Y48.004
X4.629 Y48.046
X4.85 Y48.241
X5.003 Y48.457
X5.088 Y48.635
X5.139 Y48.807
X5.158 Y48.91
X5.177 Y49.159
X5.16 Y49.425
X5.147 Y49.567
X5.131 Y49.656
X5.035 Y49.994
X4.962 Y50.278
X4.938 Y50.348
X4.536 Y50.547 F1000.
X4.235 Y50.446 Z-25.525
Z5. F420.
X5.918 Y26.346
Z-24.118
S10000 M3
X5.912 Y26.328 Z-24.226 F160.
X5.878 Y26.097 Z-24.428
X5.879 Y26.039 Z-24.435
X5.884 Y25.875 Z-24.438
X5.938 Y25.628 Z-24.444
X5.948 Y25.598
X5.992 Y25.484 Z-24.447
X6.028 Y25.413 Z-24.449
X6.121 Y25.271 Z-24.452
X6.232 Y25.112 Z-24.456
X6.396 Y24.897 Z-24.462
X6.462 Y24.829 Z-24.464
X6.517 Y24.781 Z-24.465
X6.619 Y24.703 Z-24.468
X6.827 Y24.562 Z-24.473
X6.943 Y24.504 Z-24.476
X7.144 Y24.432 Z-24.481
X7.328 Y24.392 Z-24.485
X7.382 Y24.37 Z-24.486
X7.42 Y24.347 Z-24.487
X7.573 Y24.228 Z-24.491
X7.582 Y24.234
X7.575 Y24.419 Z-24.495
X7.586 Y24.703 Z-24.501
X7.653 Y24.996 Z-24.507
X7.774 Y25.271 Z-24.513
X7.937 Y25.509 Z-24.519
X7.977 Y25.556 Z-24.521
X8.222 Y25.777 Z-24.528
X8.309 Y25.84 Z-24.53
X8.506 Y25.958 Z-24.535
X8.79 Y26.07 Z-24.541
X9.074 Y26.124 Z-24.547
X9.218 Y26.131 Z-24.55
X9.337 Y26.127 Z-24.553
X9.345 Y26.136
X9.289 Y26.186 Z-24.554
X8.974 Y26.442 Z-24.563
X8.903 Y26.486 Z-24.565
X8.628 Y26.62 Z-24.571
X8.53 Y26.692 Z-24.574
X8.288 Y26.936 Z-24.581
X8.186 Y27.016 Z-24.584
X8.044 Y27.108 Z-24.587
X7.804 Y27.23 Z-24.593
X7.759 Y27.245 Z-24.594
X7.582 Y27.289 Z-24.598
X7.351 Y27.312 Z-24.602
X7.085 Y27.295 Z-24.608
X6.86 Y27.264 Z-24.613
X6.765 Y27.238 Z-24.615
X6.641 Y27.191 Z-24.618
X6.399 Y27.054 Z-24.623
X6.347 Y27.014 Z-24.625
X6.179 Y26.851 Z-24.63
X6.128 Y26.785 Z-24.631
X5.983 Y26.538 Z-24.637
X5.958 Y26.477 Z-24.639
X5.912 Y26.328 Z-24.642
X5.878 Y26.097 Z-24.647
X5.884 Y25.875 Z-24.652
X5.938 Y25.628 Z-24.657
X5.948 Y25.598 Z-24.658
X5.992 Y25.484 Z-24.66
X6.028 Y25.413 Z-24.662
X6.121 Y25.271 Z-24.665
X6.232 Y25.112 Z-24.669
X6.396 Y24.897 Z-24.675
X6.462 Y24.829 Z-24.677
X6.517 Y24.781 Z-24.679
X6.619 Y24.703 Z-24.681
X6.827 Y24.562 Z-24.687
X6.943 Y24.504 Z-24.689
X7.144 Y24.432 Z-24.694
X7.328 Y24.392 Z-24.698
X7.382 Y24.37 Z-24.699
X7.42 Y24.347 Z-24.7
X7.573 Y24.228 Z-24.704
X7.582 Y24.234
X7.575 Y24.419 Z-24.708
X7.586 Y24.703 Z-24.714
X7.653 Y24.996 Z-24.72
X7.774 Y25.271 Z-24.727
X7.937 Y25.509 Z-24.733
X7.977 Y25.556 Z-24.734
X8.222 Y25.777 Z-24.741
X8.309 Y25.84 Z-24.743
X8.506 Y25.958 Z-24.748
X8.79 Y26.07 Z-24.754
X9.074 Y26.124 Z-24.76
X9.218 Y26.131 Z-24.763
X9.337 Y26.127 Z-24.766
X9.345 Y26.136
X9.289 Y26.186 Z-24.768
X8.974 Y26.442 Z-24.776
X8.903 Y26.486 Z-24.778
X8.628 Y26.62 Z-24.784
X8.53 Y26.692 Z-24.787
X8.288 Y26.936 Z-24.794
X8.186 Y27.016 Z-24.797
X8.044 Y27.108 Z-24.8
X7.804 Y27.23 Z-24.806
X7.759 Y27.245 Z-24.807
X7.582 Y27.289 Z-24.811
X7.351 Y27.312 Z-24.816
X7.085 Y27.295 Z-24.821
X6.86 Y27.264 Z-24.826
X6.765 Y27.238 Z-24.828
X6.641 Y27.191 Z-24.831
X6.399 Y27.054 Z-24.837
X6.347 Y27.014 Z-24.838
X6.179 Y26.851 Z-24.843
X6.128 Y26.785 Z-24.845
X5.983 Y26.538 Z-24.851
X5.958 Y26.477 Z-24.852
X5.912 Y26.328 Z-24.855
X5.878 Y26.097 Z-24.86
X5.884 Y25.875 Z-24.865
X5.938 Y25.628 Z-24.87
X5.948 Y25.598 Z-24.871
X5.992 Y25.484 Z-24.873
X6.028 Y25.413 Z-24.875
X6.121 Y25.271 Z-24.879
X6.232 Y25.112 Z-24.883
X6.396 Y24.897 Z-24.888
X6.462 Y24.829 Z-24.89
X6.517 Y24.781 Z-24.892
X6.619 Y24.703 Z-24.895
X6.827 Y24.562 Z-24.9
X6.943 Y24.504 Z-24.903
X7.144 Y24.432 Z-24.907
X7.328 Y24.392 Z-24.911
X7.382 Y24.37 Z-24.912
X7.42 Y24.347 Z-24.913
X7.573 Y24.228 Z-24.917
X7.582 Y24.234
X7.575 Y24.419 Z-24.921
X7.586 Y24.703 Z-24.927
X7.653 Y24.996 Z-24.934
X7.774 Y25.271 Z-24.94
X7.937 Y25.509 Z-24.946
X7.977 Y25.556 Z-24.947
X8.222 Y25.777 Z-24.954
X8.309 Y25.84 Z-24.956
X8.506 Y25.958 Z-24.961
X8.79 Y26.07 Z-24.968
X9.074 Y26.124 Z-24.974
X9.218 Y26.131 Z-24.977
X9.337 Y26.127 Z-24.979
X9.345 Y26.136
X9.289 Y26.186 Z-24.981
X8.974 Y26.442 Z-24.989
X8.903 Y26.486 Z-24.991
X8.628 Y26.62 Z-24.998
X8.53 Y26.692 Z-25.
X8.288 Y26.936 Z-25.007
X8.186 Y27.016 Z-25.01
X8.044 Y27.108 Z-25.014
X7.804 Y27.23 Z-25.019
X7.759 Y27.245 Z-25.02
X7.582 Y27.289 Z-25.024
X7.351 Y27.312 Z-25.029
X7.085 Y27.295 Z-25.034
X6.86 Y27.264 Z-25.039
X6.765 Y27.238 Z-25.041
X6.641 Y27.191 Z-25.044
X6.399 Y27.054 Z-25.05
X6.347 Y27.014 Z-25.051
X6.179 Y26.851 Z-25.056
X6.128 Y26.785 Z-25.058
X5.983 Y26.538 Z-25.064
X5.958 Y26.477 Z-25.065
X5.912 Y26.328 Z-25.069
X5.878 Y26.097 Z-25.073
X5.884 Y25.875 Z-25.078
X5.938 Y25.628 Z-25.083
X5.948 Y25.598 Z-25.084
X5.992 Y25.484 Z-25.087
X6.028 Y25.413 Z-25.088
X6.121 Y25.271 Z-25.092
X6.232 Y25.112 Z-25.096
X6.396 Y24.897 Z-25.102
X6.462 Y24.829 Z-25.104
X6.517 Y24.781 Z-25.105
X6.619 Y24.703 Z-25.108
X6.827 Y24.562 Z-25.113
X6.943 Y24.504 Z-25.116
X7.144 Y24.432 Z-25.12
X7.328 Y24.392 Z-25.124
X7.382 Y24.37 Z-25.125
X7.42 Y24.347 Z-25.126
X7.573 Y24.228 Z-25.13
X7.582 Y24.234 Z-25.131
X7.575 Y24.419 Z-25.134
X7.586 Y24.703 Z-25.14
X7.653 Y24.996 Z-25.147
X7.774 Y25.271 Z-25.153
X7.937 Y25.509 Z-25.159
X7.977 Y25.556 Z-25.16
X8.222 Y25.777 Z-25.167
X8.309 Y25.84 Z-25.17
X8.506 Y25.958 Z-25.174
X8.79 Y26.07 Z-25.181
X9.074 Y26.124 Z-25.187
X9.218 Y26.131 Z-25.19
X9.337 Y26.127 Z-25.192
X9.345 Y26.136 Z-25.193
X9.289 Y26.186 Z-25.194
X8.974 Y26.442 Z-25.203
X8.903 Y26.486 Z-25.204
X8.628 Y26.62 Z-25.211
X8.53 Y26.692 Z-25.213
X8.288 Y26.936 Z-25.221
X8.186 Y27.016 Z-25.223
X8.044 Y27.108 Z-25.227
X7.804 Y27.23 Z-25.232
X7.759 Y27.245 Z-25.233
X7.582 Y27.289 Z-25.237
X7.351 Y27.312 Z-25.242
X7.085 Y27.295 Z-25.248
X6.86 Y27.264 Z-25.252
X6.765 Y27.238 Z-25.255
X6.641 Y27.191 Z-25.257
X6.399 Y27.054 Z-25.263
X6.347 Y27.014 Z-25.265
X6.179 Y26.851 Z-25.269
X6.128 Y26.785 Z-25.271
X5.983 Y26.538 Z-25.277
X5.958 Y26.477 Z-25.279
X5.912 Y26.328 Z-25.282
X5.878 Y26.097 Z-25.287
X5.884 Y25.875 Z-25.291
X5.938 Y25.628 Z-25.297
X5.948 Y25.598
X5.992 Y25.484 Z-25.3
X6.028 Y25.413 Z-25.302
X6.121 Y25.271 Z-25.305
X6.232 Y25.112 Z-25.309
X6.396 Y24.897 Z-25.315
X6.462 Y24.829 Z-25.317
X6.517 Y24.781 Z-25.318
X6.619 Y24.703 Z-25.321
X6.827 Y24.562 Z-25.326
X6.943 Y24.504 Z-25.329
X7.144 Y24.432 Z-25.333
X7.328 Y24.392 Z-25.337
X7.382 Y24.37 Z-25.339
X7.42 Y24.347 Z-25.34
X7.573 Y24.228 Z-25.344
X7.582 Y24.234
X7.575 Y24.419 Z-25.348
X7.586 Y24.703 Z-25.354
X7.653 Y24.996 Z-25.36
X7.774 Y25.271 Z-25.366
X7.937 Y25.509 Z-25.372
X7.977 Y25.556 Z-25.374
X8.222 Y25.777 Z-25.381
X8.309 Y25.84 Z-25.383
X8.506 Y25.958 Z-25.388
X8.79 Y26.07 Z-25.394
X9.074 Y26.124 Z-25.4
X9.218 Y26.131 Z-25.403
X9.337 Y26.127 Z-25.406
X9.345 Y26.136
X9.289 Y26.186 Z-25.407
X8.974 Y26.442 Z-25.416
X8.903 Y26.486 Z-25.418
X8.628 Y26.62 Z-25.424
X8.53 Y26.692 Z-25.427
X8.288 Y26.936 Z-25.434
X8.186 Y27.016 Z-25.436
X8.044 Y27.108 Z-25.44
X7.804 Y27.23 Z-25.446
X7.759 Y27.245 Z-25.447
X7.582 Y27.289 Z-25.45
X7.351 Y27.312 Z-25.455
X7.085 Y27.295 Z-25.461
X6.86 Y27.264 Z-25.466
X6.765 Y27.238 Z-25.468
X6.641 Y27.191 Z-25.471
X6.399 Y27.054 Z-25.476
X6.347 Y27.014 Z-25.478
X6.179 Y26.851 Z-25.483
X6.128 Y26.785 Z-25.484
X6.113 Y26.759 Z-25.485
S13000 M3
X5.983 Y26.538 F420.
X5.958 Y26.477
X5.912 Y26.328
X5.878 Y26.097
X5.884 Y25.875
X5.938 Y25.628
X5.948 Y25.598
X5.992 Y25.484
X6.028 Y25.413
X6.121 Y25.271
X6.232 Y25.112
X6.396 Y24.897
X6.462 Y24.829
X6.517 Y24.781
X6.619 Y24.703
X6.827 Y24.562
X6.943 Y24.504
X7.144 Y24.432
X7.328 Y24.392
X7.382 Y24.37
X7.42 Y24.347
X7.573 Y24.228
X7.582 Y24.234
X7.575 Y24.419
X7.586 Y24.703
X7.653 Y24.996
X7.774 Y25.271
X7.937 Y25.509
X7.977 Y25.556
X8.222 Y25.777
X8.309 Y25.84
X8.506 Y25.958
X8.79 Y26.07
X9.074 Y26.124
X9.218 Y26.131
X9.337 Y26.127
X9.345 Y26.136
X9.289 Y26.186
X8.974 Y26.442
X8.903 Y26.486
X8.628 Y26.62
X8.53 Y26.692
X8.288 Y26.936
X8.186 Y27.016
X8.044 Y27.108
X7.804 Y27.23
X7.759 Y27.245
X7.582 Y27.289
X7.351 Y27.312
X7.085 Y27.295
X6.86 Y27.264
X6.765 Y27.238
X6.641 Y27.191
X6.399 Y27.054
X6.347 Y27.014
X6.179 Y26.851
X6.128 Y26.785
X6.113 Y26.759
X6.225 Y26.324 F1000.
X6.499 Y26.163 Z-25.168
Z5. F420.
X12.753 Y23.253
Z-23.988
S10000 M3
X12.746 Y23.282 Z-24.123 F160.
X12.687 Y23.442 Z-24.283
X12.633 Y23.538 Z-24.306
X12.558 Y23.672 Z-24.309
X12.505 Y23.751 Z-24.311
X12.365 Y23.924 Z-24.315
X11.71 Y24.564 Z-24.335
X11.488 Y24.726 Z-24.34
X11.205 Y24.869 Z-24.347
X10.898 Y24.987 Z-24.354
X10.708 Y25.047 Z-24.358
X10.477 Y25.079 Z-24.363
X10.246 Y25.07 Z-24.368
X9.998 Y25.013 Z-24.373
X9.853 Y24.96 Z-24.376
X9.782 Y24.928 Z-24.378
X9.539 Y24.774 Z-24.384
X9.358 Y24.612 Z-24.389
X9.24 Y24.497 Z-24.393
X9.064 Y24.251 Z-24.399
X8.967 Y24.028 Z-24.404
X8.916 Y23.797 Z-24.409
X8.907 Y23.575 Z-24.414
X8.937 Y23.353 Z-24.418
X9.02 Y23.109 Z-24.424
X9.074 Y23.005 Z-24.426
X9.141 Y22.9 Z-24.429
X9.303 Y22.714 Z-24.434
X9.374 Y22.644 Z-24.436
X9.388 Y22.626
X9.395 Y22.624 Z-24.437
X9.477 Y22.714 Z-24.439
X9.642 Y22.862 Z-24.444
X9.851 Y22.998 Z-24.449
X9.927 Y23.037 Z-24.451
X10.069 Y23.097 Z-24.454
X10.211 Y23.142 Z-24.457
X10.353 Y23.173 Z-24.46
X10.779 Y23.224 Z-24.469
X10.921 Y23.229 Z-24.472
X11.063 Y23.222 Z-24.475
X11.489 Y23.18 Z-24.484
X11.632 Y23.153 Z-24.487
X11.774 Y23.117 Z-24.49
X11.916 Y23.07 Z-24.493
X12.088 Y22.998 Z-24.497
X12.2 Y22.939 Z-24.5
X12.271 Y22.895 Z-24.502
X12.413 Y22.791 Z-24.505
X12.505 Y22.714 Z-24.508
X12.579 Y22.642 Z-24.51
X12.586 Y22.64
X12.72 Y22.714 Z-24.513
X12.926 Y22.804 Z-24.518
X13.052 Y22.845 Z-24.521
X13.336 Y22.897 Z-24.527
X13.384 Y22.9 Z-24.528
X13.391 Y22.906
X13.336 Y22.916 Z-24.529
X13.052 Y22.926 Z-24.535
X12.989 Y22.94 Z-24.537
X12.926 Y22.968 Z-24.538
X12.87 Y23.01 Z-24.539
X12.825 Y23.06 Z-24.541
X12.79 Y23.122 Z-24.542
X12.774 Y23.171 Z-24.543
X12.746 Y23.282 Z-24.546
X12.687 Y23.442 Z-24.549
X12.558 Y23.672 Z-24.555
X12.505 Y23.751 Z-24.557
X12.365 Y23.924 Z-24.562
X11.71 Y24.564 Z-24.581
X11.488 Y24.726 Z-24.587
X11.205 Y24.869 Z-24.593
X10.898 Y24.987 Z-24.6
X10.708 Y25.047 Z-24.604
X10.477 Y25.079 Z-24.609
X10.246 Y25.07 Z-24.614
X9.998 Y25.013 Z-24.619
X9.853 Y24.96 Z-24.623
X9.782 Y24.928 Z-24.624
X9.539 Y24.774 Z-24.63
X9.358 Y24.612 Z-24.635
X9.24 Y24.497 Z-24.639
X9.064 Y24.251 Z-24.645
X8.967 Y24.028 Z-24.65
X8.916 Y23.797 Z-24.655
X8.907 Y23.575 Z-24.66
X8.937 Y23.353 Z-24.664
X9.02 Y23.109 Z-24.67
X9.074 Y23.005 Z-24.672
X9.141 Y22.9 Z-24.675
X9.303 Y22.714 Z-24.68
X9.374 Y22.644 Z-24.682
X9.388 Y22.626 Z-24.683
X9.395 Y22.624
X9.477 Y22.714 Z-24.685
X9.642 Y22.862 Z-24.69
X9.851 Y22.998 Z-24.695
X9.927 Y23.037 Z-24.697
X10.069 Y23.097 Z-24.7
X10.211 Y23.142 Z-24.703
X10.353 Y23.173 Z-24.706
X10.779 Y23.224 Z-24.715
X10.921 Y23.229 Z-24.718
X11.063 Y23.222 Z-24.721
X11.489 Y23.18 Z-24.73
X11.632 Y23.153 Z-24.733
X11.774 Y23.117 Z-24.736
X11.916 Y23.07 Z-24.74
X12.088 Y22.998 Z-24.743
X12.2 Y22.939 Z-24.746
X12.271 Y22.895 Z-24.748
X12.413 Y22.791 Z-24.752
X12.505 Y22.714 Z-24.754
X12.579 Y22.642 Z-24.756
X12.586 Y22.64
X12.72 Y22.714 Z-24.76
X12.926 Y22.804 Z-24.764
X13.052 Y22.845 Z-24.767
X13.336 Y22.897 Z-24.773
X13.384 Y22.9 Z-24.774
X13.391 Y22.906
X13.336 Y22.916 Z-24.775
X13.052 Y22.926 Z-24.781
X12.989 Y22.94 Z-24.783
X12.926 Y22.968 Z-24.784
X12.87 Y23.01 Z-24.786
X12.825 Y23.06 Z-24.787
X12.79 Y23.122 Z-24.789
X12.774 Y23.171 Z-24.79
X12.746 Y23.282 Z-24.792
X12.687 Y23.442 Z-24.796
X12.558 Y23.672 Z-24.801
X12.505 Y23.751 Z-24.803
X12.365 Y23.924 Z-24.808
X11.71 Y24.564 Z-24.827
X11.488 Y24.726 Z-24.833
X11.205 Y24.869 Z-24.839
X10.898 Y24.987 Z-24.846
X10.708 Y25.047 Z-24.85
X10.477 Y25.079 Z-24.855
X10.246 Y25.07 Z-24.86
X9.998 Y25.013 Z-24.866
X9.853 Y24.96 Z-24.869
X9.782 Y24.928 Z-24.87
X9.539 Y24.774 Z-24.876
X9.358 Y24.612 Z-24.882
X9.24 Y24.497 Z-24.885
X9.064 Y24.251 Z-24.891
X8.967 Y24.028 Z-24.896
X8.916 Y23.797 Z-24.901
X8.907 Y23.575 Z-24.906
X8.937 Y23.353 Z-24.911
X9.02 Y23.109 Z-24.916
X9.074 Y23.005 Z-24.919
X9.141 Y22.9 Z-24.921
X9.303 Y22.714 Z-24.926
X9.374 Y22.644 Z-24.928
X9.388 Y22.626 Z-24.929
X9.395 Y22.624
X9.477 Y22.714 Z-24.932
X9.642 Y22.862 Z-24.936
X9.851 Y22.998 Z-24.941
X9.927 Y23.037 Z-24.943
X10.069 Y23.097 Z-24.946
X10.211 Y23.142 Z-24.95
X10.353 Y23.173 Z-24.953
X10.779 Y23.224 Z-24.962
X10.921 Y23.229 Z-24.965
X11.063 Y23.222 Z-24.968
X11.489 Y23.18 Z-24.977
X11.632 Y23.153 Z-24.98
X11.774 Y23.117 Z-24.983
X11.916 Y23.07 Z-24.986
X12.088 Y22.998 Z-24.99
X12.2 Y22.939 Z-24.992
X12.271 Y22.895 Z-24.994
X12.413 Y22.791 Z-24.998
X12.505 Y22.714 Z-25.
X12.579 Y22.642 Z-25.002
X12.586 Y22.64 Z-25.003
X12.72 Y22.714 Z-25.006
X12.926 Y22.804 Z-25.011
X13.052 Y22.845 Z-25.013
X13.336 Y22.897 Z-25.019
X13.384 Y22.9 Z-25.02
X13.391 Y22.906 Z-25.021
X13.336 Y22.916 Z-25.022
X13.052 Y22.926 Z-25.028
X12.989 Y22.94 Z-25.029
X12.926 Y22.968 Z-25.03
X12.87 Y23.01 Z-25.032
X12.825 Y23.06 Z-25.033
X12.79 Y23.122 Z-25.035
X12.774 Y23.171 Z-25.036
X12.746 Y23.282 Z-25.038
X12.687 Y23.442 Z-25.042
X12.558 Y23.672 Z-25.047
X12.505 Y23.751 Z-25.049
X12.365 Y23.924 Z-25.054
X11.71 Y24.564 Z-25.073
X11.488 Y24.726 Z-25.079
X11.205 Y24.869 Z-25.086
X10.898 Y24.987 Z-25.093
X10.708 Y25.047 Z-25.097
X10.477 Y25.079 Z-25.102
X10.246 Y25.07 Z-25.106
X9.998 Y25.013 Z-25.112
X9.853 Y24.96 Z-25.115
X9.782 Y24.928 Z-25.117
X9.539 Y24.774 Z-25.123
X9.358 Y24.612 Z-25.128
X9.24 Y24.497 Z-25.131
X9.064 Y24.251 Z-25.138
X8.967 Y24.028 Z-25.143
X8.916 Y23.797 Z-25.148
X8.907 Y23.575 Z-25.152
X8.937 Y23.353 Z-25.157
X9.02 Y23.109 Z-25.162
X9.074 Y23.005 Z-25.165
X9.141 Y22.9 Z-25.167
X9.303 Y22.714 Z-25.173
X9.374 Y22.644 Z-25.175
X9.388 Y22.626
X9.395 Y22.624
X9.477 Y22.714 Z-25.178
X9.642 Y22.862 Z-25.182
X9.851 Y22.998 Z-25.188
X9.927 Y23.037 Z-25.189
X10.069 Y23.097 Z-25.193
X10.211 Y23.142 Z-25.196
X10.353 Y23.173 Z-25.199
X10.779 Y23.224 Z-25.208
X10.921 Y23.229 Z-25.211
X11.063 Y23.222 Z-25.214
X11.489 Y23.18 Z-25.223
X11.632 Y23.153 Z-25.226
X11.774 Y23.117 Z-25.229
X11.916 Y23.07 Z-25.232
X12.088 Y22.998 Z-25.236
X12.2 Y22.939 Z-25.239
X12.271 Y22.895 Z-25.24
X12.413 Y22.791 Z-25.244
X12.505 Y22.714 Z-25.247
X12.579 Y22.642 Z-25.249
X12.586 Y22.64
X12.72 Y22.714 Z-25.252
X12.926 Y22.804 Z-25.257
X13.052 Y22.845 Z-25.26
X13.336 Y22.897 Z-25.266
X13.384 Y22.9 Z-25.267
X13.391 Y22.906
X13.336 Y22.916 Z-25.268
X13.052 Y22.926 Z-25.274
X12.989 Y22.94 Z-25.275
X12.926 Y22.968 Z-25.277
X12.87 Y23.01 Z-25.278
X12.825 Y23.06 Z-25.28
X12.79 Y23.122 Z-25.281
X12.774 Y23.171 Z-25.282
X12.746 Y23.282 Z-25.285
X12.687 Y23.442 Z-25.288
X12.558 Y23.672 Z-25.294
X12.505 Y23.751 Z-25.296
X12.365 Y23.924 Z-25.3
X11.71 Y24.564 Z-25.319
X11.488 Y24.726 Z-25.325
X11.205 Y24.869 Z-25.332
X10.898 Y24.987 Z-25.339
X10.708 Y25.047 Z-25.343
X10.477 Y25.079 Z-25.348
X10.246 Y25.07 Z-25.353
X10.115 Y25.039 Z-25.356
S13000 M3
X9.998 Y25.013 F420.
X9.853 Y24.96
X9.782 Y24.928
X9.539 Y24.774
X9.358 Y24.612
X9.24 Y24.497
X9.064 Y24.251
X8.967 Y24.028
X8.916 Y23.797
X8.907 Y23.575
X8.937 Y23.353
X9.02 Y23.109
X9.074 Y23.005
X9.141 Y22.9
X9.303 Y22.714
X9.374 Y22.644
X9.388 Y22.626
X9.395 Y22.624
X9.477 Y22.714
X9.642 Y22.862
X9.851 Y22.998
X9.927 Y23.037
X10.069 Y23.097
X10.211 Y23.142
X10.353 Y23.173
X10.779 Y23.224
X10.921 Y23.229
X11.063 Y23.222
X11.489 Y23.18
X11.632 Y23.153
X11.774 Y23.117
X11.916 Y23.07
X12.088 Y22.998
X12.2 Y22.939
X12.271 Y22.895
X12.413 Y22.791
X12.505 Y22.714
X12.579 Y22.642
X12.586 Y22.64
X12.72 Y22.714
X12.926 Y22.804
X13.052 Y22.845
X13.336 Y22.897
X13.384 Y22.9
X13.391 Y22.906
X13.336 Y22.916
X13.052 Y22.926
X12.989 Y22.94
X12.926 Y22.968
X12.87 Y23.01
X12.825 Y23.06
X12.79 Y23.122
X12.774 Y23.171
X12.746 Y23.282
X12.687 Y23.442
X12.558 Y23.672
X12.505 Y23.751
X12.365 Y23.924
X11.71 Y24.564
X11.488 Y24.726
X11.205 Y24.869
X10.898 Y24.987
X10.708 Y25.047
X10.477 Y25.079
X10.246 Y25.07
X10.115 Y25.039
X10.049 Y25.014 Z-25.348 F1000.
X9.993 Y24.977 Z-25.324
X9.951 Y24.934 Z-25.286
X9.923 Y24.893 Z-25.236
X9.906 Y24.859 Z-25.176
X9.898 Y24.837 Z-25.109
X9.895 Y24.829 Z-25.038
Z5. F420.
X6.5 Y10.178
Z-23.988
S10000 M3
X6.494 Y10.169 Z-24.07 F160.
X6.439 Y10.065 Z-24.243
X6.375 Y9.894 Z-24.306
X6.354 Y9.838 Z-24.307
X6.314 Y9.607 Z-24.312
X6.311 Y9.465 Z-24.315
X6.318 Y9.358 Z-24.317
X6.344 Y9.127 Z-24.322
X6.415 Y8.896 Z-24.327
X6.517 Y8.697 Z-24.332
X6.623 Y8.553 Z-24.335
X6.801 Y8.349 Z-24.341
X6.963 Y8.153 Z-24.346
X7.283 Y7.86 Z-24.355
X7.414 Y7.765 Z-24.359
X7.49 Y7.72 Z-24.361
X7.653 Y7.632 Z-24.364
X7.786 Y7.565 Z-24.368
X8.026 Y7.481 Z-24.373
X8.15 Y7.456 Z-24.376
X8.222 Y7.448 Z-24.377
X8.541 Y7.431 Z-24.384
X8.763 Y7.436 Z-24.388
X8.985 Y7.48 Z-24.393
X9.074 Y7.516 Z-24.395
X9.374 Y7.66 Z-24.402
X9.436 Y7.676 Z-24.403
X9.499 Y7.679 Z-24.405
X9.561 Y7.669 Z-24.406
X9.625 Y7.645 Z-24.408
X9.675 Y7.614 Z-24.409
X9.708 Y7.586 Z-24.41
X9.824 Y7.468 Z-24.413
X9.834 Y7.477
X9.784 Y7.62 Z-24.417
X9.709 Y7.937 Z-24.423
X9.693 Y8.222 Z-24.429
X9.727 Y8.506 Z-24.435
X9.817 Y8.79 Z-24.442
X9.927 Y9.002 Z-24.447
X9.974 Y9.074 Z-24.448
X10.211 Y9.345 Z-24.456
X10.495 Y9.556 Z-24.463
X10.661 Y9.642 Z-24.467
X10.779 Y9.689 Z-24.47
X10.867 Y9.718 Z-24.472
X10.759 Y9.736 Z-24.474
X10.524 Y9.727 Z-24.479
X10.299 Y9.679 Z-24.484
X10.2 Y9.642 Z-24.486
X9.927 Y9.504 Z-24.493
X9.855 Y9.487 Z-24.494
X9.784 Y9.486 Z-24.496
X9.731 Y9.497 Z-24.497
X9.678 Y9.517 Z-24.498
X9.629 Y9.547 Z-24.499
X9.587 Y9.583 Z-24.5
X9.532 Y9.642 Z-24.502
X9.358 Y9.842 Z-24.508
X9.272 Y9.927 Z-24.51
X8.955 Y10.211 Z-24.519
X8.79 Y10.35 Z-24.524
X8.588 Y10.495 Z-24.529
X8.506 Y10.542 Z-24.531
X8.364 Y10.61 Z-24.534
X8.115 Y10.715 Z-24.54
X7.973 Y10.755 Z-24.543
X7.883 Y10.77 Z-24.545
X7.636 Y10.782 Z-24.55
X7.396 Y10.767 Z-24.555
X7.298 Y10.749 Z-24.557
X7.183 Y10.716 Z-24.559
X6.943 Y10.608 Z-24.565
X6.801 Y10.513 Z-24.569
X6.724 Y10.447 Z-24.571
X6.572 Y10.282 Z-24.575
X6.494 Y10.169 Z-24.578
X6.439 Y10.065 Z-24.581
X6.354 Y9.838 Z-24.586
X6.314 Y9.607 Z-24.591
X6.311 Y9.465 Z-24.594
X6.318 Y9.358 Z-24.596
X6.344 Y9.127 Z-24.601
X6.415 Y8.896 Z-24.606
X6.517 Y8.697 Z-24.611
X6.623 Y8.553 Z-24.614
X6.801 Y8.349 Z-24.62
X6.963 Y8.153 Z-24.625
X7.283 Y7.86 Z-24.634
X7.414 Y7.765 Z-24.638
X7.49 Y7.72 Z-24.64
X7.653 Y7.632 Z-24.644
X7.786 Y7.565 Z-24.647
X8.026 Y7.481 Z-24.652
X8.15 Y7.456 Z-24.655
X8.222 Y7.448 Z-24.656
X8.541 Y7.431 Z-24.663
X8.763 Y7.436 Z-24.667
X8.985 Y7.48 Z-24.672
X9.074 Y7.516 Z-24.674
X9.374 Y7.66 Z-24.681
X9.436 Y7.676 Z-24.683
X9.499 Y7.679 Z-24.684
X9.561 Y7.669 Z-24.685
X9.625 Y7.645 Z-24.687
X9.675 Y7.614 Z-24.688
X9.708 Y7.586 Z-24.689
X9.824 Y7.468 Z-24.692
X9.834 Y7.477 Z-24.693
X9.784 Y7.62 Z-24.696
X9.709 Y7.937 Z-24.703
X9.693 Y8.222 Z-24.708
X9.727 Y8.506 Z-24.714
X9.817 Y8.79 Z-24.721
X9.927 Y9.002 Z-24.726
X9.974 Y9.074 Z-24.728
X10.211 Y9.345 Z-24.735
X10.495 Y9.556 Z-24.742
X10.661 Y9.642 Z-24.746
X10.779 Y9.689 Z-24.749
X10.867 Y9.718 Z-24.751
X10.759 Y9.736 Z-24.753
X10.524 Y9.727 Z-24.758
X10.299 Y9.679 Z-24.763
X10.2 Y9.642 Z-24.765
X9.927 Y9.504 Z-24.772
X9.855 Y9.487 Z-24.773
X9.784 Y9.486 Z-24.775
X9.731 Y9.497 Z-24.776
X9.678 Y9.517 Z-24.777
X9.629 Y9.547 Z-24.778
X9.587 Y9.583 Z-24.779
X9.532 Y9.642 Z-24.781
X9.358 Y9.842 Z-24.787
X9.272 Y9.927 Z-24.789
X8.955 Y10.211 Z-24.798
X8.79 Y10.35 Z-24.803
X8.588 Y10.495 Z-24.808
X8.506 Y10.542 Z-24.81
X8.364 Y10.61 Z-24.813
X8.115 Y10.715 Z-24.819
X7.973 Y10.755 Z-24.822
X7.883 Y10.77 Z-24.824
X7.636 Y10.782 Z-24.829
X7.396 Y10.767 Z-24.834
X7.298 Y10.749 Z-24.836
X7.183 Y10.716 Z-24.839
X6.943 Y10.608 Z-24.844
X6.801 Y10.513 Z-24.848
X6.724 Y10.447 Z-24.85
X6.572 Y10.282 Z-24.854
X6.494 Y10.169 Z-24.857
X6.439 Y10.065 Z-24.86
X6.354 Y9.838 Z-24.865
X6.314 Y9.607 Z-24.87
X6.311 Y9.465 Z-24.873
X6.318 Y9.358 Z-24.875
X6.344 Y9.127 Z-24.88
X6.415 Y8.896 Z-24.885
X6.517 Y8.697 Z-24.89
X6.623 Y8.553 Z-24.893
X6.801 Y8.349 Z-24.899
X6.963 Y8.153 Z-24.904
X7.283 Y7.86 Z-24.913
X7.414 Y7.765 Z-24.917
X7.49 Y7.72 Z-24.919
X7.653 Y7.632 Z-24.923
X7.786 Y7.565 Z-24.926
X8.026 Y7.481 Z-24.931
X8.15 Y7.456 Z-24.934
X8.222 Y7.448 Z-24.935
X8.541 Y7.431 Z-24.942
X8.763 Y7.436 Z-24.947
X8.985 Y7.48 Z-24.951
X9.074 Y7.516 Z-24.953
X9.374 Y7.66 Z-24.96
X9.436 Y7.676 Z-24.962
X9.499 Y7.679 Z-24.963
X9.561 Y7.669 Z-24.964
X9.625 Y7.645 Z-24.966
X9.675 Y7.614 Z-24.967
X9.708 Y7.586 Z-24.968
X9.824 Y7.468 Z-24.971
X9.834 Y7.477 Z-24.972
X9.784 Y7.62 Z-24.975
X9.709 Y7.937 Z-24.982
X9.693 Y8.222 Z-24.988
X9.727 Y8.506 Z-24.994
X9.817 Y8.79 Z-25.
X9.927 Y9.002 Z-25.005
X9.974 Y9.074 Z-25.007
X10.211 Y9.345 Z-25.014
X10.495 Y9.556 Z-25.022
X10.661 Y9.642 Z-25.025
X10.779 Y9.689 Z-25.028
X10.867 Y9.718 Z-25.03
X10.759 Y9.736 Z-25.032
X10.524 Y9.727 Z-25.037
X10.299 Y9.679 Z-25.042
X10.2 Y9.642 Z-25.044
X9.927 Y9.504 Z-25.051
X9.855 Y9.487 Z-25.052
X9.784 Y9.486 Z-25.054
X9.731 Y9.497 Z-25.055
X9.678 Y9.517 Z-25.056
X9.629 Y9.547 Z-25.057
X9.587 Y9.583 Z-25.058
X9.532 Y9.642 Z-25.06
X9.358 Y9.842 Z-25.066
X9.272 Y9.927 Z-25.068
X8.955 Y10.211 Z-25.077
X8.79 Y10.35 Z-25.082
X8.588 Y10.495 Z-25.087
X8.506 Y10.542 Z-25.089
X8.364 Y10.61 Z-25.092
X8.115 Y10.715 Z-25.098
X7.973 Y10.755 Z-25.101
X7.883 Y10.77 Z-25.103
X7.636 Y10.782 Z-25.108
X7.396 Y10.767 Z-25.113
X7.298 Y10.749 Z-25.115
X7.183 Y10.716 Z-25.118
X6.943 Y10.608 Z-25.123
X6.801 Y10.513 Z-25.127
X6.724 Y10.447 Z-25.129
X6.572 Y10.282 Z-25.134
X6.494 Y10.169 Z-25.136
X6.439 Y10.065 Z-25.139
X6.354 Y9.838 Z-25.144
X6.314 Y9.607 Z-25.149
X6.311 Y9.465 Z-25.152
X6.318 Y9.358 Z-25.154
X6.344 Y9.127 Z-25.159
X6.415 Y8.896 Z-25.164
X6.517 Y8.697 Z-25.169
X6.623 Y8.553 Z-25.172
X6.801 Y8.349 Z-25.178
X6.963 Y8.153 Z-25.183
X7.283 Y7.86 Z-25.193
X7.414 Y7.765 Z-25.196
X7.49 Y7.72 Z-25.198
X7.653 Y7.632 Z-25.202
X7.786 Y7.565 Z-25.205
X8.026 Y7.481 Z-25.21
X8.15 Y7.456 Z-25.213
X8.222 Y7.448 Z-25.214
X8.541 Y7.431 Z-25.221
X8.763 Y7.436 Z-25.226
X8.985 Y7.48 Z-25.23
X9.074 Y7.516 Z-25.232
X9.374 Y7.66 Z-25.239
X9.436 Y7.676 Z-25.241
X9.499 Y7.679 Z-25.242
X9.561 Y7.669 Z-25.243
X9.625 Y7.645 Z-25.245
X9.675 Y7.614 Z-25.246
X9.708 Y7.586 Z-25.247
X9.824 Y7.468 Z-25.25
X9.834 Y7.477 Z-25.251
X9.784 Y7.62 Z-25.254
X9.709 Y7.937 Z-25.261
X9.693 Y8.222 Z-25.267
X9.727 Y8.506 Z-25.273
X9.817 Y8.79 Z-25.279
X9.927 Y9.002 Z-25.284
X9.974 Y9.074 Z-25.286
X10.211 Y9.345 Z-25.293
X10.495 Y9.556 Z-25.301
X10.661 Y9.642 Z-25.305
X10.779 Y9.689 Z-25.307
X10.867 Y9.718 Z-25.309
X10.759 Y9.736 Z-25.311
X10.524 Y9.727 Z-25.316
X10.299 Y9.679 Z-25.321
X10.2 Y9.642 Z-25.323
X9.927 Y9.504 Z-25.33
X9.855 Y9.487 Z-25.331
X9.784 Y9.486 Z-25.333
X9.731 Y9.497 Z-25.334
X9.678 Y9.517 Z-25.335
X9.629 Y9.547 Z-25.336
X9.587 Y9.583 Z-25.338
X9.532 Y9.642 Z-25.339
X9.358 Y9.842 Z-25.345
X9.272 Y9.927 Z-25.347
X8.98 Y10.189 Z-25.356
S13000 M3
X8.955 Y10.211 F420.
X8.79 Y10.35
X8.588 Y10.495
X8.506 Y10.542
X8.364 Y10.61
X8.115 Y10.715
X7.973 Y10.755
X7.883 Y10.77
X7.636 Y10.782
X7.396 Y10.767
X7.298 Y10.749
X7.183 Y10.716
X6.943 Y10.608
X6.801 Y10.513
X6.724 Y10.447
X6.572 Y10.282
X6.494 Y10.169
X6.439 Y10.065
X6.354 Y9.838
X6.314 Y9.607
X6.311 Y9.465
X6.318 Y9.358
X6.344 Y9.127
X6.415 Y8.896
X6.517 Y8.697
X6.623 Y8.553
X6.801 Y8.349
X6.963 Y8.153
X7.215 Y7.923
X7.283 Y7.86
X7.414 Y7.765
X7.49 Y7.72
X7.653 Y7.632
X7.786 Y7.565
X8.026 Y7.481
X8.15 Y7.456
X8.222 Y7.448
X8.541 Y7.431
X8.763 Y7.436
X8.985 Y7.48
X9.074 Y7.516
X9.374 Y7.66
X9.436 Y7.676
X9.499 Y7.679
X9.561 Y7.669
X9.625 Y7.645
X9.675 Y7.614
X9.708 Y7.586
X9.824 Y7.468
X9.834 Y7.477
X9.784 Y7.62
X9.709 Y7.937
X9.693 Y8.222
X9.727 Y8.506
X9.817 Y8.79
X9.927 Y9.002
X9.974 Y9.074
X10.211 Y9.345
X10.495 Y9.556
X10.661 Y9.642
X10.779 Y9.689
X10.867 Y9.718
X10.759 Y9.736
X10.524 Y9.727
X10.299 Y9.679
X10.2 Y9.642
X9.927 Y9.504
X9.855 Y9.487
X9.784 Y9.486
X9.731 Y9.497
X9.678 Y9.517
X9.629 Y9.547
X9.587 Y9.583
X9.532 Y9.642
X9.358 Y9.842
X9.272 Y9.927
X8.98 Y10.189
X8.531 Y10.164 F1000.
X8.319 Y9.927 Z-25.038
Z5. F420.
X3.942 Y5.822
Z-25.871
S10000 M3
X3.714 Y5.948 Z-26.184 F160.
X3.708 Z-26.185
Y5.904 Z-26.189
