(03_T2_FINISH_BALL_3175x22)
(Sylvan Dragoness pear 150x150x45 - 03_T2_FINISH_BALL_3175x22)
(T2  2 Flute Ball Nose 3.175*22 T2      D=3.175 CR=1.588 - ZMIN=-31.518 - ball end mill)
( =================================================== )
(   Z Origin Set To   : Stock Top )
(   Stock Height                    : 40. mm )
(   Toolpath Z Maximum from Stock Top: 15. mm )
(   Toolpath Z Min from Stock Top: -31.518 mm )
(  )
( =================================================== )

( The following values are based on the part position info used in fusion and can be used to roughly align the machine offset from anchor 1 if you use that feature. )
(   X Offset   : -75. mm )
(   Y Offset   : -75. mm )

( =================================================== )

G90 G94
G17
G21
(When using Fusion for Personal Use, the feedrate of rapid)
(moves is reduced to match the feedrate of cutting moves,)
(which can increase machining time. Unrestricted rapid moves)
(are available with a Fusion Subscription.)

(03_ANCHOR1_RELIEF_FINISH_BALL_3175x22_VERIFY_EXIT)
M6 T2 
(6)
M400
M851 S100
S12000 M3
G54
G0 X147.17 Y1.971
Z15.
G1 Z-26.229 F500.
Z-28.041 F200.
X146.99 Z-28.327 F500.
X146.638 Z-28.496
X146.379 Z-28.523
X145.66 Z-28.291
X145.179 Z-28.181
X144.993 Z-27.746
X144.725 Z-27.382
X144.14 Z-26.842
X143.737 Z-26.596
X143.443 Z-26.454
X143.016 Z-26.35
X142.651 Z-26.31
X142.018 Z-26.39
X141.745 Z-26.423
X141.283 Z-26.261
X140.89 Z-26.213
X140.463 Z-26.25
X139.717 Z-26.487
X139.324 Z-26.365
X138.917 Z-26.326
X138.518 Z-26.372
X137.639 Z-26.494
X137.003 Z-26.514
X135.966 Z-26.75
X135.737 Z-26.822
X135.564 Z-26.844
X134.931 Z-26.828
X134.734 Z-26.843
X134.068 Z-26.761
X133.731 Z-26.785
X132.999 Z-26.917
X132.854 Z-26.966
X132.298 Z-27.058
X131.806 Z-27.225
X131.301 Z-27.205
X130.476 Z-26.717
X129.854 Z-26.465
X129.059 Z-26.267
X128.395 Z-26.212
X127.152 Z-25.923
X126.354 Z-25.813
X125.185 Z-25.729
X123.539 Z-25.83
X122.099 Z-25.949
X121.333 Z-25.839
X120.383 Z-25.7
X119.927 Z-25.637
X118.862 Z-25.539
X118.214 Z-25.41
X116.105 Z-24.851
X114.231 Z-24.534
X113.704 Z-24.504
X113.057 Z-24.291
X112.501 Z-24.197
X111.591 Z-24.161
X111.302 Z-24.146
X110.841 Z-24.098
X110.4 Z-24.149
X109.087 Z-24.57
X108.4 Z-24.871
X107.885 Z-25.152
X107.091 Z-25.153
X106.599 Z-25.221
X106.049 Z-24.286
X105.64 Z-23.681
X105.182 Z-23.203
X104.916 Z-23.011
X104.503 Z-22.746
X103.978 Z-22.533
X103.42 Z-22.394
X103.095 Z-22.353
X102.007 Z-22.338
X101.745 Z-22.337
X101.434 Z-22.238
X101.16 Z-22.12
X100.364 Z-21.653
X99.783 Z-21.359
X98.522 Z-20.838
X98.29 Z-20.606
X97.669 Z-19.515
X97.341 Z-19.074
X97.162 Z-18.862
X96.754 Z-18.467
X95.949 Z-17.85
X94.82 Z-16.984
X94.263 Z-16.665
X93.826 Z-16.459
X92.86 Z-16.087
X92.054 Z-15.929
X91.8 Z-15.893
X91.375 Z-15.435
X90.928 Z-15.013
X90.148 Z-14.452
X89.728 Z-14.211
X89.123 Z-13.94
X88.687 Z-13.83
X88.134 Z-13.795
X87.567 Z-13.881
X87.029 Z-14.054
X86.487 Z-14.311
X86.15 Z-14.518
X86.009 Z-14.171
X85.606 Z-13.485
X85.283 Z-13.149
X85.026 Z-12.979
X84.659 Z-12.838
X84.299 Z-12.742
X83.979 Z-12.609
X83.562 Z-12.439
X82.831 Z-12.289
X81.507 Z-12.327
X80.816 Z-12.412
X80.246 Z-12.375
X79.444 Z-12.428
X78.926 Z-12.56
X78.513 Z-12.77
X78.388 Z-12.848
X77.798 Z-12.551
X76.956 Z-12.248
X76.11 Z-12.028
X75.822 Z-11.985
X75.248 Z-11.925
X74.559 Z-11.897
X74.027 Z-11.938
X72.676 Z-12.192
X71.729 Z-12.332
X71.413 Z-11.962
X71.108 Z-11.45
X70.942 Z-11.051
X70.854 Z-10.675
X70.669 Z-9.541
X70.503 Z-8.957
X70.265 Z-8.526
X70.012 Z-8.238
X69.769 Z-8.051
X69.49 Z-7.906
X69.026 Z-7.776
X68.59 Z-7.762
X68.25 Z-7.815
X67.554 Z-8.084
X66.824 Z-8.375
X66.194 Z-8.547
X65.38 Z-8.68
X64.048 Z-8.782
X61.167 Z-8.837
X60.539 Z-8.798
X58.883 Z-8.584
X58.439 Z-8.587
X58.098 Z-8.656
X57.713 Z-8.836
X57.322 Z-9.108
X56.986 Z-9.475
X56.748 Z-9.898
X56.431 Z-10.695
X56.265 Z-11.276
X55.893 Z-11.059
X55.552 Z-10.943
X55.231 Z-10.893
X54.9 Z-10.905
X54.476 Z-11.023
X54.015 Z-11.263
X53.039 Z-10.893
X52.519 Z-10.806
X52.012 Z-10.794
X51.624 Z-10.87
X51.005 Z-11.087
X50.456 Z-11.386
X50.099 Z-11.577
X49.786 Z-11.668
X49.463 Z-11.711
X49.133 Z-11.666
X48.408 Z-11.42
X47.764 Z-11.259
X47.152 Z-11.175
X46.591 Z-11.146
X45.352 Z-11.222
X45.11 Z-11.204
X45.073 Z-10.675
X44.926 Z-10.148
X44.768 Z-9.851
X44.475 Z-9.527
X44.238 Z-9.34
X43.958 Z-9.204
X43.646 Z-9.127
X43.321 Z-9.107
X42.775 Z-9.21
X42.421 Z-9.343
X41.903 Z-9.664
X40.93 Z-10.358
X39.932 Z-11.124
X38.966 Z-11.91
X38.572 Z-12.217
X38.125 Z-12.666
X37.914 Z-13.005
X37.519 Z-13.998
X37.234 Z-14.516
X36.376 Z-15.896
X36.082 Z-16.427
X35.745 Z-17.135
X35.236 Z-18.435
X35.039 Z-19.118
X34.959 Z-19.604
X34.943 Z-19.988
X34.942 Z-23.835
X33.069 Z-24.012
X32.441 Z-24.133
X31.867 Z-24.298
X31.794 Z-24.317
X31.268 Z-24.224
X30.359 Z-24.233
X29.766 Z-24.298
X28.758 Z-24.471
X27.799 Z-24.221
X27.149 Z-24.113
X26.308 Z-24.074
X25.562 Z-24.083
X23.766 Z-24.11
X22.951 Z-24.187
X22.627 Z-24.277
X21.769 Z-24.482
X20.842 Z-24.786
X20.125 Z-25.104
X19.591 Z-25.383
X19.083 Z-25.706
X18.532 Z-26.212
X18.197 Z-26.668
X18.105 Z-26.821
X17.807 Z-26.968
X17.395 Z-27.245
X16.861 Z-27.742
X16.72 Z-27.881
X16.527 Z-27.765
X16.303 Z-27.567
X15.958 Z-27.381
X15.232 Z-27.141
X14.859 Z-27.084
X13.945 Z-27.029
X13.351 Z-26.944
X12.33 Z-26.949
X11.696 Z-26.836
X11.149 Z-26.756
X10.739 Z-26.799
X10.35 Z-26.917
X9.477 Z-27.228
X8.818 Z-27.477
X8.144 Z-27.545
X7.524 Z-27.44
X6.969 Z-27.469
X4.403 Z-27.861
X3.378 Z-28.123
X2.7 Z-28.34
X2.204 Z-28.29
X2.15 Z-28.275
X2.08 Z-28.259
X2.024
X1.899 Y2.096
X2.024 Y2.221
X2.094 Z-28.275
X2.121 Z-28.288
X2.183 Z-28.304
X2.477 Z-28.319
X2.927 Z-28.169
X4.282 Z-27.781
X5.376 Z-27.622
X6.593 Z-27.379
X7.299 Z-27.315
X7.761 Z-27.345
X8.191 Z-27.387
X8.71 Z-27.33
X9.085 Z-27.187
X10.513 Z-26.651
X11.01 Z-26.565
X11.338 Z-26.571
X12.368 Z-26.811
X12.76 Z-26.825
X13.386 Z-26.799
X13.993 Z-26.888
X15.042 Z-26.996
X15.483 Z-27.111
X16.104 Z-27.357
X16.483 Z-27.628
X16.663 Z-27.763
X17.218 Z-27.253
X17.661 Z-26.95
X17.962 Z-26.806
X18.07 Z-26.611
X18.342 Z-26.235
X18.744 Z-25.839
X19.064 Z-25.591
X19.633 Z-25.263
X20.178 Z-25.013
X20.487 Z-24.892
X21.839 Z-24.418
X22.929 Z-24.122
X23.871 Z-24.031
X25.271 Z-24.045
X27.081 Z-24.124
X27.78 Z-24.232
X28.677 Z-24.464
X29.478 Z-24.318
X30.07 Z-24.248
X30.949 Z-24.217
X31.278 Z-24.235
X31.694 Z-24.299
X31.919 Z-24.22
X32.424 Z-24.08
X33.527 Z-23.911
X34.839 Z-23.801
X34.845 Z-19.944
X34.868 Z-19.567
X34.982 Z-18.916
X35.2 Z-18.214
X35.626 Z-17.114
X36.008 Z-16.323
X36.305 Z-15.804
X37.351 Z-14.188
X37.582 Z-13.667
X37.88 Z-12.963
X38.135 Z-12.553
X38.473 Z-12.221
X39.364 Z-11.558
X40.077 Z-10.978
X41.074 Z-10.215
X42.125 Z-9.492
X42.662 Z-9.201
X43.018 Z-9.062
X43.376 Z-9.015
X43.825 Z-9.061
X44.199 Z-9.189
X44.525 Z-9.394
X44.842 Z-9.724
X45.03 Z-10.073
X45.174 Z-10.579
X45.21 Z-11.111
X45.386 Z-11.126
X46.81 Z-11.027
X47.805 Z-11.108
X48.498 Z-11.252
X49.206 Z-11.474
X49.522 Z-11.552
X49.768 Z-11.528
X50.298 Z-11.386
X51.02 Z-11.036
X51.3 Z-10.922
X51.585 Z-10.828
X51.973 Z-10.741
X52.511 Z-10.722
X53.114 Z-10.823
X54.085 Z-11.196
X54.541 Z-10.96
X54.83 Z-10.873
X55.145 Z-10.837
X55.554 Z-10.868
X55.938 Z-10.981
X56.3 Z-11.189
X56.354 Z-11.001
X56.659 Z-10.127
X56.955 Z-9.548
X57.27 Z-9.174
X57.645 Z-8.895
X58.052 Z-8.688
X58.431 Z-8.603
X59.013 Z-8.601
X60.425 Z-8.795
X60.809 Z-8.825
X63.086 Z-8.785
X65.101 Z-8.678
X66.081 Z-8.539
X66.716 Z-8.38
X67.956 Z-7.902
X68.464 Z-7.777
X68.791 Z-7.772
X69.202 Z-7.829
X69.593 Z-7.97
X69.967 Z-8.218
X70.239 Z-8.517
X70.477 Z-8.936
X70.648 Z-9.518
X70.867 Z-10.841
X71.015 Z-11.294
X71.328 Z-11.86
X71.61 Z-12.231
X71.99 Z-12.182
X74.015 Z-11.831
X74.614 Z-11.791
X75.194 Z-11.833
X75.895 Z-11.954
X76.408 Z-12.072
X77.729 Z-12.543
X78.23 Z-12.775
X78.652 Z-12.587
X79.061 Z-12.435
X79.572 Z-12.346
X80.442 Z-12.362
X80.903 Z-12.327
X81.426 Z-12.282
X82.677 Z-12.243
X83.125 Z-12.293
X83.701 Z-12.466
X84.042 Z-12.632
X84.464 Z-12.802
X84.699 Z-12.858
X84.991 Z-12.975
X85.342 Z-13.219
X85.652 Z-13.574
X86.007 Z-14.199
X86.141 Z-14.543
X86.647 Z-14.241
X87.345 Z-13.954
X88.014 Z-13.817
X88.514 Z-13.824
X88.995 Z-13.912
X89.69 Z-14.158
X90.199 Z-14.413
X90.934 Z-14.888
X91.395 Z-15.255
X92.182 Z-15.956
X92.844 Z-16.098
X93.874 Z-16.484
X94.682 Z-16.891
X95.662 Z-17.653
X96.842 Z-18.473
X97.204 Z-18.81
X97.445 Z-19.065
X97.792 Z-19.522
X98.086 Z-20.025
X98.416 Z-20.545
X98.622 Z-20.769
X98.94 Z-20.93
X99.77 Z-21.244
X100.455 Z-21.57
X101.143 Z-21.966
X101.362 Z-22.071
X102.324 Z-22.058
X103.33 Z-22.107
X103.813 Z-22.211
X104.43 Z-22.428
X104.711 Z-22.565
X104.992 Z-22.74
X105.248 Z-22.923
X105.491 Z-23.134
X105.859 Z-23.55
X106.236 Z-24.144
X106.818 Z-25.196
X106.981 Z-25.175
X107.926 Z-25.152
X108.449 Z-24.849
X109.207 Z-24.523
X110.013 Z-24.251
X110.153 Z-24.2
X110.572 Z-24.086
X111.039 Z-24.073
X111.352 Z-24.127
X111.727 Z-24.132
X112.671 Z-24.161
X113.16 Z-24.234
X114.093 Z-24.497
X114.522 Z-24.54
X116.05 Z-24.794
X116.372 Z-24.872
X117.875 Z-25.264
X118.895 Z-25.467
X119.861 Z-25.541
X121.281 Z-25.69
X122.819 Z-25.867
X124.975 Z-25.687
X125.604 Z-25.689
X126.518 Z-25.759
X127.336 Z-25.872
X127.981 Z-26.004
X128.538 Z-26.144
X129.004 Z-26.186
X129.619 Z-26.298
X130.21 Z-26.465
X130.847 Z-26.738
X131.571 Z-27.166
X131.917 Z-27.177
X132.008 Z-27.149
X132.654 Z-26.983
X132.92 Z-26.883
X133.496 Z-26.733
X133.981 Z-26.681
X134.641 Z-26.742
X135.021 Z-26.686
X135.358 Z-26.695
X135.488 Z-26.666
X136.728 Z-26.442
X137.334 Z-26.394
X138.463 Z-26.215
X139.074 Z-26.159
X139.394 Z-26.209
X139.842 Z-26.369
X140.165 Z-26.242
X140.501 Z-26.15
X141.002 Z-26.125
X141.32 Z-26.179
X141.725 Z-26.332
X141.84 Z-26.361
X142.53 Z-26.291
X143.009 Z-26.322
X143.554 Z-26.478
X143.834 Z-26.621
X144.22 Z-26.913
X144.709 Z-27.385
X144.952 Z-27.703
X145.148 Z-28.14
X145.675 Z-28.269
X146.449 Z-28.534
X146.59 Z-28.517
X146.959 Z-28.332
X147.369 Z-28.208
X147.707 Z-28.189
X147.768 Z-28.173
X147.792 Z-28.161
X147.862 Z-28.145
X147.987 Y2.346
X147.862 Y2.471
X147.835
X147.765 Z-28.161
X147.704 Z-28.177
X147.367 Z-28.197
X146.982 Z-28.312
X146.553 Z-28.549
X146.527
X145.932 Z-28.325
X145.343 Z-28.151
X145.07 Z-28.091
X144.921 Z-27.748
X144.677 Z-27.411
X144.247 Z-26.94
X143.882 Z-26.622
X143.61 Z-26.474
X143.149 Z-26.328
X142.611 Z-26.275
X142.312 Z-26.28
X141.787 Z-26.171
X141.476 Z-26.137
X141.172 Z-26.056
X140.846 Z-26.036
X140.508 Z-26.086
X140.075 Z-26.205
X139.932 Z-26.258
X139.476 Z-26.107
X139.154 Z-26.046
X138.489 Z-26.071
X137.273 Z-26.291
X136.834 Z-26.276
X136.378 Z-26.363
X136.118 Z-26.401
X135.694 Z-26.448
X135.244 Z-26.593
X134.776 Z-26.632
X134.584 Z-26.666
X133.82 Z-26.637
X133.426 Z-26.695
X133.013 Z-26.792
X132.389 Z-27.065
X132.051 Z-27.165
X131.856 Z-27.139
X131.599 Z-26.973
X131.168 Z-26.737
X130.414 Z-26.416
X129.475 Z-26.186
X128.795 Z-26.108
X127.906 Z-25.891
X126.887 Z-25.734
X125.714 Z-25.653
X125.039 Z-25.659
X123.623 Z-25.802
X121.881 Z-25.623
X118.79 Z-25.389
X117.735 Z-25.181
X115.969 Z-24.742
X114.726 Z-24.557
X113.582 Z-24.234
X112.859 Z-24.126
X112.011 Z-24.112
X111.277 Z-24.117
X110.852 Z-24.078
X110.472 Z-24.113
X109.959 Z-24.272
X109.435 Z-24.444
X108.516 Z-24.854
X107.999 Z-25.157
X107.105 Z-25.201
X107.028 Z-25.211
X106.735 Z-24.602
X106.405 Z-23.988
X106.022 Z-23.372
X105.69 Z-23.005
X105.447 Z-22.787
X105.073 Z-22.512
X104.561 Z-22.228
X103.949 Z-22.002
X103.225 Z-21.85
X102.565 Z-21.79
X101.437 Z-21.734
X100.788 Z-21.597
X100.224 Z-21.327
X98.979 Z-20.819
X98.682 Z-20.6
X98.465 Z-20.361
X97.974 Z-19.603
X97.693 Z-19.219
X97.249 Z-18.751
X96.707 Z-18.338
X95.773 Z-17.793
X95.265 Z-17.387
X94.68 Z-16.931
X93.767 Z-16.49
X92.768 Z-16.125
X91.122 Z-14.922
X90.444 Z-14.499
X89.746 Z-14.165
X89.083 Z-13.964
X88.412 Z-13.871
X87.902 Z-13.888
X87.246 Z-14.046
X86.655 Z-14.301
X86.216 Z-14.559
X86.105 Z-14.635
X85.967 Z-14.244
X85.543 Z-13.52
X85.359 Z-13.294
X85.126 Z-13.101
X84.776 Z-12.923
X84.547 Z-12.842
X84.045 Z-12.638
X83.483 Z-12.37
X83.098 Z-12.259
X82.355 Z-12.208
X81.423 Z-12.231
X80.835 Z-12.275
X80.611 Z-12.279
X80.3 Z-12.223
X79.889 Z-12.229
X79.501 Z-12.255
X78.142 Z-12.675
X78.057 Z-12.695
X77.949 Z-12.691
X76.897 Z-12.255
X75.713 Z-11.879
X75.068 Z-11.764
X74.406 Z-11.725
X73.72 Z-11.796
X71.479 Z-12.16
X71.233 Z-11.814
X70.965 Z-11.319
X70.812 Z-10.851
X70.586 Z-9.502
X70.46 Z-9.044
X70.237 Z-8.612
X69.982 Z-8.308
X69.677 Z-8.079
X69.321 Z-7.91
X68.808 Z-7.791
X68.372 Z-7.797
X67.792 Z-7.934
X66.754 Z-8.339
X66.15 Z-8.496
X65.173 Z-8.643
X62.99 Z-8.77
X60.474 Z-8.827
X58.915 Z-8.61
X58.275 Z-8.664
X57.984 Z-8.755
X57.644 Z-8.93
X57.337 Z-9.167
X56.986 Z-9.586
X56.704 Z-10.12
X56.489 Z-10.695
X56.359 Z-11.121
X56.093 Z-10.958
X55.799 Z-10.843
X55.48 Z-10.787
X55.063 Z-10.79
X54.601 Z-10.903
X54.14 Z-11.125
X53.122 Z-10.735
X52.641 Z-10.66
X52.05 Z-10.676
X51.672 Z-10.749
X51.107 Z-10.954
X50.452 Z-11.217
X49.822 Z-11.38
X49.573 Z-11.382
X49.052 Z-11.202
X48.537 Z-11.066
X47.764 Z-10.957
X47.097 Z-10.917
X46.271 Z-10.963
X45.497 Z-11.031
X45.31 Z-11.016
X45.259 Z-10.395
X45.109 Z-9.934
X44.975 Z-9.682
X44.689 Z-9.36
X44.452 Z-9.173
X44.095 Z-9.009
X43.698 Z-8.944
X43.248 Z-8.967
X42.824 Z-9.076
X42.416 Z-9.29
X41.908 Z-9.612
X41.021 Z-10.22
X40.192 Z-10.858
X39.218 Z-11.634
X38.532 Z-12.105
X38.172 Z-12.437
X37.912 Z-12.82
X37.679 Z-13.282
X37.445 Z-13.843
X37.132 Z-14.385
X36.403 Z-15.454
X36.062 Z-15.988
X35.905 Z-16.263
X35.491 Z-17.13
X35.031 Z-18.367
X34.845 Z-19.105
X34.78 Z-19.527
X34.761 Z-20.035
X34.76 Z-23.789
X33.551 Z-23.878
X32.552 Z-24.024
X31.936 Z-24.162
X31.572 Z-24.298
X31.248 Z-24.247
X30.64 Z-24.216
X30.023 Z-24.24
X29.249 Z-24.33
X28.493 Z-24.47
X27.582 Z-24.25
X26.93 Z-24.151
X25. Z-24.031
X23.958 Z-23.993
X23.118 Z-24.058
X21.998 Z-24.342
X20.245 Z-24.939
X19.555 Z-25.216
X19.152 Z-25.429
X18.65 Z-25.772
X18.255 Z-26.142
X17.921 Z-26.58
X17.812 Z-26.793
X17.379 Z-27.027
X17.038 Z-27.278
X16.619 Z-27.642
X16.534 Z-27.614
X16.292 Z-27.413
X15.984 Z-27.235
X15.461 Z-27.018
X14.743 Z-26.853
X14.32 Z-26.815
X14.058 Z-26.751
X13.736 Z-26.694
X13.323 Z-26.663
X13.069 Z-26.675
X12.674 Z-26.712
X12.403 Z-26.683
X11.967 Z-26.577
X11.479 Z-26.448
X10.876 Z-26.405
X10.485 Z-26.474
X8.966 Z-27.033
X8.478 Z-27.214
X8.027 Z-27.25
X7.04 Z-27.212
X6.568 Z-27.271
X5.488 Z-27.528
X4.359 Z-27.665
X3.926 Z-27.794
X3.127 Z-28.022
X2.338 Z-28.275
X2.207 Z-28.318
X2.186 Z-28.319
X2.016 Z-28.161
Z-28.105
X2.018 Y2.46 Z-28.048
X1.993 Y2.596 Z-27.84
X1.967 Y2.732 Z-28.048
X1.969 Y2.721 Z-28.105
X2.189 Z-28.251
X2.335 Z-28.19
X4.136 Z-27.624
X4.842 Z-27.483
X5.269 Z-27.489
X5.686 Z-27.437
X6.575 Z-27.184
X7.039 Z-27.11
X7.883 Z-27.132
X8.342 Z-27.087
X8.985 Z-26.815
X10.538 Z-26.308
X10.997 Z-26.248
X11.487 Z-26.311
X12.024 Z-26.464
X12.611 Z-26.591
X13.092 Z-26.534
X13.598 Z-26.513
X14.204 Z-26.602
X14.538 Z-26.74
X15.004 Z-26.823
X15.625 Z-27.028
X16.094 Z-27.259
X16.451 Z-27.517
X16.587 Z-27.531
X17.2 Z-27.049
X17.637 Z-26.8
X17.842 Z-26.454
X18.134 Z-26.095
X18.416 Z-25.829
X18.843 Z-25.521
X19.233 Z-25.29
X19.645 Z-25.104
X19.926 Z-25.003
X21.297 Z-24.567
X21.776 Z-24.382
X22.893 Z-24.09
X23.55 Z-23.999
X24.774 Z-24.032
X26.625 Z-24.168
X27.276 Z-24.257
X28.237 Z-24.491
X28.467 Z-24.446
X29.38 Z-24.292
X29.92 Z-24.237
X30.879 Z-24.222
X31.43 Z-24.305
X31.672 Z-24.213
X32.307 Z-24.049
X33.388 Z-23.887
X34.68 Z-23.795
X34.681 Z-20.003
X34.696 Z-19.429
X34.812 Z-18.823
X34.96 Z-18.247
X35.417 Z-17.001
X35.794 Z-16.219
X36.349 Z-15.35
X37.093 Z-14.295
X37.407 Z-13.76
X37.719 Z-13.075
X38.02 Z-12.573
X38.273 Z-12.269
X38.626 Z-11.977
X39.043 Z-11.726
X39.578 Z-11.353
X40.308 Z-10.736
X40.807 Z-10.342
X41.321 Z-9.973
X42.347 Z-9.305
X42.949 Z-8.976
X43.317 Z-8.876
X43.679 Z-8.852
X44.086 Z-8.896
X44.419 Z-9.02
X44.796 Z-9.275
X44.998 Z-9.503
X45.223 Z-9.869
X45.362 Z-10.339
X45.412 Z-10.929
X45.584 Z-10.943
X46.563 Z-10.837
X46.901 Z-10.815
X47.914 Z-10.824
X48.576 Z-10.892
X49.054 Z-10.984
X49.818 Z-11.245
X50.382 Z-11.126
X51.589 Z-10.732
X52.08 Z-10.628
X52.618 Z-10.605
X53.026 Z-10.64
X54.2 Z-11.055
X54.476 Z-10.913
X54.913 Z-10.756
X55.373 Z-10.696
X55.696 Z-10.728
X56.038 Z-10.838
X56.419 Z-11.058
X56.592 Z-10.511
X56.703 Z-10.218
X56.915 Z-9.788
X57.184 Z-9.392
X57.41 Z-9.162
X57.657 Z-8.965
X57.966 Z-8.804
X58.369 Z-8.685
X58.837 Z-8.656
X59.513 Z-8.731
X60.279 Z-8.836
X62.996 Z-8.752
X65.143 Z-8.62
X66.12 Z-8.471
X66.725 Z-8.315
X67.446 Z-8.028
X67.873 Z-7.893
X68.345 Z-7.808
X68.792 Z-7.814
X69.165 Z-7.901
X69.542 Z-8.076
X69.943 Z-8.4
X70.205 Z-8.713
X70.327 Z-8.953
X70.499 Z-9.554
X70.711 Z-10.862
X70.859 Z-11.329
X71.075 Z-11.744
X71.302 Z-12.1
X71.488 Z-12.086
X73.631 Z-11.747
X74.126 Z-11.701
X74.701 Z-11.696
X75.533 Z-11.832
X76.352 Z-12.108
X76.698 Z-12.236
X77.434 Z-12.586
X78.181 Z-12.542
X78.45 Z-12.47
X78.593 Z-12.403
X79.008 Z-12.296
X79.118 Z-12.26
X79.591 Z-12.151
X79.914 Z-12.142
X80.376 Z-12.146
X80.676 Z-12.211
X80.756 Z-12.217
X81.385 Z-12.169
X82.306 Z-12.162
X82.861 Z-12.189
X83.45 Z-12.35
X84.021 Z-12.633
X84.437 Z-12.785
X84.701 Z-12.923
X85.235 Z-13.289
X85.432 Z-13.505
X85.685 Z-13.951
X85.837 Z-14.21
X85.954 Z-14.47
X86.031 Z-14.811
X86.282 Z-14.637
X86.912 Z-14.288
X87.515 Z-14.071
X88.119 Z-13.967
X88.831 Z-13.976
X89.476 Z-14.094
X90.094 Z-14.305
X90.831 Z-14.664
X92.314 Z-15.575
X93.215 Z-16.143
X93.37 Z-16.294
X93.563 Z-16.479
X93.63 Z-16.513
X94.242 Z-16.782
X94.765 Z-17.085
X95.498 Z-17.691
X95.757 Z-17.863
X96.49 Z-18.201
X96.984 Z-18.483
X97.554 Z-18.929
X97.962 Z-19.371
X98.494 Z-20.09
X98.916 Z-20.545
X99.164 Z-20.72
X99.437 Z-20.844
X100.32 Z-21.145
X101.26 Z-21.365
X103.307 Z-21.615
X104.246 Z-21.873
X104.806 Z-22.117
X105.264 Z-22.391
X105.521 Z-22.576
X105.873 Z-22.887
X106.272 Z-23.346
X106.707 Z-24.091
X107.224 Z-25.214
X108.108 Z-25.169
X108.485 Z-24.955
X109.348 Z-24.496
X110.081 Z-24.282
X110.367 Z-24.191
X110.988 Z-24.091
X111.484 Z-24.12
X112.738 Z-24.07
X113.236 Z-24.103
X113.643 Z-24.157
X114.324 Z-24.36
X115.07 Z-24.571
X115.886 Z-24.691
X116.206 Z-24.761
X117.971 Z-25.191
X118.964 Z-25.353
X120.114 Z-25.41
X123.147 Z-25.614
X124.448 Z-25.733
X124.838 Z-25.688
X125.57 Z-25.636
X126.583 Z-25.664
X127.577 Z-25.757
X128.554 Z-25.923
X129.187 Z-26.094
X129.593 Z-26.143
X130.28 Z-26.273
X130.593 Z-26.359
X131.361 Z-26.663
X131.792 Z-26.888
X132.208 Z-27.154
X132.255 Z-27.125
X132.651 Z-26.892
X133.07 Z-26.713
X133.7 Z-26.596
X134.505 Z-26.61
X134.707 Z-26.585
X135.14 Z-26.526
X135.642 Z-26.342
X136.127 Z-26.288
X136.63 Z-26.143
X137.041 Z-26.112
X137.362 Z-26.166
X137.761 Z-26.083
X138.278 Z-26.003
X139.028 Z-25.954
X139.533 Z-26.021
X139.98 Z-26.171
X140.374 Z-26.045
X140.814 Z-25.969
X141.658 Z-26.01
X142.141 Z-26.086
X142.624 Z-26.264
X142.75 Z-26.27
X143.152 Z-26.339
X143.685 Z-26.521
X143.948 Z-26.684
X144.293 Z-27.002
X144.735 Z-27.609
X144.942 Z-28.021
X145.036 Z-28.047
X145.923 Z-28.298
X146.534 Z-28.543
X146.79 Z-28.385
X147.29 Z-28.203
X147.701 Z-28.169
X147.758 Z-28.153
X147.773 Z-28.146
X147.843 Z-28.129
X147.968 Y2.846
X147.843 Y2.971
X147.825
X147.755 Z-28.146
X147.698 Z-28.161
X147.293 Z-28.196
X146.862 Z-28.341
X146.534 Z-28.533
X146.221 Z-28.393
X145.915 Z-28.271
X145.244 Z-28.057
X144.801 Z-27.967
X144.472 Z-27.339
X144.298 Z-27.084
X143.972 Z-26.767
X143.63 Z-26.546
X143.096 Z-26.351
X142.825 Z-26.286
X142.414 Z-26.056
X142.115 Z-25.945
X141.632 Z-25.883
X140.904 Z-25.886
X140.337 Z-25.984
X139.989 Z-26.097
X139.48 Z-25.929
X138.865 Z-25.889
X137.984 Z-25.956
X137.387 Z-26.058
X136.998 Z-26.007
X136.7 Z-26.013
X136.386 Z-26.076
X136.035 Z-26.221
X135.586 Z-26.287
X135.162 Z-26.439
X134.444 Z-26.577
X133.675 Z-26.561
X132.983 Z-26.72
X132.353 Z-27.02
X132.065 Z-26.847
X131.467 Z-26.556
X130.613 Z-26.259
X129.795 Z-26.118
X129.381 Z-26.011
X128.865 Z-25.875
X128.379 Z-25.789
X127.098 Z-25.65
X125.784 Z-25.633
X125.075 Z-25.681
X124.255 Z-25.576
X120.445 Z-25.356
X119.263 Z-25.33
X118.518 Z-25.246
X117.461 Z-25.04
X116.17 Z-24.717
X115.564 Z-24.591
X114.908 Z-24.481
X114.163 Z-24.25
X113.629 Z-24.101
X112.89 Z-24.032
X112.383 Z-24.058
X111.759 Z-24.122
X111.09 Z-24.075
X110.803 Z-24.101
X109.471 Z-24.507
X108.906 Z-24.767
X108.237 Z-25.18
X107.405 Z-25.225
X106.814 Z-23.884
X106.399 Z-23.194
X105.987 Z-22.731
X105.56 Z-22.366
X104.973 Z-22.007
X104.266 Z-21.683
X103.196 Z-21.386
X101.467 Z-21.106
X100.315 Z-20.812
X99.404 Z-20.496
X99.142 Z-20.347
X98.9 Z-20.161
X98.29 Z-19.531
X97.83 Z-19.058
X97.485 Z-18.766
X96.941 Z-18.417
X96.271 Z-18.122
X95.685 Z-17.946
X95.404 Z-17.763
X94.716 Z-17.164
X94.225 Z-16.867
X93.759 Z-16.346
X93.292 Z-15.976
X92.862 Z-15.718
X92.545 Z-15.526
X91.849 Z-15.175
X90.633 Z-14.54
X89.954 Z-14.27
X89.407 Z-14.127
X88.765 Z-14.055
X88.095 Z-14.096
X87.575 Z-14.205
X86.826 Z-14.504
X86.285 Z-14.827
X86.101 Z-14.964
X85.838 Z-14.591
X85.766 Z-14.384
X85.586 Z-14.089
X85.389 Z-13.676
X85.098 Z-13.29
X84.725 Z-12.977
X84.324 Z-12.759
X84.113 Z-12.679
X83.614 Z-12.386
X83. Z-12.16
X82.596 Z-12.105
X82.149 Z-12.122
X81.395 Z-12.112
X80.879 Z-12.172
X80.627 Z-12.153
X80.288 Z-12.098
X79.451 Z-12.115
X79.167 Z-12.163
X78.699 Z-12.236
X78.194 Z-12.446
X77.545 Z-12.447
X77.03 Z-12.508
X76.647 Z-12.322
X76.154 Z-12.091
X75.573 Z-11.871
X74.768 Z-11.703
X73.943 Z-11.685
X72.012 Z-11.957
X71.556 Z-12.035
X71.09 Z-12.075
X70.767 Z-11.504
X70.58 Z-10.955
X70.37 Z-9.463
X70.179 Z-8.882
X70.043 Z-8.641
X69.736 Z-8.302
X69.487 Z-8.104
X69.212 Z-7.959
X68.771 Z-7.833
X68.347 Z-7.806
X67.756 Z-7.9
X67.317 Z-8.039
X66.664 Z-8.297
X66.027 Z-8.459
X65.049 Z-8.607
X62.715 Z-8.75
X60.048 Z-8.856
X58.991 Z-8.717
X58.453 Z-8.712
X58.176 Z-8.77
X57.756 Z-8.961
X57.4 Z-9.23
X57.1 Z-9.575
X56.794 Z-10.099
X56.649 Z-10.451
X56.491 Z-10.94
X56.472 Z-10.993
X56.203 Z-10.819
X55.834 Z-10.677
X55.432 Z-10.62
X55.101 Z-10.649
X54.65 Z-10.79
X54.248 Z-10.987
X53.097 Z-10.621
X52.724 Z-10.571
X52.387 Z-10.555
X51.83 Z-10.639
X50.037 Z-11.098
X49.357 Z-10.843
X49.121 Z-10.789
X48.593 Z-10.717
X47.454 Z-10.69
X46.948 Z-10.709
X46.343 Z-10.777
X45.671 Z-10.855
X45.514 Z-10.843
X45.456 Z-10.239
X45.305 Z-9.753
X45.126 Z-9.426
X44.938 Z-9.208
X44.699 Z-9.028
X44.29 Z-8.845
X43.872 Z-8.772
X43.624 Z-8.774
X43.146 Z-8.866
X42.861 Z-8.973
X41.18 Z-10.031
X40.474 Z-10.569
X39.427 Z-11.475
X39.061 Z-11.699
X38.6 Z-11.946
X38.242 Z-12.245
X37.987 Z-12.561
X37.619 Z-13.173
X37.287 Z-13.812
X36.752 Z-14.612
X36.004 Z-15.678
X35.579 Z-16.379
X35.303 Z-16.972
X34.891 Z-18.122
X34.678 Z-19.006
X34.619 Z-19.466
X34.601 Z-19.956
Z-23.801
X33.321 Z-23.904
X32.438 Z-24.026
X31.819 Z-24.158
X31.328 Z-24.295
X30.648 Z-24.209
X29.605 Z-24.261
X28.757 Z-24.374
X27.986 Z-24.51
X27.349 Z-24.341
X26.721 Z-24.225
X25.366 Z-24.117
X24.091 Z-24.041
X23.416 Z-24.037
X22.787 Z-24.11
X21.859 Z-24.311
X21.562 Z-24.406
X20.891 Z-24.676
X19.516 Z-25.09
X18.893 Z-25.39
X18.419 Z-25.704
X18.014 Z-26.054
X17.794 Z-26.299
X17.53 Z-26.705
X17.484 Z-26.799
X17.061 Z-27.038
X16.539 Z-27.438
X16.315 Z-27.404
X15.725 Z-27.053
X15.036 Z-26.777
X14.852 Z-26.719
X14.335 Z-26.462
X13.701 Z-26.339
X13.11 Z-26.357
X12.608 Z-26.446
X12.06 Z-26.348
X11.409 Z-26.176
X10.915 Z-26.147
X10.45 Z-26.211
X9.113 Z-26.586
X8.143 Z-27.003
X7.513 Z-27.039
X7.017 Z-27.033
X6.609 Z-27.105
X5.715 Z-27.405
X5.532 Z-27.427
X4.908 Z-27.391
X4.375 Z-27.478
X3.727 Z-27.659
X2.193 Z-28.185
X2.071 Z-28.177
X2.001 Z-28.161
X2.
X1.967 Y2.975 Z-28.16
X1.937 Y2.988 Z-28.158
X1.91 Y3.008 Z-28.155
X1.89 Y3.034 Z-28.151
X1.878 Y3.064 Z-28.147
X1.873 Y3.096 Z-28.142
X1.878 Y3.129 Z-28.137
X1.89 Y3.159 Z-28.132
X1.91 Y3.185 Z-28.128
X1.937 Y3.204 Z-28.125
X1.967 Y3.217 Z-28.123
X2. Y3.221 Z-28.122
X2.07 Z-28.139
X2.196 Z-28.145
X3.026 Z-27.831
X3.764 Z-27.561
X4.518 Z-27.36
X4.961 Z-27.312
X5.752 Z-27.389
X6.532 Z-27.093
X6.902 Z-27.007
X7.375 Z-26.988
X8.049 Z-26.918
X8.318 Z-26.781
X9.184 Z-26.438
X10.254 Z-26.16
X10.674 Z-26.069
X11.364 Z-26.068
X12.615 Z-26.288
X13.145 Z-26.171
X13.609 Z-26.157
X13.973 Z-26.193
X14.546 Z-26.398
X15.193 Z-26.786
X15.679 Z-27.024
X16.134 Z-27.303
X16.47 Z-27.371
X16.802 Z-27.103
X17.326 Z-26.799
X17.52 Z-26.465
X17.614 Z-26.325
X17.819 Z-26.08
X18.297 Z-25.674
X18.926 Z-25.285
X19.683 Z-24.962
X20.198 Z-24.855
X20.669 Z-24.722
X21.081 Z-24.541
X21.569 Z-24.342
X22.297 Z-24.177
X23.044 Z-24.08
X24.056 Z-24.07
X25.951 Z-24.185
X26.809 Z-24.295
X27.757 Z-24.531
X28.705 Z-24.367
X29.765 Z-24.247
X30.755 Z-24.225
X31.226 Z-24.305
X31.441 Z-24.235
X32.012 Z-24.112
X32.966 Z-23.975
X34.53 Z-23.83
X34.542 Z-19.617
X34.6 Z-18.981
X34.85 Z-17.916
X35.201 Z-16.945
X35.4 Z-16.498
X35.866 Z-15.69
X36.219 Z-15.205
X37.15 Z-13.873
X37.555 Z-13.173
X37.708 Z-12.917
X37.982 Z-12.516
X38.305 Z-12.173
X38.694 Z-11.882
X39.385 Z-11.528
X39.845 Z-11.13
X40.712 Z-10.343
X41.369 Z-9.868
X42.759 Z-9.014
X43.237 Z-8.784
X43.7 Z-8.698
X44.031 Z-8.695
X44.349 Z-8.758
X44.788 Z-8.943
X45.028 Z-9.125
X45.196 Z-9.317
X45.411 Z-9.696
X45.552 Z-10.147
X45.616 Z-10.756
X45.76 Z-10.766
X47.161 Z-10.596
X48.667 Z-10.552
X48.997 Z-10.575
X49.321 Z-10.62
X49.686 Z-10.708
X50.271 Z-10.949
X51.168 Z-10.738
X52.169 Z-10.553
X52.718 Z-10.545
X53.203 Z-10.61
X54.279 Z-10.924
X54.65 Z-10.743
X55.046 Z-10.603
X55.531 Z-10.563
X55.853 Z-10.605
X56.157 Z-10.707
X56.526 Z-10.923
X56.701 Z-10.412
X56.803 Z-10.163
X57.089 Z-9.665
X57.453 Z-9.242
X57.772 Z-9.01
X58.048 Z-8.888
X58.482 Z-8.761
X58.801 Z-8.744
X59.831 Z-8.88
X60.444 Z-8.86
X62.756 Z-8.74
X64.937 Z-8.598
X65.915 Z-8.45
X66.548 Z-8.285
X67.561 Z-7.919
X68.15 Z-7.813
X68.61 Z-7.823
X68.961 Z-7.908
X69.351 Z-8.088
X69.593 Z-8.27
X69.909 Z-8.611
X70.131 Z-9.038
X70.277 Z-9.55
X70.433 Z-11.053
X70.588 Z-11.494
X70.879 Z-12.083
X71.379 Z-12.037
X71.913 Z-11.943
X73.359 Z-11.749
X74.252 Z-11.698
X74.971 Z-11.779
X75.745 Z-11.992
X76.6 Z-12.416
X77.177 Z-12.362
X77.974 Z-12.368
X78.142 Z-12.321
X78.794 Z-12.135
X79.222 Z-12.085
X80.154 Z-12.091
X80.756 Z-12.133
X81.452 Z-12.079
X82.127 Z-12.105
X82.356 Z-12.09
X82.86 Z-12.11
X83.168 Z-12.197
X84.094 Z-12.598
X84.434 Z-12.846
X84.54 Z-12.921
X84.989 Z-13.269
X85.175 Z-13.493
X85.349 Z-13.834
X85.454 Z-14.267
X85.543 Z-14.412
X85.815 Z-14.665
X86.087 Z-14.974
X86.218 Z-15.065
X86.344 Z-15.06
X86.485 Z-14.955
X87.035 Z-14.617
X87.726 Z-14.326
X88.312 Z-14.198
X88.631 Z-14.167
X89.134 Z-14.168
X89.784 Z-14.261
X90.449 Z-14.473
X91.439 Z-14.906
X92.518 Z-15.398
X92.906 Z-15.604
X93.464 Z-15.893
X93.921 Z-16.256
X94.32 Z-16.685
X94.601 Z-17.073
X94.714 Z-17.309
X95.145 Z-17.75
X95.432 Z-17.978
X96.06 Z-18.102
X96.689 Z-18.282
X97.206 Z-18.513
X97.794 Z-18.884
X98.497 Z-19.476
X99.227 Z-20.028
X99.758 Z-20.308
X100.351 Z-20.529
X101.24 Z-20.792
X102.31 Z-21.015
X103.439 Z-21.268
X104.069 Z-21.452
X104.381 Z-21.563
X104.978 Z-21.822
X105.263 Z-21.985
X105.674 Z-22.243
X106.05 Z-22.564
X106.276 Z-22.782
X106.619 Z-23.2
X106.93 Z-23.713
X107.58 Z-25.235
X107.639 Z-25.23
X108.36 Z-25.191
X108.507 Z-25.121
X108.889 Z-24.865
X109.901 Z-24.395
X110.756 Z-24.11
X111.131 Z-24.074
X111.911 Z-24.126
X112.443 Z-24.049
X112.929 Z-24.024
X113.685 Z-24.1
X115.057 Z-24.487
X115.438 Z-24.52
X116.086 Z-24.652
X117.302 Z-24.963
X118.534 Z-25.206
X119.145 Z-25.278
X120.249 Z-25.309
X122.855 Z-25.412
X124.874 Z-25.507
X125.653 Z-25.662
X126.087 Z-25.639
X127.371 Z-25.623
X128.665 Z-25.74
X129.154 Z-25.823
X129.554 Z-25.916
X130.083 Z-26.1
X130.735 Z-26.195
X131.489 Z-26.42
X131.943 Z-26.609
X132.542 Z-26.924
X132.649 Z-26.872
X133.037 Z-26.701
X133.254 Z-26.632
X133.84 Z-26.541
X134.414 Z-26.557
X134.8 Z-26.461
X135.898 Z-26.197
X136.334 Z-26.012
X136.731 Z-25.939
X137.475 Z-25.968
X137.973 Z-25.894
X138.754 Z-25.853
X139.481 Z-25.887
X140.019 Z-26.041
X140.098 Z-26.022
X140.698 Z-25.851
X141.257 Z-25.81
X141.841 Z-25.822
X142.238 Z-25.898
X142.525 Z-26.026
X143.055 Z-26.381
X143.357 Z-26.486
X143.706 Z-26.667
X144.008 Z-26.9
X144.33 Z-27.286
X144.631 Z-27.904
X145.061 Z-27.97
X145.763 Z-28.193
X146.547 Z-28.524
X146.866 Z-28.341
X147.296 Z-28.192
X147.696 Z-28.157
X147.752 Z-28.141
X147.758 Z-28.138
X147.828 Z-28.122
X147.953 Y3.346
X147.828 Y3.471
X147.821
X147.751 Z-28.138
X147.695 Z-28.154
X147.298 Z-28.189
X146.825 Z-28.361
X146.556 Z-28.518
X146.291 Z-28.385
X145.687 Z-28.139
X145.061 Z-27.932
X144.446 Z-27.837
X144.202 Z-27.318
X143.978 Z-27.032
X143.563 Z-26.689
X143.222 Z-26.509
X142.778 Z-26.142
X142.471 Z-25.956
X142.175 Z-25.841
X141.695 Z-25.764
X141.004 Z-25.792
X140.436 Z-25.893
X140.066 Z-26.018
X139.597 Z-25.872
X139.025 Z-25.828
X137.983 Z-25.868
X137.405 Z-25.906
X136.856 Z-25.881
X136.391 Z-25.954
X136.001 Z-26.1
X135.829 Z-26.174
X134.909 Z-26.38
X134.414 Z-26.556
X133.897 Z-26.54
X133.485 Z-26.583
X132.913 Z-26.757
X132.731 Z-26.841
X132.291 Z-26.604
X131.688 Z-26.354
X130.896 Z-26.141
X130.462 Z-26.075
X130.144 Z-25.945
X129.327 Z-25.752
X128.358 Z-25.638
X127.49 Z-25.594
X126.337 Z-25.649
X124.839 Z-25.414
X121.531 Z-25.303
X120.181 Z-25.269
X119.333 Z-25.254
X118.573 Z-25.166
X117.371 Z-24.936
X115.751 Z-24.54
X115.182 Z-24.466
X114.957 Z-24.455
X113.824 Z-24.126
X113.419 Z-24.077
X112.577 Z-24.062
X112.165 Z-24.116
X111.757 Z-24.118
X111.234 Z-24.076
X110.853 Z-24.095
X110.436 Z-24.214
X109.88 Z-24.445
X109.028 Z-24.902
X108.519 Z-25.197
X107.757 Z-25.242
X107.741 Z-25.241
X107.197 Z-23.925
X106.959 Z-23.432
X106.495 Z-22.792
X106.102 Z-22.404
X105.854 Z-22.198
X105.38 Z-21.887
X104.804 Z-21.591
X104.116 Z-21.317
X103.49 Z-21.113
X102.246 Z-20.792
X101.593 Z-20.666
X100.394 Z-20.278
X99.568 Z-19.918
X98.866 Z-19.485
X97.631 Z-18.677
X97.067 Z-18.407
X96.445 Z-18.219
X95.795 Z-18.126
X95.244 Z-18.097
X95.178 Z-18.052
X95.026 Z-17.592
X94.727 Z-16.955
X94.478 Z-16.634
X94.091 Z-16.235
X93.435 Z-15.75
X93.044 Z-15.563
X92.771 Z-15.434
X90.741 Z-14.609
X89.919 Z-14.349
X89.307 Z-14.277
X88.728 Z-14.286
X88.21 Z-14.365
X87.6 Z-14.563
X87.093 Z-14.816
X86.648 Z-15.106
X86.474 Z-15.099
X86.114 Z-14.864
X85.827 Z-14.721
X85.333 Z-14.328
X85.278 Z-13.964
X85.189 Z-13.729
X85.045 Z-13.494
X84.78 Z-13.194
X84.622 Z-12.98
X84.345 Z-12.713
X84.083 Z-12.543
X83.714 Z-12.408
X83.445 Z-12.332
X83.041 Z-12.156
X82.725 Z-12.095
X82.2 Z-12.107
X81.788 Z-12.039
X81.24 Z-12.068
X80.74 Z-12.111
X80.571 Z-12.107
X80.185 Z-12.056
X79.932 Z-12.036
X79.506 Z-12.002
X78.457 Z-12.119
X78.228 Z-12.167
X77.831 Z-12.235
X77.624 Z-12.281
X76.895 Z-12.285
X76.198 Z-12.361
X75.671 Z-12.074
X75.019 Z-11.878
X74.373 Z-11.76
X73.47 Z-11.769
X72.382 Z-11.891
X71.718 Z-11.986
X70.962 Z-12.098
X70.699 Z-12.109
X70.452 Z-11.586
X70.312 Z-11.171
X70.185 Z-9.672
X70.073 Z-9.153
X69.92 Z-8.773
X69.756 Z-8.541
X69.357 Z-8.176
X69.027 Z-7.974
X68.647 Z-7.851
X68.246 Z-7.809
X67.723 Z-7.856
X67.319 Z-7.957
X66.108 Z-8.368
X65.302 Z-8.533
X63.679 Z-8.68
X60.843 Z-8.832
X59.756 Z-8.914
X58.778 Z-8.803
X58.367 Z-8.847
X57.868 Z-9.019
X57.6 Z-9.182
X57.208 Z-9.57
X56.937 Z-9.977
X56.701 Z-10.491
X56.581 Z-10.847
X56.16 Z-10.622
X55.773 Z-10.527
X55.364 Z-10.516
X54.872 Z-10.613
X54.324 Z-10.854
X54.077 Z-10.815
X53.179 Z-10.582
X52.563 Z-10.522
X51.759 Z-10.572
X50.954 Z-10.695
X50.536 Z-10.809
X50.067 Z-10.59
X49.668 Z-10.472
X49.18 Z-10.401
X48.51 Z-10.4
X47.022 Z-10.516
X46.506 Z-10.589
X45.851 Z-10.684
X45.718 Z-10.675
X45.659 Z-10.098
X45.505 Z-9.597
X45.278 Z-9.219
X45.079 Z-9.003
X44.835 Z-8.826
X44.475 Z-8.678
X44.076 Z-8.62
X43.69 Z-8.631
X43.253 Z-8.742
X42.974 Z-8.861
X42.062 Z-9.439
X41.481 Z-9.767
X41.224 Z-9.928
X40.73 Z-10.3
X40.063 Z-10.938
X39.522 Z-11.475
X39.375 Z-11.572
X38.689 Z-11.89
X38.223 Z-12.228
X38.106 Z-12.339
X37.818 Z-12.678
X36.686 Z-14.429
X36.103 Z-15.223
X35.807 Z-15.62
X35.187 Z-16.717
X34.818 Z-17.73
X34.611 Z-18.55
X34.519 Z-19.091
X34.481 Z-19.68
Z-23.789
X33.57 Z-23.915
X32.801 Z-23.981
X32.307 Z-24.086
X31.552 Z-24.207
X31.135 Z-24.332
X30.818 Z-24.257
X30.153 Z-24.249
X29.507 Z-24.28
X28.32 Z-24.413
X27.51 Z-24.548
X26.593 Z-24.312
X25.942 Z-24.212
X25.281 Z-24.147
X24.472 Z-24.088
X23.628 Z-24.077
X22.82 Z-24.1
X21.979 Z-24.203
X21.419 Z-24.337
X20.933 Z-24.548
X20.511 Z-24.769
X20.343 Z-24.818
X19.877 Z-24.868
X19.444 Z-25.002
X18.742 Z-25.297
X18.21 Z-25.624
X17.665 Z-26.069
X17.329 Z-26.508
X17.175 Z-26.787
X16.874 Z-26.941
X16.619 Z-27.118
X16.386 Z-27.311
X15.946 Z-27.217
X15.006 Z-26.546
X14.725 Z-26.346
X14.285 Z-26.142
X13.817 Z-26.025
X13.193 Z-26.037
X12.67 Z-26.134
X11.968 Z-26.003
X11.576 Z-25.951
X10.641 Z-25.985
X10.306 Z-26.054
X9.878 Z-26.173
X9.231 Z-26.32
X8.531 Z-26.586
X8.09 Z-26.8
X7.956 Z-26.866
X7.151 Z-26.982
X6.689 Z-27.037
X6.2 Z-27.213
X5.84 Z-27.378
X5.043 Z-27.266
X4.541 Z-27.308
X3.641 Z-27.524
X2.197 Z-28.127
X2.066 Z-28.123
X1.996 Z-28.106
X1.98
X1.855 Y3.596
X1.98 Y3.721
X2.049 Z-28.123
X2.061 Z-28.128
X2.198 Z-28.129
X3.157 Z-27.682
X3.755 Z-27.454
X4.522 Z-27.293
X5.05 Z-27.245
X5.935 Z-27.37
X6.443 Z-27.137
X6.913 Z-27.019
X7.879 Z-26.842
X8.439 Z-26.546
X9.319 Z-26.205
X9.94 Z-26.095
X10.297 Z-26.01
X11.107 Z-25.857
X11.782 Z-25.855
X12.738 Z-25.996
X12.961 Z-25.954
X13.473 Z-25.898
X13.881 Z-25.926
X14.353 Z-26.06
X14.699 Z-26.227
X15.654 Z-26.95
X15.928 Z-27.191
X16.292 Z-27.248
X16.712 Z-26.93
X17.025 Z-26.766
X17.305 Z-26.309
X17.585 Z-25.986
X18.403 Z-25.412
X18.872 Z-25.17
X19.452 Z-24.958
X19.949 Z-24.846
X20.386 Z-24.816
X20.715 Z-24.601
X20.981 Z-24.459
X21.261 Z-24.345
X21.548 Z-24.254
X21.842 Z-24.199
X22.39 Z-24.132
X23.653 Z-24.078
X24.602 Z-24.093
X25.6 Z-24.195
X26.332 Z-24.316
X26.653 Z-24.391
X27.303 Z-24.566
X28.636 Z-24.372
X29.917 Z-24.293
X30.649 Z-24.305
X31.05 Z-24.373
X31.103 Z-24.358
X31.621 Z-24.218
X31.989 Z-24.181
X32.091 Z-24.133
X32.499 Z-24.002
X33.123 Z-23.911
X33.461 Z-23.888
X34.445 Z-23.764
X34.446 Z-19.475
X34.47 Z-19.031
X34.596 Z-18.306
X34.766 Z-17.606
X35.101 Z-16.734
X35.731 Z-15.642
X36.406 Z-14.727
X37.547 Z-12.981
X37.984 Z-12.424
X38.244 Z-12.189
X38.718 Z-11.861
X39.131 Z-11.685
X39.465 Z-11.576
X39.593 Z-11.485
X40.295 Z-10.71
X40.925 Z-10.118
X41.452 Z-9.75
X42.147 Z-9.383
X43.177 Z-8.731
X43.461 Z-8.621
X43.827 Z-8.549
X44.23 Z-8.539
X44.594 Z-8.619
X44.956 Z-8.762
X45.199 Z-8.938
X45.499 Z-9.281
X45.665 Z-9.594
X45.763 Z-10.006
X45.818 Z-10.593
X45.95 Z-10.6
X46.723 Z-10.471
X48.718 Z-10.239
X49.339 Z-10.226
X49.831 Z-10.285
X50.297 Z-10.413
X50.806 Z-10.662
X51.194 Z-10.574
X52.158 Z-10.492
X52.703 Z-10.51
X53.031 Z-10.543
X54.067 Z-10.772
X54.327 Z-10.79
X54.934 Z-10.544
X55.228 Z-10.469
X55.525 Z-10.447
X55.895 Z-10.465
X56.201 Z-10.55
X56.625 Z-10.78
X56.776 Z-10.39
X56.954 Z-10.019
X57.176 Z-9.661
X57.507 Z-9.332
X57.897 Z-9.075
X58.282 Z-8.938
X58.787 Z-8.871
X59.557 Z-8.947
X60.783 Z-8.848
X62.128 Z-8.771
X64.418 Z-8.613
X65.366 Z-8.497
X66.01 Z-8.354
X67.055 Z-7.993
X67.726 Z-7.821
X68.105 Z-7.8
X68.344 Z-7.826
X68.747 Z-7.912
X69.144 Z-8.098
X69.527 Z-8.411
X69.781 Z-8.726
X69.957 Z-9.107
X70.078 Z-9.686
X70.113 Z-10.338
X70.179 Z-11.186
X70.27 Z-11.538
X70.533 Z-12.148
X70.844 Z-12.142
X71.191 Z-12.08
X72.798 Z-11.879
X73.897 Z-11.834
X74.549 Z-11.884
X75.386 Z-12.115
X75.752 Z-12.289
X76.125 Z-12.231
X77.422 Z-12.214
X77.471 Z-12.199
X77.836 Z-12.093
X78.314 Z-12.056
X78.868 Z-12.02
X79.496 Z-11.96
X80.083 Z-11.987
X80.476 Z-12.011
X80.777 Z-12.1
X81.498 Z-11.998
X81.98 Z-12.025
X82.337 Z-12.122
X82.794 Z-12.139
X83.106 Z-12.216
X83.381 Z-12.346
X83.696 Z-12.4
X83.997 Z-12.498
X84.266 Z-12.65
X84.608 Z-12.956
X84.848 Z-13.302
X84.989 Z-13.677
X85.116 Z-13.999
X85.161 Z-14.253
X85.558 Z-14.547
X85.845 Z-14.636
X86.288 Z-14.866
X86.641 Z-15.133
X86.957 Z-15.161
X87.388 Z-14.885
X87.728 Z-14.704
X88.406 Z-14.484
X89.148 Z-14.39
X89.773 Z-14.412
X90.374 Z-14.539
X91.238 Z-14.812
X93.292 Z-15.581
X93.744 Z-15.856
X94.262 Z-16.255
X94.452 Z-16.419
X94.704 Z-16.697
X95.076 Z-17.278
X95.32 Z-17.779
X95.449 Z-18.216
X95.927 Z-18.198
X96.504 Z-18.251
X97.062 Z-18.379
X97.668 Z-18.617
X98.742 Z-19.184
X99.387 Z-19.574
X100.227 Z-19.982
X101.249 Z-20.371
X102.145 Z-20.622
X103.665 Z-21.024
X104.325 Z-21.262
X104.93 Z-21.52
X105.51 Z-21.816
X106.042 Z-22.177
X106.556 Z-22.648
X106.959 Z-23.161
X107.298 Z-23.779
X107.892 Z-25.249
X107.975 Z-25.239
X108.703 Z-25.201
X109.17 Z-24.91
X109.921 Z-24.487
X110.684 Z-24.168
X111.209 Z-24.095
X111.696 Z-24.127
X111.906 Z-24.124
X112.432 Z-24.115
X113.372
X113.702 Z-24.138
X114.464 Z-24.327
X114.906 Z-24.448
X115.257
X115.788 Z-24.516
X117.296 Z-24.882
X118.499 Z-25.104
X119.722 Z-25.243
X120.511 Z-25.236
X123.634 Z-25.327
X124.95 Z-25.372
X126.244 Z-25.495
X126.945 Z-25.62
X127.536 Z-25.582
X128.347 Z-25.584
X129.014 Z-25.634
X129.831 Z-25.749
X130.305 Z-25.853
X130.68 Z-26.037
X130.896 Z-26.069
X131.719 Z-26.24
X132.389 Z-26.492
X132.941 Z-26.786
X133.364 Z-26.644
X133.761 Z-26.568
X134.343 Z-26.571
X134.413 Z-26.548
X134.916 Z-26.351
X135.674 Z-26.187
X135.949 Z-26.093
X136.371 Z-25.932
X136.793 Z-25.858
X137.366 Z-25.864
X139.163 Z-25.807
X139.647 Z-25.865
X140.102 Z-26.021
X140.629 Z-25.866
X141.382 Z-25.762
X141.766 Z-25.766
X142.241 Z-25.852
X142.597 Z-26.017
X143.025 Z-26.335
X143.335 Z-26.676
X143.579 Z-26.852
X143.964 Z-27.26
X144.157 Z-27.589
X144.425 Z-27.774
X144.531 Z-27.799
X145.024 Z-27.894
X145.341 Z-27.985
X145.954 Z-28.217
X146.251 Z-28.349
X146.566 Z-28.512
X146.869 Z-28.338
X147.299 Z-28.188
X147.696 Z-28.152
X147.711 Z-28.151
X147.767 Z-28.136
X147.837 Z-28.119
X147.962 Y3.846
X147.837 Y3.971
X147.828
X147.758 Z-28.136
X147.752 Z-28.138
X147.696 Z-28.154
X147.299 Z-28.189
X146.835 Z-28.353
X146.575 Z-28.502
X146.214 Z-28.313
X145.539 Z-28.009
X145.304 Z-27.838
X145.017 Z-27.714
X144.663 Z-27.655
X144.383 Z-27.665
X144.027 Z-27.479
X143.83 Z-27.409
X143.518 Z-26.94
X143.28 Z-26.694
X142.988 Z-26.344
X142.634 Z-26.069
X142.36 Z-25.921
X141.974 Z-25.814
X141.566 Z-25.772
X141.122 Z-25.825
X140.27 Z-26.011
X140.132 Z-26.06
X139.785 Z-25.917
X139.33 Z-25.828
X137.328 Z-25.858
X136.795 Z-25.855
X136.354 Z-25.938
X135.797 Z-26.145
X134.868 Z-26.38
X134.433 Z-26.555
X134.282 Z-26.629
X133.707 Z-26.638
X133.196 Z-26.759
X132.393 Z-26.345
X131.801 Z-26.155
X131.153 Z-26.04
X130.967 Z-26.016
X130.343 Z-25.771
X129.792 Z-25.663
X128.921 Z-25.564
X127.841 Z-25.565
X127.35 Z-25.596
X126.74 Z-25.459
X126.077 Z-25.391
X124.024 Z-25.302
X122.884 Z-25.272
X121.212 Z-25.211
X119.983 Z-25.212
X118.966 Z-25.12
X117.17 Z-24.828
X115.815 Z-24.524
X115.198 Z-24.461
X114.884 Z-24.469
X114.485 Z-24.382
X113.955 Z-24.261
X113.465 Z-24.195
X112.936 Z-24.206
X112.729 Z-24.19
X112.449 Z-24.131
X111.952 Z-24.133
X111.659 Z-24.172
X111.179 Z-24.153
X110.716 Z-24.235
X110.153 Z-24.473
X109.257 Z-24.956
X108.92 Z-25.208
X108.144 Z-25.235
X108.028 Z-25.25
X107.386 Z-23.651
X107.215 Z-23.341
X106.931 Z-22.903
X106.644 Z-22.559
X106.178 Z-22.138
X105.75 Z-21.831
X105.07 Z-21.46
X104.154 Z-21.08
X103.569 Z-20.883
X102.329 Z-20.534
X101.438 Z-20.277
X100.303 Z-19.825
X99.364 Z-19.364
X98.831 Z-19.067
X97.729 Z-18.577
X97.181 Z-18.393
X96.618 Z-18.287
X96.121 Z-18.257
X95.719 Z-18.282
X95.552 Z-17.814
X95.279 Z-17.304
X94.714 Z-16.562
X94.424 Z-16.285
X93.712 Z-15.763
X93.213 Z-15.507
X91.37 Z-14.877
X90.575 Z-14.658
X89.846 Z-14.524
X89.258 Z-14.521
X88.792 Z-14.578
X88.214 Z-14.729
X87.798 Z-14.889
X87.241 Z-15.221
X86.802 Z-15.195
X86.597 Z-15.
X86.167 Z-14.719
X85.725 Z-14.512
X85.328 Z-14.426
X85.042 Z-14.202
X85.006 Z-13.802
X84.9 Z-13.442
X84.696 Z-13.096
X84.375 Z-12.765
X84.121 Z-12.588
X83.834 Z-12.463
X83.429 Z-12.391
X83.284 Z-12.382
X82.999 Z-12.265
X82.682 Z-12.208
X82.527 Z-12.201
X82.076 Z-12.034
X81.674 Z-11.986
X80.861 Z-12.011
X80.671 Z-12.02
X80.312 Z-11.96
X79.496 Z-11.939
X78.53 Z-11.998
X78.069 Z-11.985
X77.747 Z-12.02
X77.287 Z-12.164
X77.243 Z-12.181
X76.782 Z-12.155
X76.328 Z-12.133
X76. Z-12.145
X75.24 Z-12.271
X74.796 Z-12.094
X73.958 Z-11.951
X73.003 Z-11.94
X72.395 Z-11.995
X71.161 Z-12.097
X70.37 Z-12.188
X70.146 Z-11.659
X70.03 Z-11.149
X69.976 Z-9.785
X69.912 Z-9.383
X69.842 Z-9.117
X69.682 Z-8.755
X69.427 Z-8.417
X69.001 Z-8.082
X68.648 Z-7.913
X68.176 Z-7.796
X67.677
X67.216 Z-7.894
X66.648 Z-8.083
X65.661 Z-8.401
X64.772 Z-8.566
X62.68 Z-8.745
X60.538 Z-8.881
X59.371 Z-8.988
X58.895 Z-8.947
X58.473 Z-8.985
X58.097 Z-9.081
X57.686 Z-9.293
X57.296 Z-9.61
X57.027 Z-9.966
X56.746 Z-10.521
X56.666 Z-10.716
X56.26 Z-10.498
X55.953 Z-10.409
X55.501 Z-10.388
X55.143 Z-10.435
X54.714 Z-10.588
X54.322 Z-10.735
X54.135 Z-10.745
X53.851 Z-10.706
X52.948 Z-10.511
X51.946 Z-10.439
X51.122 Z-10.546
X50.758 Z-10.335
X50.222 Z-10.142
X49.741 Z-10.054
X48.997 Z-10.067
X46.89 Z-10.36
X46.092 Z-10.516
X45.916 Z-10.509
X45.858 Z-9.87
X45.742 Z-9.466
X45.609 Z-9.226
X45.303 Z-8.88
X45.054 Z-8.688
X44.774 Z-8.554
X44.464 Z-8.48
X43.966 Z-8.464
X43.562 Z-8.548
X43.142 Z-8.717
X42.312 Z-9.281
X41.552 Z-9.664
X41.199 Z-9.895
X40.754 Z-10.246
X40.3 Z-10.719
X39.609 Z-11.573
X39.56 Z-11.602
X38.965 Z-11.743
X38.584 Z-11.922
X38.183 Z-12.22
X37.85 Z-12.534
X37.351 Z-13.167
X37.023 Z-13.673
X36.348 Z-14.762
X35.746 Z-15.582
X35.479 Z-15.98
X34.959 Z-16.941
X34.698 Z-17.601
X34.503 Z-18.463
X34.427 Z-19.154
X34.416 Z-23.749
X33.424 Z-23.869
X32.534 Z-23.979
X32.087 Z-24.119
X31.714 Z-24.265
X31.216 Z-24.362
X30.913 Z-24.45
X30.458 Z-24.36
X29.047 Z-24.371
X27.96 Z-24.47
X27.038 Z-24.586
X26.759 Z-24.49
X26.443 Z-24.4
X25.556 Z-24.212
X24.573 Z-24.093
X23.583 Z-24.092
X23.002 Z-24.094
X22.03 Z-24.153
X21.735 Z-24.192
X21.441 Z-24.25
X21.153 Z-24.335
X20.873 Z-24.453
X20.477 Z-24.668
X20.264 Z-24.827
X19.637 Z-24.89
X19.023 Z-25.051
X18.283 Z-25.424
X17.614 Z-25.85
X17.161 Z-26.289
X16.964 Z-26.603
X16.885 Z-26.767
X16.409 Z-27.022
X16.197 Z-27.195
X15.918 Z-27.112
X14.829 Z-26.248
X14.479 Z-26.048
X14.039 Z-25.884
X13.6 Z-25.814
X13.222 Z-25.824
X12.837 Z-25.871
X11.822 Z-25.772
X11.052 Z-25.808
X9.978 Z-26.054
X9.386 Z-26.139
X8.696 Z-26.38
X7.933 Z-26.783
X7.79 Z-26.851
X6.594 Z-27.146
X6.176 Z-27.316
X6.04 Z-27.378
X5.257 Z-27.253
X4.63 Z-27.263
X3.758 Z-27.431
X3.189 Z-27.657
X2.198 Z-28.149
X2.128 Z-28.165
X2.126
X2.094 Y3.975 Z-28.166
X2.063 Y3.988 Z-28.167
X2.037 Y4.008 Z-28.169
X2.017 Y4.034 Z-28.172
X2.005 Y4.064 Z-28.175
X2.001 Y4.096 Z-28.179
X2.005 Y4.129 Z-28.182
X2.017 Y4.159 Z-28.185
X2.037 Y4.185 Z-28.188
X2.063 Y4.204 Z-28.19
X2.094 Y4.217 Z-28.191
X2.126 Y4.221 Z-28.192
X2.199 Z-28.174
X3.117 Z-27.705
X3.815 Z-27.422
X4.585 Z-27.295
X5.196 Z-27.264
X6.12 Z-27.398
X6.421 Z-27.258
X6.862 Z-27.09
X7.752 Z-26.884
X7.978 Z-26.756
X8.79 Z-26.326
X9.395 Z-26.12
X10.168 Z-26.012
X10.808 Z-25.845
X11.358 Z-25.737
X12.085 Z-25.699
X12.994 Z-25.781
X13.271 Z-25.744
X13.759 Z-25.777
X14.186 Z-25.897
X14.732 Z-26.149
X15.847 Z-27.019
X16.116 Z-27.114
X16.377 Z-26.929
X16.783 Z-26.737
X16.975 Z-26.376
X17.178 Z-26.122
X17.543 Z-25.801
X18.033 Z-25.483
X18.875 Z-25.099
X19.308 Z-24.958
X20.085 Z-24.855
X20.269 Z-24.712
X20.664 Z-24.481
X21.156 Z-24.291
X21.665 Z-24.178
X21.961 Z-24.144
X23.368 Z-24.077
X23.766 Z-24.142
X24.034 Z-24.101
X24.358 Z-24.1
X24.961 Z-24.136
X25.941 Z-24.328
X26.858 Z-24.611
X27.275 Z-24.546
X27.589 Z-24.521
X29.087 Z-24.428
X31.055 Z-24.445
X31.428 Z-24.363
X32.078 Z-24.108
X32.513 Z-23.995
X32.807 Z-23.94
X34.387 Z-23.757
X34.399 Z-19.19
X34.47 Z-18.382
X34.631 Z-17.654
X34.814 Z-17.168
X35.277 Z-16.293
X35.911 Z-15.347
X36.401 Z-14.684
X36.935 Z-13.706
X37.271 Z-13.176
X37.662 Z-12.698
X38.281 Z-12.121
X38.741 Z-11.85
X39.137 Z-11.719
X39.657 Z-11.645
X40.277 Z-10.775
X40.838 Z-10.165
X41.192 Z-9.878
X41.447 Z-9.708
X41.709 Z-9.556
X42.428 Z-9.211
X43.02 Z-8.791
X43.413 Z-8.564
X43.761 Z-8.443
X44.223 Z-8.386
X44.551 Z-8.412
X44.86 Z-8.488
X45.138 Z-8.624
X45.382 Z-8.816
X45.693 Z-9.152
X45.828 Z-9.391
X45.967 Z-9.863
X46.012 Z-10.426
X46.222 Z-10.432
X46.893 Z-10.278
X47.916 Z-10.133
X49.118 Z-9.907
X49.955 Z-9.874
X50.512 Z-9.992
X51.082 Z-10.222
X51.454 Z-10.456
X51.701 Z-10.425
X52.187 Z-10.4
X52.816 Z-10.459
X53.462 Z-10.607
X53.963 Z-10.709
X54.284 Z-10.703
X55.157 Z-10.387
X55.465 Z-10.334
X55.882 Z-10.34
X56.269 Z-10.434
X56.704 Z-10.658
X56.738 Z-10.584
X57.019 Z-10.065
X57.295 Z-9.706
X57.619 Z-9.428
X58.056 Z-9.189
X58.572 Z-9.052
X59.083 Z-9.026
X60.206 Z-8.926
X62.686 Z-8.76
X64.798 Z-8.554
X65.729 Z-8.344
X66.915 Z-7.93
X67.214 Z-7.847
X67.639 Z-7.772
X68.135 Z-7.803
X68.596 Z-7.923
X68.964 Z-8.119
X69.367 Z-8.474
X69.614 Z-8.806
X69.743 Z-9.115
X69.841 Z-9.609
X69.867 Z-10.625
X69.909 Z-11.319
X69.99 Z-11.671
X70.18 Z-12.175
X70.43 Z-12.147
X72.379 Z-12.077
X73.492 Z-12.071
X73.988 Z-12.115
X74.575 Z-12.244
X75.764 Z-12.082
X76.344 Z-12.059
X77.115 Z-12.17
X77.195 Z-12.134
X77.574 Z-11.998
X77.95 Z-11.946
X78.503 Z-11.958
X78.717 Z-11.915
X79.223 Z-11.875
X79.89 Z-11.915
X80.227 Z-11.899
X80.859 Z-11.919
X81.953 Z-12.038
X82.312 Z-12.14
X82.679 Z-12.328
X82.756 Z-12.345
X83.132 Z-12.452
X83.526 Z-12.462
X83.839 Z-12.532
X84.124 Z-12.662
X84.495 Z-12.937
X84.688 Z-13.154
X84.865 Z-13.467
X84.968 Z-13.784
X85.022 Z-14.231
X85.158 Z-14.338
X85.671 Z-14.453
X86.014 Z-14.605
X86.623 Z-14.971
X86.924 Z-15.238
X87.519 Z-15.289
X88.073 Z-14.928
X88.395 Z-14.805
X88.715 Z-14.77
X88.841 Z-14.743
X89.397 Z-14.656
X90.019 Z-14.657
X90.913 Z-14.811
X92.204 Z-15.168
X93.31 Z-15.552
X93.851 Z-15.821
X94.514 Z-16.297
X94.964 Z-16.719
X95.442 Z-17.278
X95.762 Z-17.784
X95.986 Z-18.321
X96.234 Z-18.313
X96.883 Z-18.334
X97.486 Z-18.444
X98.607 Z-18.849
X100.337 Z-19.686
X101.605 Z-20.209
X103.451 Z-20.744
X104.231 Z-21.008
X105.287 Z-21.464
X105.922 Z-21.827
X106.495 Z-22.266
X106.826 Z-22.599
X107.144 Z-22.999
X107.5 Z-23.602
X108.154 Z-25.254
X108.271 Z-25.239
X109.124 Z-25.219
X109.199 Z-25.16
X110.016 Z-24.67
X110.377 Z-24.447
X110.948 Z-24.272
X111.534 Z-24.243
X111.859 Z-24.201
X112.345 Z-24.171
X113.118 Z-24.314
X113.608 Z-24.329
X114.27 Z-24.423
X114.481 Z-24.452
X114.85 Z-24.528
X115.168 Z-24.512
X115.767 Z-24.554
X117.136 Z-24.812
X119.005 Z-25.077
X120.346 Z-25.185
X121.96 Z-25.186
X123.497 Z-25.261
X125.746 Z-25.322
X126.742 Z-25.388
X127.823 Z-25.564
X129.012 Z-25.523
X129.928 Z-25.61
X130.569 Z-25.741
X131.219 Z-25.982
X131.518 Z-26.017
X132.002 Z-26.1
X132.626 Z-26.303
X132.92 Z-26.443
X133.207 Z-26.595
X133.487 Z-26.764
X133.819 Z-26.719
X134.242 Z-26.724
X134.459 Z-26.602
X134.912 Z-26.413
X135.807 Z-26.171
X136.08 Z-26.058
X136.621 Z-25.905
X137.13 Z-25.873
X137.792 Z-25.851
X139.242 Z-25.877
X139.725 Z-25.958
X140.143 Z-26.131
X140.235 Z-26.101
X140.815 Z-25.974
X141.066 Z-25.892
X141.349 Z-25.836
X141.814 Z-25.842
X142.208 Z-25.934
X142.569 Z-26.104
X142.947 Z-26.391
X143.234 Z-26.754
X143.521 Z-27.116
X143.56 Z-27.157
X143.879 Z-27.389
X144.276 Z-27.559
X144.61 Z-27.539
X144.993 Z-27.588
X145.289 Z-27.699
X145.547 Z-27.865
X145.754 Z-28.066
X146.313 Z-28.34
X146.581 Z-28.492
X146.872 Z-28.329
X147.301 Z-28.186
X147.697 Z-28.151
X147.753 Z-28.136
X147.759 Z-28.133
X147.829 Z-28.116
X147.954 Y4.346
X147.829 Y4.471
X147.823
X147.753 Z-28.133
X147.698 Z-28.148
X147.305 Z-28.184
X146.875 Z-28.325
X146.586 Z-28.484
X146.204 Z-28.26
X145.848 Z-28.075
X145.59 Z-27.813
X145.331 Z-27.646
X145.037 Z-27.53
X144.634 Z-27.472
X144.209 Z-27.515
X144.172 Z-27.513
X144.023 Z-27.44
X143.812 Z-27.242
X143.551 Z-27.077
X143.262 Z-26.958
X142.89 Z-26.473
X142.52 Z-26.195
X142.086 Z-26.003
X141.774 Z-25.931
X141.325 Z-25.934
X141.059 Z-25.993
X140.751 Z-26.113
X140.233 Z-26.234
X140.174 Z-26.256
X139.82 Z-26.086
X139.309 Z-25.97
X138.452 Z-25.895
X137.471 Z-25.917
X136.803 Z-25.936
X136.248 Z-26.046
X135.78 Z-26.225
X135.173 Z-26.397
X134.597 Z-26.622
X134.188 Z-26.854
X133.844 Z-26.853
X133.527 Z-26.626
X132.838 Z-26.252
X132.148 Z-26.037
X131.678 Z-25.966
X131.464 Z-25.945
X131.107 Z-25.806
X130.659 Z-25.671
X129.918 Z-25.54
X129.158 Z-25.492
X128.384 Z-25.53
X127.894 Z-25.427
X126.383 Z-25.305
X124.455 Z-25.292
X123.799 Z-25.217
X123.045 Z-25.174
X121.526 Z-25.167
X120.964 Z-25.172
X120.024 Z-25.111
X118.741 Z-25.005
X116.862 Z-24.79
X115.58 Z-24.598
X115.173 Z-24.581
X114.845 Z-24.594
X113.465 Z-24.478
X112.945 Z-24.339
X112.461 Z-24.256
X112.086 Z-24.252
X111.205 Z-24.371
X110.816 Z-24.437
X110.459 Z-24.548
X110.185 Z-24.701
X109.944 Z-24.888
X109.385 Z-25.263
X108.795 Z-25.227
X108.346 Z-25.264
X108.279 Z-25.271
X107.658 Z-23.687
X107.39 Z-23.18
X107.062 Z-22.731
X106.627 Z-22.252
X106.128 Z-21.862
X105.501 Z-21.48
X104.686 Z-21.091
X103.752 Z-20.768
X102.325 Z-20.353
X101.293 Z-19.99
X100.278 Z-19.527
X98.859 Z-18.866
X98.087 Z-18.591
X97.487 Z-18.425
X96.998 Z-18.361
X96.273 Z-18.368
X96.263 Z-18.369
X96.062 Z-17.916
X95.699 Z-17.368
X95.225 Z-16.847
X94.674 Z-16.372
X94.075 Z-15.948
X93.651 Z-15.718
X93.126 Z-15.496
X91.945 Z-15.141
X90.981 Z-14.919
X90.247 Z-14.808
X89.833 Z-14.791
X89.484 Z-14.808
X89.198 Z-14.699
X88.714 Z-14.634
X88.381 Z-14.669
X87.989 Z-14.813
X87.685 Z-15.016
X87.414 Z-15.316
X87.083 Z-15.291
X86.779 Z-15.047
X86.436 Z-14.821
X85.861 Z-14.518
X85.327 Z-14.319
X85.022 Z-14.274
X84.971 Z-14.232
X84.922 Z-13.835
X84.796 Z-13.49
X84.556 Z-13.123
X84.342 Z-12.918
X83.97 Z-12.704
X83.643 Z-12.591
X83.323 Z-12.547
X82.915 Z-12.581
X82.844 Z-12.554
X82.596 Z-12.351
X82.242 Z-12.18
X81.557 Z-12.003
X80.77 Z-11.834
X79.932 Z-11.837
X78.854 Z-11.828
X78.459 Z-11.909
X78.315 Z-11.916
X77.837 Z-11.923
X77.376 Z-12.017
X76.766 Z-12.031
X76.572 Z-12.042
X75.961 Z-12.009
X74.719 Z-12.113
X73.637 Z-12.283
X73.024 Z-12.232
X72.608 Z-12.218
X70.771 Z-12.133
X69.993 Z-12.152
X69.87 Z-11.807
X69.752 Z-11.209
X69.729 Z-9.718
X69.651 Z-9.227
X69.506 Z-8.832
X69.282 Z-8.503
X69.062 Z-8.266
X68.819 Z-8.082
X68.383 Z-7.884
X67.989 Z-7.785
X67.582 Z-7.759
X67.131 Z-7.814
X66.767 Z-7.92
X65.59 Z-8.345
X64.629 Z-8.57
X62.691 Z-8.778
X59.876 Z-8.974
X58.484 Z-9.139
X57.98 Z-9.304
X57.521 Z-9.578
X57.169 Z-9.925
X56.832 Z-10.417
X56.74 Z-10.606
X56.265 Z-10.379
X55.955 Z-10.305
X55.625 Z-10.292
X55.161 Z-10.357
X54.196 Z-10.689
X53.862 Z-10.692
X52.806 Z-10.408
X52.318 Z-10.369
X51.765 Z-10.402
X51.458 Z-10.151
X50.877 Z-9.883
X50.405 Z-9.761
X49.831 Z-9.715
X49.267 Z-9.762
X48.106 Z-10.022
X47.16 Z-10.15
X46.222 Z-10.349
X46.107 Z-10.344
X46.057 Z-9.794
X45.912 Z-9.303
X45.776 Z-9.065
X45.506 Z-8.777
X45.207 Z-8.558
X44.848 Z-8.392
X44.455 Z-8.317
X43.969 Z-8.346
X43.606 Z-8.457
X43.187 Z-8.674
X42.545 Z-9.143
X41.652 Z-9.567
X41.146 Z-9.9
X40.749 Z-10.257
X40.487 Z-10.548
X40.289 Z-10.8
X39.945 Z-11.326
X39.718 Z-11.715
X39.307 Z-11.737
X38.94 Z-11.807
X38.518 Z-11.99
X38.131 Z-12.241
X37.512 Z-12.808
X37.085 Z-13.356
X36.595 Z-14.323
X36.376 Z-14.776
X35.966 Z-15.349
X35.322 Z-16.261
X34.757 Z-17.229
X34.575 Z-17.717
X34.452 Z-18.26
X34.379 Z-19.019
X34.362 Z-23.775
X32.778 Z-23.944
X32.521 Z-23.985
X31.765 Z-24.158
X30.843 Z-24.422
X29.465 Z-24.376
X28.511 Z-24.441
X27.752 Z-24.511
X27.246 Z-24.543
X26.646 Z-24.622
X25.725 Z-24.317
X25.082 Z-24.179
X24.431 Z-24.09
X24.06 Z-24.08
X23.679 Z-24.145
X23.317 Z-24.09
X21.828 Z-24.142
X21.238 Z-24.228
X20.737 Z-24.379
X20.262 Z-24.612
X19.917 Z-24.862
X19.874 Z-24.903
X19.147 Z-25.001
X18.033 Z-25.373
X17.76 Z-25.523
X17.51 Z-25.699
X17.158 Z-25.999
X16.782 Z-26.425
X16.633 Z-26.72
X16.32 Z-26.866
X16.05 Z-27.055
X15.766 Z-26.952
X14.914 Z-26.264
X14.504 Z-26.031
X13.936 Z-25.783
X13.454 Z-25.705
X13.039 Z-25.7
X12.26 Z-25.643
X11.571 Z-25.676
X11.131 Z-25.761
X10.225 Z-26.024
X9.428 Z-26.121
X9. Z-26.266
X8.586 Z-26.457
X7.931 Z-26.819
X7.83 Z-26.885
X7.481 Z-26.963
X6.819 Z-27.095
X6.398 Z-27.251
X6.059 Z-27.409
X5.178 Z-27.291
X4.159 Z-27.385
X3.66 Z-27.514
X3.098 Z-27.755
X2.199 Z-28.21
X2.057 Z-28.211
X1.988 Z-28.195
X1.955 Y4.475
X1.924 Y4.488 Z-28.197
X1.898 Y4.508 Z-28.2
X1.878 Y4.534 Z-28.204
X1.866 Y4.564 Z-28.208
X1.861 Y4.596 Z-28.213
X1.866 Y4.629 Z-28.218
X1.878 Y4.659 Z-28.222
X1.898 Y4.685 Z-28.226
X1.924 Y4.704 Z-28.229
X1.955 Y4.717 Z-28.231
X1.988 Y4.721
X1.99
X2.06 Z-28.248
X2.199
X2.852 Z-27.928
X3.429 Z-27.656
X3.705 Z-27.546
X3.993 Z-27.454
X4.329 Z-27.383
X5.08 Z-27.348
X5.855 Z-27.42
X5.997 Z-27.399
X6.222 Z-27.295
X6.692 Z-27.083
X7.761 Z-26.763
X8.238 Z-26.683
X8.639 Z-26.471
X9.265 Z-26.203
X9.701 Z-26.092
X10.189 Z-26.063
X11.441 Z-25.682
X12.045 Z-25.609
X12.678 Z-25.597
X13.791 Z-25.731
X14.171 Z-25.859
X14.74 Z-26.164
X15.738 Z-26.938
X15.952 Z-27.008
X16.062 Z-26.932
X16.498 Z-26.716
X16.559 Z-26.584
X16.759 Z-26.253
X17.107 Z-25.899
X17.493 Z-25.584
X17.879 Z-25.329
X18.623 Z-25.075
X19.127 Z-25.023
X19.691 Z-24.938
X19.714 Z-24.919
X20.035 Z-24.647
X20.56 Z-24.377
X20.991 Z-24.243
X21.265 Z-24.185
X22.087 Z-24.117
X22.867 Z-24.134
X23.205 Z-24.133
X23.521 Z-24.16
X24.03 Z-24.1
X24.467 Z-24.098
X25.278 Z-24.247
X25.88 Z-24.421
X26.477 Z-24.647
X26.697 Z-24.61
X27.388 Z-24.533
X28.497 Z-24.423
X29.349 Z-24.363
X30.339 Z-24.308
X30.962 Z-24.248
X31.627 Z-24.112
X32.607 Z-23.955
X34.367 Z-23.804
X34.371 Z-18.866
X34.432 Z-18.148
X34.557 Z-17.649
X34.78 Z-17.147
X35.5 Z-16.102
X36.08 Z-15.343
X36.386 Z-14.878
X36.687 Z-14.122
X37.008 Z-13.445
X37.403 Z-12.88
X37.97 Z-12.362
X38.479 Z-12.042
X38.906 Z-11.873
X39.313 Z-11.806
X39.761 Z-11.803
X39.792 Z-11.739
X40.107 Z-11.138
X40.336 Z-10.774
X40.817 Z-10.19
X41.222 Z-9.832
X41.792 Z-9.468
X42.656 Z-9.079
X43.044 Z-8.769
X43.458 Z-8.494
X43.864 Z-8.321
X44.323 Z-8.247
X44.761 Z-8.284
X45.146 Z-8.404
X45.551 Z-8.653
X45.77 Z-8.855
X45.935 Z-9.085
X46.046 Z-9.326
X46.142 Z-9.723
X46.201 Z-10.261
X46.262 Z-10.263
X47.144 Z-10.067
X48.005 Z-9.959
X49.046 Z-9.712
X49.638 Z-9.598
X50.212 Z-9.581
X50.781 Z-9.655
X51.247 Z-9.794
X51.663 Z-10.013
X52.083 Z-10.358
X52.483 Z-10.344
X52.879 Z-10.393
X53.505 Z-10.578
X53.895 Z-10.696
X54.17 Z-10.679
X55.128 Z-10.34
X55.672 Z-10.261
X56.001 Z-10.275
X56.313 Z-10.353
X56.752 Z-10.561
X56.82 Z-10.442
X57.198 Z-9.935
X57.546 Z-9.624
X57.978 Z-9.371
X58.367 Z-9.231
X58.953 Z-9.115
X59.951 Z-8.99
X62.215 Z-8.838
X63.867 Z-8.673
X64.84 Z-8.515
X65.475 Z-8.339
X66.69 Z-7.89
X67.198 Z-7.759
X67.622 Z-7.746
X68.098 Z-7.817
X68.524 Z-7.979
X68.934 Z-8.257
X69.236 Z-8.578
X69.444 Z-8.954
X69.537 Z-9.265
X69.608 Z-9.731
X69.619 Z-11.303
X69.706 Z-11.803
X69.811 Z-12.134
X70.418 Z-12.131
X71.571 Z-12.254
X72.64 Z-12.382
X72.872 Z-12.299
X73.454 Z-12.161
X74.093 Z-12.077
X74.858 Z-12.024
X76.273 Z-11.995
X76.459 Z-11.946
X77.113 Z-11.894
X77.611 Z-11.914
X77.949 Z-11.862
X78.54 Z-11.841
X78.862 Z-11.787
X79.977 Z-11.775
X80.837 Z-11.808
X81.296 Z-11.889
X81.572 Z-12.005
X82.332 Z-12.323
X82.662 Z-12.525
X83.052 Z-12.454
X83.389 Z-12.451
X83.705 Z-12.511
X84.14 Z-12.701
X84.45 Z-12.929
X84.694 Z-13.209
X84.826 Z-13.449
X84.921 Z-13.752
X84.957 Z-14.221
X85.482 Z-14.34
X85.781 Z-14.472
X86.899 Z-15.089
X87.159 Z-15.326
X87.244 Z-15.343
X87.423 Z-15.122
X87.776 Z-14.83
X88.09 Z-14.668
X88.511 Z-14.561
X88.921 Z-14.562
X89.317 Z-14.642
X89.602 Z-14.773
X89.844 Z-14.948
X90.07 Z-14.945
X90.647 Z-14.985
X91.462 Z-15.116
X92.587 Z-15.375
X93.366 Z-15.625
X93.817 Z-15.826
X94.211 Z-16.032
X94.986 Z-16.545
X95.511 Z-16.981
X95.978 Z-17.462
X96.377 Z-18.052
X96.532 Z-18.392
X96.719
X97.303 Z-18.408
X97.79 Z-18.484
X98.507 Z-18.665
X99.198 Z-18.932
X101.168 Z-19.866
X102.063 Z-20.217
X103.744 Z-20.712
X104.761 Z-21.046
X105.428 Z-21.353
X105.988 Z-21.678
X106.453 Z-22.003
X106.986 Z-22.488
X107.437 Z-23.073
X107.691 Z-23.515
X107.803 Z-23.761
X108.396 Z-25.296
X108.413 Z-25.305
X109.005 Z-25.258
X109.475 Z-25.293
X109.742 Z-25.257
X110.265 Z-24.855
X110.533 Z-24.688
X110.947 Z-24.549
X112.192 Z-24.343
X112.523 Z-24.358
X113.325 Z-24.529
X113.72 Z-24.691
X114.26 Z-24.717
X114.399 Z-24.695
X114.988 Z-24.697
X115.242 Z-24.685
X116.442 Z-24.796
X119.777 Z-25.063
X120.837 Z-25.073
X121.259 Z-25.149
X122.087 Z-25.138
X123.69 Z-25.143
X124.903 Z-25.279
X126.306 Z-25.27
X127.818 Z-25.314
X128.348 Z-25.379
X128.789 Z-25.499
X129.259 Z-25.466
X129.93 Z-25.48
X130.686 Z-25.584
X131.161 Z-25.705
X131.662 Z-25.907
X132.077 Z-25.933
X132.519 Z-26.041
X133.057 Z-26.215
X133.727 Z-26.592
X134.246 Z-26.994
X134.692 Z-26.713
X135.409 Z-26.405
X135.819 Z-26.299
X136.289 Z-26.117
X136.615 Z-26.044
X137.142 Z-26.019
X137.475 Z-25.993
X138.526 Z-25.979
X139.311 Z-26.099
X139.775 Z-26.217
X140.185 Z-26.441
X140.675 Z-26.305
X141.045 Z-26.155
X141.345 Z-26.081
X141.664 Z-26.071
X141.982 Z-26.124
X142.427 Z-26.304
X142.676 Z-26.482
X142.953 Z-26.783
X143.165 Z-26.86
X143.599 Z-27.062
X143.912 Z-27.286
X144.123 Z-27.501
X144.479 Z-27.451
X144.716 Z-27.45
X145.121 Z-27.529
X145.408 Z-27.658
X145.658 Z-27.835
X145.854 Z-28.039
X145.93 Z-28.09
X146.606 Z-28.476
X146.876 Z-28.323
X147.306 Z-28.184
X147.7 Z-28.148
X147.755 Z-28.133
X147.759 Z-28.131
X147.829 Z-28.115
X147.836
X147.961 Y4.846
X147.836 Y4.971
X147.766 Z-28.131
X147.711 Z-28.147
X147.702
X147.308 Z-28.183
X146.878 Z-28.325
X146.617 Z-28.464
X146.291 Z-28.26
X145.938 Z-28.05
X145.582 Z-27.771
X145.213 Z-27.562
X144.793 Z-27.451
X144.521 Z-27.323
X144.206 Z-27.26
X143.977 Z-27.251
X143.48 Z-26.914
X142.991 Z-26.717
X142.492 Z-26.605
X142.401 Z-26.538
X142.126 Z-26.406
X141.736 Z-26.301
X141.408 Z-26.302
X141.213 Z-26.338
X140.822 Z-26.488
X140.436 Z-26.475
X139.948 Z-26.544
X139.577 Z-26.362
X139.134 Z-26.234
X138.713 Z-26.103
X138.135 Z-26.074
X137.32 Z-26.137
X137.115 Z-26.145
X136.622 Z-26.173
X136.255 Z-26.266
X135.881 Z-26.388
X135.406 Z-26.542
X135.178 Z-26.651
X134.821 Z-26.818
X134.507 Z-27.039
X134.023 Z-26.632
X133.256 Z-26.189
X132.683 Z-25.997
X132.086 Z-25.861
X131.856 Z-25.854
X131.389 Z-25.669
X130.661 Z-25.495
X129.884 Z-25.432
X129.064 Z-25.466
X128.629 Z-25.332
X128.146 Z-25.259
X126.884 Z-25.233
X125.552 Z-25.258
X123.656 Z-25.102
X122.601
X121.542 Z-25.138
X120.887 Z-25.021
X120.017 Z-25.037
X118.693 Z-24.971
X116.324 Z-24.896
X115.161 Z-24.858
X114.626 Z-24.842
X114.309 Z-24.885
X114.103 Z-24.942
X113.908 Z-24.96
X113.467 Z-24.722
X113.123 Z-24.623
X112.496 Z-24.494
X112.222 Z-24.479
X111.836 Z-24.545
X110.923 Z-24.705
X110.568 Z-24.853
X110.158 Z-25.163
X109.989 Z-25.3
X109.578 Z-25.333
X109.13 Z-25.297
X108.514 Z-25.359
X108.051 Z-24.116
X107.814 Z-23.558
X107.584 Z-23.141
X107.217 Z-22.623
X106.893 Z-22.292
X106.653 Z-22.075
X105.894 Z-21.544
X105.288 Z-21.213
X104.541 Z-20.934
X103.523 Z-20.632
X102.45 Z-20.326
X101.404 Z-19.93
X100.014 Z-19.243
X99.186 Z-18.873
X98.57 Z-18.649
X97.931 Z-18.506
X97.522 Z-18.455
X96.937 Z-18.434
X96.82 Z-18.436
X96.631 Z-18.062
X96.276 Z-17.568
X95.854 Z-17.135
X95.123 Z-16.575
X94.367 Z-16.129
X93.69 Z-15.8
X92.835 Z-15.516
X91.708 Z-15.27
X90.808 Z-15.149
X90.075 Z-15.112
X89.779 Z-14.836
X89.514 Z-14.675
X89.216 Z-14.563
X88.898 Z-14.504
X88.561 Z-14.506
X88.192 Z-14.573
X87.749 Z-14.753
X87.429 Z-14.977
X87.186 Z-15.247
X86.775 Z-14.998
X85.483 Z-14.339
X85.043 Z-14.197
X85.005 Z-13.776
X84.853 Z-13.353
X84.661 Z-13.055
X84.388 Z-12.793
X84.058 Z-12.573
X83.611 Z-12.409
X83.176 Z-12.367
X82.804 Z-12.404
X82.401 Z-12.535
X82.057 Z-12.299
X81.529 Z-11.953
X81.231 Z-11.843
X80.22 Z-11.717
X78.93 Z-11.755
X78.048 Z-11.771
X77.577 Z-11.812
X76.578 Z-11.852
X76.284 Z-11.92
X76.075 Z-12.004
X74.008 Z-11.972
X73.007 Z-12.114
X71.889 Z-12.442
X71.132 Z-12.274
X70.546 Z-12.165
X69.776 Z-12.126
X69.635 Z-12.128
X69.496 Z-11.55
X69.479 Z-9.687
X69.401 Z-9.131
X69.247 Z-8.764
X68.904 Z-8.331
X68.643 Z-8.105
X68.231 Z-7.889
X67.763 Z-7.761
X67.276 Z-7.73
X66.893 Z-7.781
X66.463 Z-7.917
X65.574 Z-8.27
X64.789 Z-8.514
X63.653 Z-8.718
X62.235 Z-8.87
X59.548 Z-9.06
X58.883 Z-9.151
X58.336 Z-9.274
X57.813 Z-9.491
X57.37 Z-9.787
X57.038 Z-10.123
X56.75 Z-10.514
X56.455 Z-10.373
X55.983 Z-10.262
X55.509 Z-10.26
X55.113 Z-10.324
X54.245 Z-10.65
X53.924 Z-10.7
X53.138 Z-10.428
X52.654 Z-10.357
X52.401 Z-10.336
X52.187 Z-10.127
X51.805 Z-9.837
X51.381 Z-9.632
X50.83 Z-9.491
X50.339 Z-9.448
X49.655 Z-9.488
X48.875 Z-9.675
X48.271 Z-9.845
X47.355 Z-9.946
X47.025 Z-10.009
X46.365 Z-10.173
X46.291 Z-10.171
X46.211 Z-9.567
X46.112 Z-9.218
X45.942 Z-8.911
X45.701 Z-8.63
X45.397 Z-8.41
X45.038 Z-8.256
X44.72 Z-8.194
X44.265 Z-8.196
X43.909 Z-8.269
X43.489 Z-8.46
X42.975 Z-8.83
X42.685 Z-9.062
X41.824 Z-9.432
X41.265 Z-9.791
X40.849 Z-10.163
X40.403 Z-10.715
X40.197 Z-11.061
X40.047 Z-11.345
X39.782 Z-11.924
X39.289 Z-11.884
X38.827 Z-11.956
X38.4 Z-12.109
X37.937 Z-12.38
X37.5 Z-12.754
X37.116 Z-13.23
X36.831 Z-13.767
X36.599 Z-14.387
X36.451 Z-14.946
X36.284 Z-15.254
X36.02 Z-15.614
X35.578 Z-16.147
X35.368 Z-16.418
X34.914 Z-16.937
X34.672 Z-17.318
X34.493 Z-17.759
X34.405 Z-18.192
X34.36 Z-18.94
X34.345 Z-23.851
X32.216 Z-23.966
X30.941 Z-24.123
X28.939 Z-24.178
X27.806 Z-24.258
X27.509 Z-24.293
X27.216 Z-24.346
X26.565 Z-24.517
X26.241 Z-24.635
X25.621 Z-24.395
X25.029 Z-24.227
X24.379 Z-24.119
X23.681 Z-24.135
X23.292 Z-24.204
X23.132 Z-24.184
X22.705 Z-24.109
X21.725 Z-24.124
X21.146 Z-24.174
X20.493 Z-24.336
X20.093 Z-24.517
X19.695 Z-24.808
X19.527 Z-24.991
X19.036 Z-24.961
X18.662 Z-24.993
X18.154 Z-25.131
X17.698 Z-25.343
X17.176 Z-25.708
X16.688 Z-26.209
X16.364 Z-26.717
X15.958 Z-26.904
X15.83 Z-26.98
X15.654 Z-26.921
X14.684 Z-26.148
X14.129 Z-25.826
X13.828 Z-25.714
X12.989 Z-25.555
X12.342 Z-25.556
X11.625 Z-25.653
X10.949 Z-25.868
X10.466 Z-26.047
X9.685 Z-26.109
X9.186 Z-26.278
X8.569 Z-26.564
X7.825 Z-26.63
X6.755 Z-26.935
X6.406 Z-27.086
X5.943 Z-27.374
X5.819 Z-27.389
X4.653 Z-27.365
X4.168 Z-27.44
X3.596 Z-27.635
X2.2 Z-28.295
X2.062 Z-28.294
X1.992 Z-28.278
X1.96 Y4.975
X1.929 Y4.988 Z-28.28
X1.903 Y5.008 Z-28.282
X1.883 Y5.034 Z-28.285
X1.871 Y5.064 Z-28.288
X1.867 Y5.096 Z-28.292
X1.871 Y5.129 Z-28.296
X1.883 Y5.159 Z-28.299
X1.903 Y5.185 Z-28.302
X1.929 Y5.204 Z-28.305
X1.96 Y5.217 Z-28.306
X1.992 Y5.221 Z-28.307
X1.994
X2.064 Z-28.323
X2.2 Z-28.325
X3.908 Z-27.539
X4.34 Z-27.408
X4.823 Z-27.339
X5.869 Z-27.359
X6.386 Z-27.008
X6.736 Z-26.86
X6.951 Z-26.785
X7.829 Z-26.55
X8.832 Z-26.498
X9.198 Z-26.321
X9.623 Z-26.147
X10.19 Z-26.071
X10.759 Z-25.985
X11.744 Z-25.641
X12.33 Z-25.53
X12.815 Z-25.499
X13.285 Z-25.56
X14.054 Z-25.784
X14.468 Z-26.02
X14.863 Z-26.304
X15.345 Z-26.734
X15.557 Z-26.902
X15.714 Z-26.973
X15.848 Z-26.887
X16.248 Z-26.692
X16.404 Z-26.398
X16.575 Z-26.181
X17.14 Z-25.631
X17.56 Z-25.349
X18.099 Z-25.07
X18.537 Z-24.958
X19.021 Z-24.901
X19.467 Z-24.947
X19.644 Z-24.771
X20.146 Z-24.421
X20.427 Z-24.303
X21.084 Z-24.163
X21.832 Z-24.111
X22.771 Z-24.123
X23.111 Z-24.192
X23.315 Z-24.166
X23.868 Z-24.137
X24.451 Z-24.163
X25.171 Z-24.307
X25.885 Z-24.563
X26.258 Z-24.41
X26.825 Z-24.222
X27.41 Z-24.105
X28.004 Z-24.037
X29.123 Z-23.993
X30.911 Z-24.014
X32.036 Z-23.942
X34.362 Z-23.91
X34.375 Z-18.522
X34.45 Z-17.91
X34.607 Z-17.423
X34.794 Z-17.095
X35.156 Z-16.681
X35.53 Z-16.392
X35.651 Z-16.275
X35.962 Z-15.921
X36.247 Z-15.593
X36.481 Z-15.202
X36.573 Z-14.635
X36.755 Z-13.966
X36.967 Z-13.492
X37.208 Z-13.086
X37.521 Z-12.711
X37.812 Z-12.464
X38.268 Z-12.174
X38.553 Z-12.071
X38.986 Z-11.995
X39.435 Z-11.993
X39.797 Z-12.061
X39.834 Z-11.977
X40.274 Z-10.989
X40.616 Z-10.454
X40.966 Z-10.044
X41.501 Z-9.611
X41.896 Z-9.379
X42.774 Z-9.012
X42.983 Z-8.838
X43.551 Z-8.417
X43.948 Z-8.226
X44.263 Z-8.157
X44.743 Z-8.128
X45.06 Z-8.182
X45.357 Z-8.293
X45.69 Z-8.504
X45.962 Z-8.768
X46.156 Z-9.084
X46.298 Z-9.533
X46.375 Z-10.081
X46.457 Z-10.084
X46.944 Z-9.955
X47.456 Z-9.844
X48.306 Z-9.777
X49.084 Z-9.551
X49.738 Z-9.392
X50.38 Z-9.327
X50.962 Z-9.355
X51.408 Z-9.445
X51.885 Z-9.637
X52.151 Z-9.8
X52.438 Z-10.024
X52.731 Z-10.353
X52.796 Z-10.364
X53.181 Z-10.43
X53.612 Z-10.572
X53.92 Z-10.706
X54.209 Z-10.654
X55.07 Z-10.317
X55.367 Z-10.26
X55.814 Z-10.242
X56.291 Z-10.311
X56.73 Z-10.481
X56.93 Z-10.218
X57.142 Z-9.985
X57.499 Z-9.692
X57.897 Z-9.465
X58.465 Z-9.259
X59.199 Z-9.127
X61.935 Z-8.933
X63.222 Z-8.805
X64.361 Z-8.611
X65.152 Z-8.386
X66.456 Z-7.877
X66.873 Z-7.764
X67.363 Z-7.731
X67.769 Z-7.784
X68.151 Z-7.904
X68.563 Z-8.121
X68.844 Z-8.369
X69.08 Z-8.712
X69.271 Z-9.177
X69.348 Z-9.641
X69.359 Z-11.672
X69.461 Z-12.133
X70.119 Z-12.163
X70.77 Z-12.272
X71.316 Z-12.435
X72.087 Z-12.192
X72.817 Z-12.036
X74.101 Z-11.899
X74.891 Z-11.953
X75.924 Z-12.04
X76.12 Z-11.942
X76.55 Z-11.8
X76.929 Z-11.76
X78.133 Z-11.665
X78.912 Z-11.699
X79.756 Z-11.687
X80.335 Z-11.693
X81.204 Z-11.825
X81.504 Z-11.93
X81.785 Z-12.098
X82.222 Z-12.523
X82.335 Z-12.479
X82.918 Z-12.334
X83.334 Z-12.332
X83.732 Z-12.401
X84.165 Z-12.586
X84.497 Z-12.833
X84.771 Z-13.129
X85.012 Z-13.593
X85.09 Z-13.89
X85.112 Z-14.188
X85.298 Z-14.257
X86.319 Z-14.796
X86.706 Z-14.941
X87.146 Z-15.143
X87.195 Z-15.088
X87.532 Z-14.808
X87.945 Z-14.61
X88.405 Z-14.502
X88.908 Z-14.484
X89.263 Z-14.555
X89.659 Z-14.721
X90.038 Z-15.009
X90.302 Z-15.312
X91.3 Z-15.363
X92.166 Z-15.478
X93.034 Z-15.659
X93.956 Z-15.956
X94.849 Z-16.371
X95.497 Z-16.754
X96.198 Z-17.272
X96.517 Z-17.593
X96.877 Z-18.033
X97.111 Z-18.471
X97.44 Z-18.482
X98.1 Z-18.532
X98.778 Z-18.683
X99.805 Z-19.107
X100.731 Z-19.567
X101.558 Z-19.992
X102.597 Z-20.382
X103.683 Z-20.688
X104.804 Z-20.995
X105.392 Z-21.225
X106.229 Z-21.693
X106.747 Z-22.075
X107.164 Z-22.451
X107.594 Z-22.999
X107.913 Z-23.564
X108.262 Z-24.4
X108.628 Z-25.412
X108.753 Z-25.393
X109.329 Z-25.344
X109.756 Z-25.399
X110.173 Z-25.365
X110.367 Z-25.18
X110.744 Z-24.94
X111.07 Z-24.834
X111.7 Z-24.755
X112.119 Z-24.695
X112.493 Z-24.705
X113.295 Z-24.872
X113.693 Z-25.066
X113.798 Z-25.049
X114.517 Z-24.938
X115.098 Z-24.948
X115.398 Z-25.019
X115.775 Z-24.949
X116.182 Z-24.929
X116.603 Z-25.007
X116.986 Z-24.988
X117.548 Z-24.99
X118.794 Z-24.986
X119.99 Z-25.
X121.189 Z-25.013
X121.499 Z-25.069
X122.362 Z-25.081
X123.206 Z-25.054
X126.192 Z-25.218
X127.532 Z-25.183
X128.544 Z-25.225
X129.158 Z-25.404
X129.284 Z-25.443
X130.021 Z-25.404
X130.703 Z-25.439
X131.39 Z-25.571
X132.049 Z-25.804
X132.634 Z-25.921
X133.187 Z-26.072
X133.633 Z-26.262
X134.186 Z-26.591
X134.565 Z-26.905
X134.783 Z-27.109
X134.999 Z-26.956
X135.592 Z-26.652
X136.071 Z-26.498
X136.282 Z-26.419
X136.655 Z-26.345
X137.175 Z-26.338
X137.954 Z-26.236
X138.62 Z-26.25
X138.927 Z-26.33
X139.492 Z-26.649
X140.089 Z-26.417
X140.397 Z-26.353
X140.816 Z-26.358
X141.205 Z-26.454
X141.539 Z-26.642
X141.598 Z-26.65
X141.931 Z-26.561
X142.441 Z-26.54
X142.917 Z-26.632
X143.409 Z-26.837
X143.826 Z-27.089
X144.182 Z-27.076
X144.579 Z-27.149
X144.862 Z-27.278
X145.093 Z-27.453
X145.184 Z-27.495
X145.743 Z-27.788
X146.082 Z-28.095
X146.629 Z-28.455
X146.827 Z-28.349
X147.309 Z-28.182
X147.703 Z-28.146
X147.719 Z-28.145
X147.775 Z-28.129
X147.845 Z-28.113
X147.97 Y5.346
X147.845 Y5.471
X147.837
X147.766 Z-28.129
X147.76 Z-28.132
X147.705 Z-28.148
X147.293 Z-28.186
X146.793 Z-28.363
X146.643 Z-28.445
X146.17 Z-28.106
X145.814 Z-27.76
X145.256 Z-27.432
X144.996 Z-27.221
X144.723 Z-27.074
X144.418 Z-26.985
X144.092 Z-26.953
X143.702 Z-26.99
X143.235 Z-26.73
X142.804 Z-26.58
X142.358 Z-26.514
X141.994 Z-26.518
X141.514 Z-26.493
X141.055 Z-26.308
X140.65 Z-26.258
X140.249 Z-26.285
X139.958 Z-26.372
X139.462 Z-26.637
X138.966 Z-26.619
X138.686 Z-26.509
X138.195 Z-26.469
X137.689 Z-26.513
X137.324 Z-26.593
X137.07 Z-26.591
X136.743 Z-26.569
X136.427 Z-26.619
X135.846 Z-26.798
X135.537 Z-26.943
X135.112 Z-27.272
X134.742 Z-26.876
X134.216 Z-26.463
X133.728 Z-26.203
X133.117 Z-25.975
X132.64 Z-25.872
X132.438 Z-25.845
X131.735 Z-25.575
X131.096 Z-25.433
X130.515 Z-25.384
X129.766
X129.599 Z-25.391
X128.954 Z-25.266
X128.577 Z-25.167
X127.781 Z-25.137
X126.86 Z-25.168
X123.357 Z-25.044
X123.019 Z-25.045
X121.755 Z-24.964
X121.034 Z-24.985
X119.918 Z-24.972
X117.57 Z-25.083
X117.166 Z-25.074
X116.883 Z-25.034
X116.555 Z-24.908
X116.238 Z-24.848
X115.839 Z-24.869
X115.306 Z-25.011
X115.261 Z-25.022
X114.862 Z-24.972
X114.234 Z-25.008
X113.437 Z-25.159
X113.37 Z-25.176
X113.083 Z-25.081
X112.597 Z-24.994
X111.556 Z-24.988
X110.947 Z-25.082
X110.653 Z-25.217
X110.403 Z-25.43
X109.848 Z-25.466
X109.462 Z-25.409
X109.04 Z-25.418
X108.733 Z-25.469
X108.288 Z-24.247
X108.036 Z-23.642
X107.661 Z-22.959
X107.223 Z-22.408
X106.932 Z-22.151
X106.48 Z-21.8
X105.703 Z-21.356
X104.832 Z-21.006
X103.093 Z-20.583
X102.387 Z-20.347
X101.488 Z-19.976
X100.055 Z-19.208
X99.298 Z-18.881
X98.68 Z-18.664
X97.996 Z-18.535
X97.416 Z-18.52
X97.156 Z-18.059
X96.784 Z-17.617
X96.332 Z-17.221
X95.799 Z-16.855
X95.074 Z-16.461
X94.169 Z-16.082
X93.702 Z-15.929
X93.065 Z-15.768
X92.417 Z-15.647
X91.457 Z-15.548
X90.494 Z-15.511
X90.21 Z-15.148
X89.89 Z-14.866
X89.584 Z-14.681
X89.17 Z-14.532
X88.726 Z-14.474
X88.317 Z-14.504
X87.862 Z-14.603
X87.58 Z-14.717
X87.193 Z-14.984
X87.089 Z-15.069
X86.629 Z-14.916
X86.4 Z-14.853
X86.055 Z-14.692
X85.272 Z-14.249
X85.171 Z-14.208
X85.105 Z-13.731
X84.944 Z-13.35
X84.699 Z-13.001
X84.419 Z-12.744
X84.049 Z-12.517
X83.637 Z-12.366
X83.316 Z-12.309
X82.887 Z-12.308
X82.347 Z-12.407
X82.132 Z-12.476
X81.91 Z-12.215
X81.67 Z-12.027
X81.391 Z-11.885
X80.92 Z-11.768
X80.429 Z-11.695
X79.994 Z-11.663
X79.006 Z-11.649
X78.248 Z-11.575
X77.556 Z-11.606
X77.11 Z-11.68
X76.477 Z-11.79
X76.051 Z-11.949
X75.818 Z-12.09
X75.183 Z-11.993
X74.568 Z-11.896
X73.889 Z-11.863
X72.933 Z-11.918
X72.022 Z-12.059
X70.793 Z-12.381
X70.13 Z-12.221
X69.438 Z-12.162
X69.288 Z-12.164
X69.226 Z-11.874
X69.209 Z-9.551
X69.114 Z-9.092
X68.923 Z-8.645
X68.697 Z-8.355
X68.385 Z-8.093
X67.946 Z-7.874
X67.516 Z-7.763
X67.216 Z-7.735
X66.734 Z-7.777
X66.213 Z-7.929
X64.994 Z-8.426
X64.208 Z-8.659
X63.113 Z-8.861
X61.697 Z-9.
X58.923 Z-9.191
X58.555 Z-9.258
X58.263 Z-9.331
X57.706 Z-9.563
X57.197 Z-9.919
X56.788 Z-10.354
X56.707 Z-10.453
X56.244 Z-10.29
X55.769 Z-10.238
X55.232 Z-10.281
X54.729 Z-10.446
X54.089 Z-10.687
X53.957 Z-10.711
X53.426 Z-10.493
X53.086 Z-10.415
X52.796 Z-10.031
X52.451 Z-9.734
X52.069 Z-9.5
X51.667 Z-9.341
X51.192 Z-9.243
X50.503 Z-9.215
X49.962 Z-9.272
X49.237 Z-9.449
X48.394 Z-9.706
X47.57 Z-9.74
X47.275 Z-9.795
X46.491 Z-9.992
X46.456 Z-9.99
X46.373 Z-9.447
X46.236 Z-9.026
X46.06 Z-8.736
X45.858 Z-8.521
X45.537 Z-8.305
X45.17 Z-8.145
X44.856 Z-8.078
X44.441 Z-8.085
X43.921 Z-8.209
X43.578 Z-8.385
X42.8 Z-8.994
X41.892 Z-9.36
X41.379 Z-9.683
X40.975 Z-10.036
X40.599 Z-10.495
X40.338 Z-10.929
X40.143 Z-11.361
X39.808 Z-12.203
X39.333 Z-12.051
X39.008 Z-12.021
X38.524 Z-12.088
X38.238 Z-12.188
X37.811 Z-12.456
X37.491 Z-12.731
X37.204 Z-13.099
X36.892 Z-13.666
X36.701 Z-14.217
X36.607 Z-14.746
X36.576 Z-15.449
X36.449 Z-15.689
X36.25 Z-15.946
X35.942 Z-16.215
X35.495 Z-16.431
X35.126 Z-16.714
X34.811 Z-17.072
X34.618 Z-17.388
X34.446 Z-17.912
X34.384 Z-18.535
X34.372 Z-23.984
X31.726 Z-23.903
X31.038 Z-23.929
X28.909 Z-23.835
X28.475 Z-23.874
X27.998 Z-23.864
X27.531 Z-23.916
X26.725 Z-24.062
X25.84 Z-24.364
X25.549 Z-24.491
X24.728 Z-24.242
X23.996 Z-24.152
X23.254 Z-24.148
X22.913 Z-24.181
X22.476 Z-24.115
X21.269 Z-24.128
X20.648 Z-24.223
X20.183 Z-24.372
X19.689 Z-24.665
X19.419 Z-24.91
X18.97 Z-24.866
X18.531 Z-24.909
X17.99 Z-25.071
X17.612 Z-25.249
X17.349 Z-25.398
X17.093 Z-25.578
X16.86 Z-25.77
X16.449 Z-26.183
X16.235 Z-26.508
X16.163 Z-26.657
X15.601 Z-26.96
X15.173 Z-26.596
X14.775 Z-26.24
X14.167 Z-25.837
X13.797 Z-25.692
X13.16 Z-25.53
X12.727 Z-25.476
X12.095 Z-25.558
X11.387 Z-25.797
X10.859 Z-25.973
X10.294 Z-26.072
X9.82 Z-26.154
X9.386 Z-26.294
X9.047 Z-26.447
X7.96 Z-26.494
X7.09 Z-26.697
X6.518 Z-26.898
X5.924 Z-27.277
X5.8 Z-27.34
X5.569 Z-27.335
X5.17 Z-27.278
X4.761 Z-27.294
X4.173 Z-27.445
X3.343 Z-27.839
X2.63 Z-28.181
X2.247 Z-28.33
X2.201 Z-28.335
X2.114 Z-28.319
X2.044 Z-28.303
X2.041
X1.916 Y5.596
X2.041 Y5.721
X2.111 Z-28.319
X2.123 Z-28.325
X2.2 Z-28.341
X2.358 Z-28.334
X2.882 Z-28.111
X3.431 Z-27.819
X4.188 Z-27.432
X4.667 Z-27.281
X5.073 Z-27.242
X5.489 Z-27.281
X5.682 Z-27.332
X5.782 Z-27.321
X6.516 Z-26.867
X6.877 Z-26.713
X7.917 Z-26.479
X8.855 Z-26.407
X9.331 Z-26.395
X9.861 Z-26.197
X10.456 Z-26.084
X11.292 Z-25.88
X12.163 Z-25.555
X12.63 Z-25.497
X13.043 Z-25.516
X13.815 Z-25.704
X14.199 Z-25.867
X14.7 Z-26.21
X15.226 Z-26.673
X15.543 Z-26.905
X16.095 Z-26.621
X16.306 Z-26.249
X16.612 Z-25.891
X16.957 Z-25.597
X17.333 Z-25.337
X17.889 Z-25.078
X18.465 Z-24.904
X18.968 Z-24.856
X19.379 Z-24.895
X19.427 Z-24.849
X19.722 Z-24.597
X20.115 Z-24.366
X20.473 Z-24.238
X21.255 Z-24.128
X22.316
X22.766 Z-24.188
X23.02 Z-24.148
X23.899 Z-24.15
X24.53 Z-24.238
X25.229 Z-24.446
X26.082 Z-24.093
X26.979 Z-23.872
X27.788 Z-23.75
X28.497 Z-23.761
X29.13 Z-23.723
X31.3 Z-23.871
X31.746 Z-23.869
X34.392 Z-24.08
X34.395 Z-18.53
X34.411 Z-18.231
X34.526 Z-17.624
X34.678 Z-17.266
X34.974 Z-16.869
X35.267 Z-16.594
X35.715 Z-16.311
X35.996 Z-16.188
X36.606 Z-16.022
X36.642 Z-15.967
X36.648 Z-14.916
X36.703 Z-14.368
X36.831 Z-13.874
X37.096 Z-13.28
X37.406 Z-12.824
X37.688 Z-12.538
X38.008 Z-12.334
X38.264 Z-12.201
X38.656 Z-12.084
X39.073 Z-12.047
X39.393 Z-12.091
X39.848 Z-12.261
X40.029 Z-11.78
X40.33 Z-11.017
X40.475 Z-10.729
X40.647 Z-10.45
X41.015 Z-9.989
X41.381 Z-9.666
X41.894 Z-9.34
X42.894 Z-8.941
X43.588 Z-8.38
X43.965 Z-8.183
X44.433 Z-8.041
X44.88 Z-8.019
X45.199 Z-8.068
X45.635 Z-8.246
X45.881 Z-8.423
X46.179 Z-8.758
X46.324 Z-9.022
X46.467 Z-9.436
X46.536 Z-9.898
X46.543 Z-9.897
X47.44 Z-9.687
X47.781 Z-9.637
X48.496 Z-9.636
X49.555 Z-9.306
X49.989 Z-9.198
X50.642 Z-9.108
X51.271 Z-9.12
X51.756 Z-9.193
X52.211 Z-9.348
X52.624 Z-9.587
X52.859 Z-9.766
X53.202 Z-10.15
X53.419 Z-10.511
X53.987 Z-10.722
X54.674 Z-10.468
X55.248 Z-10.282
X55.752 Z-10.239
X56.304 Z-10.295
X56.681 Z-10.436
X56.92 Z-10.161
X57.151 Z-9.939
X57.653 Z-9.589
X58.211 Z-9.358
X58.797 Z-9.236
X61.778 Z-9.058
X62.856 Z-8.949
X63.981 Z-8.739
X64.826 Z-8.479
X66.052 Z-7.971
X66.513 Z-7.821
X67.039 Z-7.755
X67.528 Z-7.803
X68.023 Z-7.971
X68.389 Z-8.199
X68.656 Z-8.46
X68.855 Z-8.771
X69.024 Z-9.237
X69.076 Z-9.615
X69.09 Z-12.114
X69.111 Z-12.216
X69.152 Z-12.214
X69.775 Z-12.252
X70.324 Z-12.371
X70.7 Z-12.224
X71.753 Z-11.997
X72.607 Z-11.871
X73.985 Z-11.826
X74.687 Z-11.921
X75.749 Z-12.147
X75.886 Z-12.044
X76.295 Z-11.839
X76.871 Z-11.677
X77.344 Z-11.555
X78.092 Z-11.519
X78.767 Z-11.578
X80.682 Z-11.702
X81.154 Z-11.795
X81.497 Z-11.931
X81.845 Z-12.161
X82.044 Z-12.369
X82.127 Z-12.415
X82.174 Z-12.402
X82.628 Z-12.31
X83.185 Z-12.305
X83.624 Z-12.382
X84.149 Z-12.585
X84.541 Z-12.846
X84.8 Z-13.123
X85.071 Z-13.558
X85.172 Z-13.816
X85.255 Z-14.253
X85.682 Z-14.505
X86.256 Z-14.834
X87.007 Z-15.023
X87.153 Z-14.923
X87.688 Z-14.631
X87.978 Z-14.548
X88.451 Z-14.498
X88.839 Z-14.503
X89.319 Z-14.597
X89.825 Z-14.825
X90.254 Z-15.155
X90.551 Z-15.502
X90.754 Z-15.509
X91.234 Z-15.596
X91.546 Z-15.73
X92.074 Z-15.756
X92.896 Z-15.846
X93.785 Z-16.021
X94.73 Z-16.316
X95.49 Z-16.628
X96.059 Z-16.918
X96.733 Z-17.353
X97.089 Z-17.676
X97.456 Z-18.105
X97.735 Z-18.577
X98.34 Z-18.631
X99.134 Z-18.834
X100.05 Z-19.206
X101.561 Z-20.069
X102.598 Z-20.504
X103.343 Z-20.733
X104.591 Z-20.983
X105.364 Z-21.224
X105.823 Z-21.402
X106.187 Z-21.575
X106.795 Z-21.959
X107.174 Z-22.268
X107.393 Z-22.49
X107.679 Z-22.861
X108.007 Z-23.438
X108.321 Z-24.138
X108.833 Z-25.538
X109.101 Z-25.495
X109.516 Z-25.485
X109.911 Z-25.564
X110.246 Z-25.533
X110.655 Z-25.549
X110.762 Z-25.499
X111.026 Z-25.365
X111.485 Z-25.294
X112.626 Z-25.366
X112.782 Z-25.321
X113.202 Z-25.279
X113.365 Z-25.248
X113.852 Z-25.127
X114.681 Z-25.049
X115.109 Z-25.076
X115.286 Z-24.988
X115.866 Z-24.817
X116.201 Z-24.8
X116.522 Z-24.849
X116.879 Z-24.968
X117.153 Z-25.122
X117.51 Z-25.219
X117.585 Z-25.224
X119.689 Z-24.979
X120.215 Z-24.915
X120.778 Z-24.958
X121.076 Z-24.89
X121.792 Z-24.858
X122.373 Z-24.915
X123.019 Z-24.962
X123.671 Z-25.036
X125.611 Z-25.06
X126.962 Z-25.1
X128.337 Z-25.109
X128.821 Z-25.179
X129.627 Z-25.257
X130.105 Z-25.359
X130.861 Z-25.364
X131.392 Z-25.423
X132.069 Z-25.583
X132.776 Z-25.858
X133.535 Z-26.037
X134.138 Z-26.294
X134.541 Z-26.551
X134.978 Z-26.91
X135.243 Z-27.199
X135.435 Z-27.451
X135.629 Z-27.246
X135.871 Z-27.107
X136.244 Z-26.924
X136.759 Z-26.811
X137.172 Z-26.837
X137.478 Z-26.827
X137.96 Z-26.819
X138.209 Z-26.791
X138.402 Z-26.806
X138.625 Z-26.717
X138.97 Z-26.643
X139.434 Z-26.644
X139.592 Z-26.528
X139.957 Z-26.323
X140.247 Z-26.238
X140.733 Z-26.203
X141.057 Z-26.236
X141.357 Z-26.329
X141.434 Z-26.33
X141.931 Z-26.364
X142.634 Z-26.557
X142.762 Z-26.587
X143.253 Z-26.756
X143.588 Z-26.946
X143.959 Z-26.871
X144.287 Z-26.881
X144.604 Z-26.956
X144.983 Z-27.126
X145.268 Z-27.349
X145.567 Z-27.509
X145.938 Z-27.788
X146.238 Z-28.121
X146.657 Z-28.435
X146.915 Z-28.307
X147.368 Z-28.172
X147.706 Z-28.15
X147.765 Z-28.134
X147.772 Z-28.13
X147.842 Z-28.114
X147.967 Y5.846
X147.842 Y5.971
X147.831
X147.761 Z-28.13
X147.705 Z-28.146
X147.311 Z-28.181
X146.88 Z-28.321
X146.671 Z-28.424
X146.251 Z-28.099
X145.936 Z-27.741
X145.586 Z-27.457
X145.307 Z-27.316
X145.033 Z-27.105
X144.677 Z-26.937
X144.284 Z-26.836
X143.883 Z-26.833
X143.687 Z-26.864
X143.354 Z-26.825
X142.577 Z-26.464
X141.938 Z-26.237
X141.382 Z-26.191
X141.156 Z-26.214
X140.79 Z-26.161
X140.312 Z-26.211
X139.881 Z-26.349
X139.613 Z-26.506
X139.432 Z-26.647
X139.108 Z-26.645
X138.812 Z-26.703
X138.373 Z-26.883
X138.125 Z-27.05
X137.762 Z-27.008
X137.26 Z-27.074
X137.035 Z-27.139
X136.646 Z-27.056
X136.232 Z-27.06
X135.918 Z-27.13
X135.524 Z-27.324
X135.164 Z-26.915
X134.811 Z-26.614
X134.337 Z-26.303
X133.831 Z-26.066
X133.087 Z-25.869
X132.464 Z-25.617
X131.831 Z-25.442
X131.18 Z-25.345
X130.434 Z-25.339
X129.724 Z-25.134
X129.059 Z-25.094
X126.028 Z-25.013
X123.946 Z-25.036
X123.323 Z-24.906
X122.437 Z-24.854
X122.107 Z-24.777
X121.781 Z-24.759
X121.009 Z-24.841
X120.713 Z-24.924
X120.179 Z-24.901
X119.7 Z-24.975
X119.411 Z-25.066
X118.384 Z-25.237
X117.727 Z-25.38
X117.651 Z-25.392
X117.476 Z-25.306
X117.167 Z-25.087
X116.719 Z-24.884
X116.336 Z-24.8
X116.008 Z-24.791
X115.636 Z-24.857
X115.213 Z-25.029
X114.948 Z-25.175
X114.159 Z-25.185
X113.519 Z-25.306
X113.212 Z-25.389
X112.908 Z-25.41
X112.597 Z-25.498
X112.053 Z-25.719
X111.782 Z-25.682
X111.458 Z-25.622
X111.121 Z-25.658
X110.925 Z-25.695
X110.292 Z-25.667
X109.965 Z-25.672
X109.677 Z-25.59
X109.31 Z-25.568
X108.93 Z-25.614
X108.315 Z-23.96
X107.966 Z-23.22
X107.694 Z-22.76
X107.343 Z-22.33
X106.786 Z-21.881
X106.582 Z-21.746
X106.3 Z-21.592
X105.69 Z-21.348
X104.516 Z-21.045
X103.97 Z-20.968
X103.063 Z-20.775
X102.744 Z-20.666
X102.336 Z-20.486
X101.986 Z-20.361
X101.352 Z-20.035
X100.374 Z-19.424
X99.879 Z-19.165
X99.138 Z-18.874
X98.388 Z-18.706
X98.087 Z-18.681
X97.787 Z-18.177
X97.483 Z-17.813
X96.907 Z-17.313
X96.125 Z-16.87
X95.297 Z-16.518
X94.259 Z-16.207
X93.371 Z-16.032
X92.634 Z-15.944
X91.851 Z-15.909
X91.539 Z-15.685
X91.096 Z-15.494
X90.781 Z-15.428
X90.538 Z-15.413
X90.282 Z-15.16
X89.991 Z-14.951
X89.562 Z-14.733
X88.974 Z-14.566
X88.525 Z-14.522
X88.019 Z-14.542
X87.609 Z-14.657
X87.162 Z-14.849
X86.928 Z-15.008
X86.275 Z-14.889
X85.737 Z-14.588
X85.315 Z-14.307
X85.282 Z-14.017
X85.154 Z-13.637
X84.914 Z-13.251
X84.687 Z-12.987
X84.451 Z-12.789
X84.069 Z-12.584
X83.411 Z-12.366
X82.928 Z-12.293
X82.388 Z-12.313
X82.087 Z-12.357
X81.989 Z-12.314
X81.786 Z-12.118
X81.437 Z-11.904
X80.926 Z-11.719
X80.521 Z-11.666
X78.413 Z-11.508
X77.991 Z-11.479
X77.326 Z-11.522
X76.706 Z-11.636
X76.33 Z-11.74
X75.89 Z-11.958
X75.617 Z-12.194
X74.565 Z-11.908
X73.957 Z-11.827
X72.712 Z-11.812
X71.971 Z-11.876
X70.982 Z-12.037
X70.524 Z-12.156
X69.886 Z-12.378
X69.318 Z-12.296
X68.937 Z-12.287
X68.921 Z-9.467
X68.842 Z-9.098
X68.674 Z-8.703
X68.508 Z-8.454
X68.242 Z-8.203
X67.837 Z-7.968
X67.454 Z-7.844
X67.051 Z-7.791
X66.682 Z-7.804
X66.17 Z-7.913
X64.63 Z-8.561
X63.952 Z-8.782
X63.078 Z-8.981
X62.096 Z-9.109
X59.43 Z-9.259
X58.533 Z-9.316
X58.06 Z-9.436
X57.638 Z-9.602
X57.103 Z-9.961
X56.77 Z-10.293
X56.64 Z-10.429
X56.329 Z-10.318
X55.852 Z-10.255
X55.39 Z-10.265
X54.973 Z-10.362
X53.98 Z-10.74
X53.752 Z-10.665
X53.515 Z-10.168
X53.29 Z-9.873
X52.785 Z-9.436
X52.288 Z-9.184
X52.177 Z-9.144
X51.744 Z-9.037
X51.077 Z-8.989
X50.484 Z-9.039
X49.757 Z-9.201
X48.617 Z-9.562
X47.898 Z-9.544
X47.31 Z-9.646
X46.622 Z-9.805
X46.529 Z-9.282
X46.389 Z-8.912
X46.148 Z-8.57
X45.81 Z-8.278
X45.542 Z-8.123
X45.24 Z-8.018
X44.921 Z-7.966
X44.583 Z-7.978
X44.154 Z-8.082
X43.689 Z-8.322
X43.485 Z-8.473
X42.96 Z-8.907
X42.349 Z-9.132
X41.794 Z-9.373
X41.382 Z-9.65
X41.057 Z-9.941
X40.856 Z-10.173
X40.676 Z-10.429
X40.513 Z-10.701
X40.37 Z-10.99
X40.156 Z-11.553
X39.876 Z-12.314
X39.512 Z-12.166
X39.153 Z-12.094
X38.692 Z-12.11
X38.255 Z-12.222
X37.785 Z-12.479
X37.596 Z-12.631
X37.33 Z-12.952
X37.112 Z-13.276
X36.863 Z-13.87
X36.737 Z-14.432
X36.71 Z-14.759
X36.696 Z-15.982
X36.052 Z-16.157
X35.589 Z-16.376
X35.197 Z-16.655
X34.91 Z-16.945
X34.65 Z-17.352
X34.503 Z-17.784
X34.423 Z-18.244
X34.416 Z-24.087
X34.218 Z-24.174
X31.882 Z-23.87
X31.034 Z-23.814
X29.319 Z-23.637
X28.756 Z-23.66
X28.577 Z-23.676
X27.795 Z-23.658
X27.29 Z-23.719
X26.266 Z-23.911
X25.285 Z-24.271
X24.925 Z-24.4
X24.242 Z-24.2
X23.751 Z-24.151
X22.997 Z-24.156
X22.598 Z-24.211
X22.293 Z-24.169
X21.788 Z-24.135
X20.987 Z-24.149
X20.357 Z-24.263
X20.07 Z-24.365
X19.648 Z-24.632
X19.357 Z-24.901
X19.007 Z-24.862
X18.4 Z-24.906
X17.744 Z-25.102
X17.36 Z-25.265
X17.096 Z-25.414
X16.726 Z-25.689
X16.342 Z-26.073
X16.043 Z-26.524
X15.989 Z-26.628
X15.502 Z-26.859
X15.292 Z-26.559
X14.96 Z-26.245
X14.631 Z-26.01
X14.342 Z-25.894
X14.043 Z-25.837
X13.295 Z-25.6
X12.974 Z-25.533
X12.559 Z-25.542
X12.035 Z-25.645
X11.3 Z-25.914
X9.918 Z-26.267
X9.555 Z-26.387
X9.094 Z-26.356
X8.397 Z-26.418
X7.442 Z-26.573
X6.838 Z-26.706
X6.489 Z-26.864
X5.748 Z-27.31
X5.664 Z-27.323
X5.229 Z-27.246
X4.707 Z-27.28
X4.241 Z-27.42
X3.731 Z-27.678
X2.931 Z-28.121
X2.404 Z-28.341
X2.198 Z-28.348
X2.122 Z-28.332
X2.052 Z-28.316
X2.027
X1.902 Y6.096
X2.027 Y6.221
X2.097 Z-28.332
X2.121 Z-28.343
X2.196 Z-28.36
X2.342 Z-28.355
X2.549 Z-28.231
X2.954 Z-28.027
X3.474 Z-27.829
X4.144 Z-27.511
X4.714 Z-27.314
X5.2 Z-27.27
X5.501 Z-27.306
X5.691 Z-27.263
X6.233 Z-26.964
X6.854 Z-26.706
X8.568 Z-26.382
X9.075 Z-26.351
X9.661 Z-26.375
X11.225 Z-25.966
X11.444 Z-25.921
X12.109 Z-25.704
X12.573 Z-25.61
X12.904 Z-25.595
X13.361 Z-25.676
X13.712 Z-25.656
X14.194 Z-25.69
X14.567 Z-25.785
X14.836 Z-25.932
X15.277 Z-26.313
X15.606 Z-26.753
X15.888 Z-26.622
X16.122 Z-26.227
X16.381 Z-25.903
X16.674 Z-25.638
X17.118 Z-25.339
X17.666 Z-25.093
X18.296 Z-24.923
X18.949 Z-24.889
X19.324 Z-24.931
X19.38 Z-24.866
X19.69 Z-24.594
X20.091 Z-24.358
X20.413 Z-24.253
X20.985 Z-24.155
X21.829 Z-24.157
X22.443 Z-24.237
X22.529 Z-24.233
X23.294 Z-24.152
X23.712 Z-24.174
X24.2 Z-24.239
X24.668 Z-24.366
X25.649 Z-24.022
X26.512 Z-23.783
X27.541 Z-23.619
X28.047 Z-23.599
X28.568 Z-23.62
X29.103 Z-23.578
X30.312 Z-23.678
X31.519 Z-23.85
X31.938 Z-23.879
X34.033 Z-24.264
X34.452 Z-24.049
X34.463 Z-18.142
X34.6 Z-17.545
X34.786 Z-17.146
X34.976 Z-16.876
X35.311 Z-16.564
X35.733 Z-16.281
X36.206 Z-16.084
X36.773 Z-15.925
Z-14.637
X36.791 Z-14.401
X36.911 Z-13.848
X37.107 Z-13.371
X37.383 Z-12.932
X37.625 Z-12.647
X37.846 Z-12.476
X38.284 Z-12.234
X38.63 Z-12.14
X39.186 Z-12.114
X39.544 Z-12.188
X39.909 Z-12.359
X40.413 Z-10.949
X40.723 Z-10.371
X41.079 Z-9.914
X41.42 Z-9.603
X41.875 Z-9.309
X42.427 Z-9.081
X43.038 Z-8.871
X43.577 Z-8.405
X43.83 Z-8.219
X44.249 Z-8.031
X44.614 Z-7.936
X45.017 Z-7.926
X45.397 Z-7.988
X45.77 Z-8.149
X46.087 Z-8.385
X46.344 Z-8.658
X46.494 Z-8.901
X46.621 Z-9.244
X46.704 Z-9.712
X47.171 Z-9.613
X47.755 Z-9.481
X48.092 Z-9.452
X48.744 Z-9.492
X49.956 Z-9.096
X50.684 Z-8.934
X51.263 Z-8.878
X51.892 Z-8.927
X52.437 Z-9.069
X52.873 Z-9.267
X53.232 Z-9.52
X53.556 Z-9.836
X53.837 Z-10.265
X54.034 Z-10.74
X54.623 Z-10.498
X55.252 Z-10.305
X55.668 Z-10.267
X56.225 Z-10.326
X56.615 Z-10.446
X57.004 Z-10.043
X57.433 Z-9.737
X57.953 Z-9.502
X58.504 Z-9.376
X59.616 Z-9.328
X61.675 Z-9.231
X62.662 Z-9.128
X63.627 Z-8.925
X64.529 Z-8.624
X65.82 Z-8.056
X66.395 Z-7.867
X66.797 Z-7.834
X67.208 Z-7.863
X67.67 Z-7.99
X67.95 Z-8.131
X68.252 Z-8.362
X68.489 Z-8.651
X68.638 Z-8.956
X68.768 Z-9.507
X68.782 Z-12.381
X68.947
X69.41 Z-12.423
X69.655 Z-12.314
X71.177 Z-11.895
X72.121 Z-11.81
X72.768 Z-11.781
X73.749 Z-11.826
X74.723 Z-11.995
X75.432 Z-12.218
X75.574 Z-12.053
X75.823 Z-11.849
X76.1 Z-11.708
X76.604 Z-11.559
X77.418 Z-11.493
X78.198 Z-11.473
X79.774 Z-11.582
X80.602 Z-11.667
X80.996 Z-11.742
X81.569 Z-12.005
X81.905 Z-12.266
X82.022 Z-12.303
X82.317 Z-12.286
X82.948 Z-12.31
X83.546 Z-12.451
X84.234 Z-12.698
X84.626 Z-12.943
X84.892 Z-13.208
X85.173 Z-13.619
X85.302 Z-13.981
X85.363 Z-14.387
X85.656 Z-14.586
X86.2 Z-14.915
X86.819 Z-15.02
X87.022 Z-14.879
X87.511 Z-14.672
X88.057 Z-14.558
X88.686 Z-14.582
X89.249 Z-14.691
X89.777 Z-14.862
X90.207 Z-15.086
X90.534 Z-15.366
X90.691 Z-15.378
X91.069 Z-15.441
X91.451 Z-15.593
X91.832 Z-15.866
X92.038 Z-16.09
X92.575 Z-16.095
X93.456 Z-16.143
X94.233 Z-16.26
X94.797 Z-16.38
X95.678 Z-16.636
X96.509 Z-16.975
X97.107 Z-17.31
X97.708 Z-17.775
X98.153 Z-18.281
X98.501 Z-18.812
X99.23 Z-18.973
X99.916 Z-19.243
X100.375 Z-19.498
X101.091 Z-19.98
X101.515 Z-19.995
X101.915 Z-20.066
X102.382 Z-20.215
X102.964 Z-20.503
X103.77 Z-21.073
X104.43 Z-21.159
X105.53 Z-21.334
X106.121 Z-21.491
X106.573 Z-21.683
X106.957 Z-21.919
X107.453 Z-22.341
X107.807 Z-22.803
X108.045 Z-23.239
X108.412 Z-24.061
X109.032 Z-25.704
X109.132 Z-25.688
X109.628 Z-25.691
X110.024 Z-25.798
X110.892 Z-25.824
X111.417 Z-25.886
X111.825 Z-26.041
X111.866 Z-26.018
X112.579 Z-25.695
X112.869 Z-25.593
X113.182 Z-25.56
X113.592 Z-25.456
X114.216 Z-25.329
X114.837 Z-25.326
X115.159 Z-25.09
X115.501 Z-24.927
X115.863 Z-24.821
X116.198 Z-24.801
X116.502 Z-24.841
X116.982 Z-24.99
X117.365 Z-25.213
X117.753 Z-25.585
X118.108 Z-25.491
X118.391 Z-25.375
X118.986 Z-25.245
X119.341 Z-25.019
X119.573 Z-24.932
X119.944 Z-24.864
X120.59 Z-24.915
X120.818 Z-24.843
X121.615 Z-24.705
X122.069 Z-24.704
X122.552 Z-24.827
X123.043
X123.697 Z-24.916
X124.078 Z-25.036
X124.33 Z-25.047
X125.652 Z-24.987
X129.209 Z-24.991
X129.863 Z-25.053
X130.758 Z-25.321
X131.313 Z-25.328
X132.167 Z-25.451
X132.953 Z-25.685
X133.525 Z-25.938
X133.66 Z-25.967
X134.163 Z-26.12
X134.595 Z-26.352
X135.126 Z-26.723
X135.575 Z-27.175
X135.665 Z-27.135
X136.054 Z-27.003
X136.482 Z-26.964
X136.91 Z-27.006
X137.21 Z-27.109
X137.661 Z-27.037
X138.155 Z-27.062
X138.457 Z-26.837
X138.846 Z-26.674
X139.29 Z-26.613
X139.709 Z-26.407
X140.132 Z-26.231
X140.694 Z-26.144
X141.016 Z-26.163
X141.382 Z-26.101
X141.785 Z-26.119
X142.176 Z-26.211
X142.708 Z-26.45
X143.077 Z-26.626
X143.517 Z-26.602
X143.83 Z-26.664
X144.155 Z-26.801
X144.313 Z-26.818
X144.628 Z-26.901
X144.997 Z-27.069
X145.287 Z-27.28
X145.587 Z-27.437
X145.883 Z-27.678
X146.271 Z-28.109
X146.685 Z-28.413
X146.922 Z-28.304
X147.367 Z-28.171
X147.705 Z-28.147
X147.727 Z-28.145
X147.785 Z-28.129
X147.855 Z-28.113
X147.98 Y6.346
X147.855 Y6.471
X147.839
X147.769 Z-28.129
X147.763 Z-28.133
X147.705 Z-28.148
X147.367 Z-28.172
X146.913 Z-28.307
X146.703 Z-28.403
X146.161 Z-27.996
X145.839 Z-27.637
X145.589 Z-27.441
X145.232 Z-27.262
X144.925 Z-27.048
X144.492 Z-26.852
X144.186 Z-26.64
X143.819 Z-26.487
X143.503 Z-26.435
X143.129 Z-26.468
X142.949 Z-26.509
X142.543 Z-26.331
X142.161 Z-26.152
X141.688 Z-26.052
X141.271 Z-26.062
X141.038 Z-26.101
X140.73 Z-26.05
X140.269 Z-26.071
X139.914 Z-26.152
X139.57 Z-26.333
X139.365 Z-26.475
X139.091 Z-26.628
X138.748 Z-26.714
X138.4 Z-26.893
X138.332 Z-26.937
X137.922 Z-26.933
X137.533 Z-27.013
X137.307 Z-27.102
X136.935 Z-26.961
X136.533 Z-26.902
X136.033 Z-26.949
X135.65 Z-27.079
X135.134 Z-26.595
X134.603 Z-26.272
X134.081 Z-26.042
X133.875 Z-25.981
X133.118 Z-25.641
X132.246 Z-25.414
X131.269 Z-25.315
X131.118 Z-25.301
X130.184 Z-25.045
X129.895 Z-24.989
X129.281 Z-24.921
X127.081 Z-24.939
X125.314 Z-24.996
X124.257 Z-25.076
X124.021 Z-24.998
X123.666 Z-24.897
X123.024 Z-24.813
X122.614 Z-24.814
X122.306 Z-24.702
X121.901 Z-24.654
X121.499 Z-24.68
X120.799 Z-24.829
X120.489 Z-24.731
X119.997 Z-24.691
X119.629 Z-24.754
X119.256 Z-24.898
X118.933 Z-25.12
X118.654 Z-25.381
X118.52 Z-25.54
X117.887 Z-25.816
X117.715 Z-25.577
X117.379 Z-25.261
X117.018 Z-25.047
X116.557 Z-24.898
X116.151 Z-24.852
X115.855 Z-24.876
X115.563 Z-24.96
X115.023 Z-25.261
X114.721 Z-25.534
X114.344 Z-25.527
X113.92 Z-25.61
X113.742 Z-25.658
X113.293 Z-25.749
X113.029 Z-25.835
X112.748 Z-25.908
X111.985 Z-26.26
X111.967 Z-26.266
X111.554 Z-26.069
X111.186 Z-25.99
X110.006 Z-25.929
X109.656 Z-25.832
X109.251 Z-25.81
X109.13 Z-25.817
X108.599 Z-24.426
X108.304 Z-23.672
X107.961 Z-22.941
X107.715 Z-22.556
X107.42 Z-22.208
X106.991 Z-21.86
X106.655 Z-21.661
X106.206 Z-21.485
X105.644 Z-21.382
X104.263 Z-21.295
X103.446 Z-20.555
X102.859 Z-20.21
X102.272 Z-19.923
X101.842 Z-19.807
X101.519 Z-19.746
X101.022 Z-19.72
X100.587 Z-19.747
X99.918 Z-19.337
X99.151 Z-19.067
X98.998 Z-19.023
X98.723 Z-18.59
X98.462 Z-18.251
X97.923 Z-17.733
X97.397 Z-17.366
X96.974 Z-17.113
X96.224 Z-16.793
X95.437 Z-16.555
X94.548 Z-16.372
X93.647 Z-16.269
X92.634 Z-16.251
X92.167 Z-16.275
X91.841 Z-15.881
X91.614 Z-15.682
X91.346 Z-15.524
X90.897 Z-15.364
X90.444 Z-15.253
X90.037 Z-15.007
X89.586 Z-14.838
X88.782 Z-14.656
X88.292 Z-14.592
X87.881 Z-14.613
X87.33 Z-14.716
X86.947 Z-14.889
X86.735 Z-15.039
X86.17 Z-14.959
X85.902 Z-14.819
X85.44 Z-14.499
X85.388 Z-14.085
X85.201 Z-13.633
X84.968 Z-13.286
X84.632 Z-12.973
X84.372 Z-12.807
X84.078 Z-12.683
X83.768 Z-12.569
X83.055 Z-12.363
X82.156 Z-12.251
X81.895 Z-12.267
X81.77 Z-12.238
X81.383 Z-11.964
X81.099 Z-11.81
X80.637 Z-11.681
X80.177 Z-11.626
X79.979 Z-11.572
X78.782 Z-11.471
X77.849 Z-11.431
X76.691 Z-11.48
X76.162 Z-11.6
X75.831 Z-11.745
X75.564 Z-11.941
X75.297 Z-12.243
X75.263 Z-12.264
X74.784 Z-12.091
X73.753 Z-11.858
X72.886 Z-11.788
X72.545 Z-11.687
X72.382 Z-11.679
X72.11 Z-11.735
X71.901 Z-11.813
X71.194 Z-11.842
X70.495 Z-12.01
X69.658 Z-12.225
X69.401 Z-12.338
X68.969 Z-12.475
X68.859 Z-12.511
X68.621 Z-12.484
X68.608 Z-9.505
X68.497 Z-9.051
X68.296 Z-8.657
X68.115 Z-8.43
X67.886 Z-8.239
X67.612 Z-8.082
X67.313 Z-7.967
X66.996 Z-7.906
X66.497 Z-7.905
X66.036 Z-7.996
X65.75 Z-8.103
X65.175 Z-8.363
X64.26 Z-8.773
X63.48 Z-9.036
X62.759 Z-9.209
X61.941 Z-9.315
X60.29 Z-9.408
X58.507 Z-9.446
X57.984 Z-9.548
X57.559 Z-9.706
X57.171 Z-9.947
X56.823 Z-10.261
X56.613 Z-10.475
X56.075 Z-10.331
X55.565 Z-10.3
X55.102 Z-10.36
X54.672 Z-10.493
X54.256 Z-10.665
X54.121 Z-10.338
X53.985 Z-10.08
X53.806 Z-9.824
X53.434 Z-9.421
X52.993 Z-9.137
X52.606 Z-8.972
X52.095 Z-8.829
X51.563 Z-8.785
X51.225 Z-8.796
X50.766 Z-8.852
X49.897 Z-9.066
X48.884 Z-9.424
X48.567 Z-9.389
X48.153 Z-9.365
X47.9 Z-9.386
X47.605 Z-9.436
X46.795 Z-9.621
X46.709 Z-9.179
X46.547 Z-8.797
X46.344 Z-8.502
X45.999 Z-8.199
X45.582 Z-7.978
X45.192 Z-7.878
X44.948 Z-7.862
X44.61 Z-7.902
X44.058 Z-8.091
X43.788 Z-8.24
X43.105 Z-8.838
X42.363 Z-9.082
X41.877 Z-9.285
X41.429 Z-9.58
X41.082 Z-9.909
X40.882 Z-10.148
X40.704 Z-10.42
X40.544 Z-10.716
X40.415 Z-11.009
X39.94 Z-12.39
X39.528 Z-12.211
X39.173 Z-12.139
X38.663 Z-12.156
X38.274 Z-12.269
X37.738 Z-12.592
X37.459 Z-12.88
X37.153 Z-13.361
X36.921 Z-13.975
X36.845 Z-14.45
X36.834 Z-15.872
X36.228 Z-16.05
X35.95 Z-16.163
X35.677 Z-16.299
X35.422 Z-16.474
X35.078 Z-16.783
X34.859 Z-17.05
X34.669 Z-17.442
X34.547 Z-17.844
X34.502 Z-18.221
X34.498 Z-24.038
X34.078 Z-24.236
X33.774 Z-24.287
X33.326 Z-24.223
X32.105 Z-23.938
X31.223 Z-23.801
X30.536 Z-23.675
X29.418 Z-23.558
X28.617 Z-23.591
X28.06 Z-23.557
X27.195 Z-23.607
X26.088 Z-23.833
X24.629 Z-24.265
X24.394 Z-24.344
X23.732 Z-24.204
X23.16 Z-24.168
X22.62 Z-24.225
X22.379 Z-24.268
X22.08 Z-24.208
X21.583 Z-24.161
X20.844 Z-24.177
X20.444 Z-24.251
X20.087 Z-24.371
X19.718 Z-24.572
X19.288 Z-24.907
X19.216 Z-24.974
X18.717 Z-24.897
X18.296 Z-24.912
X17.723 Z-25.035
X17.097 Z-25.292
X16.642 Z-25.561
X16.267 Z-25.892
X15.952 Z-26.305
X15.772 Z-26.634
X15.692 Z-26.66
X15.335 Z-26.213
X15.076 Z-25.962
X14.68 Z-25.711
X14.227 Z-25.567
X13.585 Z-25.516
X12.45 Z-25.583
X11.809 Z-25.718
X11.436 Z-25.848
X11.062 Z-26.043
X9.621 Z-26.326
X9.376 Z-26.305
X8.852 Z-26.355
X7.443 Z-26.606
X7.106 Z-26.627
X6.454 Z-26.799
X5.862 Z-27.078
X5.435 Z-27.194
X4.715 Z-27.353
X3.474 Z-27.714
X2.949 Z-27.906
X2.337 Z-28.203
X2.194 Z-28.309
X2.1 Z-28.339
X2.063 Y6.475 Z-28.337
X2.028 Y6.488 Z-28.33
X1.999 Y6.508 Z-28.319
X1.976 Y6.534 Z-28.304
X1.962 Y6.564 Z-28.287
X1.957 Y6.596 Z-28.269
X1.962 Y6.629 Z-28.251
X1.976 Y6.659 Z-28.234
X1.999 Y6.685 Z-28.22
X2.028 Y6.704 Z-28.209
X2.063 Y6.717 Z-28.202
X2.1 Y6.721 Z-28.199
X2.107
X2.192 Z-28.174
X2.27 Z-28.125
X2.62 Z-27.946
X3.17 Z-27.711
X3.734 Z-27.512
X4.371 Z-27.34
X4.654 Z-27.243
X5.062 Z-27.162
X5.69 Z-27.014
X5.985 Z-26.863
X6.551 Z-26.671
X7.193 Z-26.598
X7.765 Z-26.6
X8.072 Z-26.533
X8.449 Z-26.408
X8.886 Z-26.275
X9.247 Z-26.242
X9.711 Z-26.277
X10.087 Z-26.223
X10.595 Z-26.134
X10.758 Z-26.02
X11.215 Z-25.737
X11.718 Z-25.582
X12.511 Z-25.447
X13.741 Z-25.42
X14.307 Z-25.503
X14.721 Z-25.655
X15.092 Z-25.873
X15.404 Z-26.171
X15.717 Z-26.554
X15.743 Z-26.494
X15.98 Z-26.104
X16.286 Z-25.738
X16.595 Z-25.502
X17.028 Z-25.261
X17.765 Z-24.982
X18.139 Z-24.904
X18.707 Z-24.89
X19.108 Z-24.97
X19.251 Z-24.854
X19.731 Z-24.529
X20.141 Z-24.343
X20.712 Z-24.2
X21.437 Z-24.17
X21.935 Z-24.218
X22.282 Z-24.29
X22.555 Z-24.235
X23.125 Z-24.182
X23.623 Z-24.217
X24.125 Z-24.321
X24.32 Z-24.259
X25.915 Z-23.843
X27.134 Z-23.591
X28.06 Z-23.528
X28.448 Z-23.509
X29.166 Z-23.532
X29.365 Z-23.539
X30.499 Z-23.659
X31.509 Z-23.879
X32.221 Z-24.012
X32.896 Z-24.217
X33.462 Z-24.238
X33.756 Z-24.13
X34.065 Z-24.076
X34.512 Z-24.079
X34.545 Z-24.068
X34.549 Z-18.15
X34.592 Z-17.784
X34.737 Z-17.315
X34.908 Z-17.002
X35.101 Z-16.775
X35.452 Z-16.448
X35.862 Z-16.184
X36.277 Z-16.011
X36.561 Z-15.916
X36.899 Z-15.817
X36.902 Z-14.552
X36.939 Z-14.183
X37.094 Z-13.611
X37.247 Z-13.269
X37.526 Z-12.881
X37.75 Z-12.646
X38.112 Z-12.403
X38.482 Z-12.242
X38.87 Z-12.167
X39.201 Z-12.17
X39.519 Z-12.239
X39.968 Z-12.417
X40.379 Z-11.171
X40.601 Z-10.632
X40.899 Z-10.127
X41.263 Z-9.708
X41.38 Z-9.604
X41.749 Z-9.336
X42.018 Z-9.196
X42.298 Z-9.081
X43.175 Z-8.802
X43.8 Z-8.26
X44.33 Z-7.959
X44.618 Z-7.866
X44.934 Z-7.825
X45.264 Z-7.84
X45.658 Z-7.935
X46.017 Z-8.098
X46.367 Z-8.382
X46.637 Z-8.741
X46.805 Z-9.131
X46.888 Z-9.53
X47.657 Z-9.352
X48.216 Z-9.278
X49. Z-9.354
X49.933 Z-9.014
X50.89 Z-8.763
X51.509 Z-8.698
X52.091 Z-8.714
X52.65 Z-8.837
X53.028 Z-8.988
X53.315 Z-9.134
X53.566 Z-9.306
X53.936 Z-9.668
X54.245 Z-10.101
X54.461 Z-10.591
X54.836 Z-10.452
X55.311 Z-10.354
X55.894 Z-10.343
X56.297 Z-10.416
X56.609 Z-10.509
X57.188 Z-9.99
X57.531 Z-9.801
X58.028 Z-9.618
X58.407 Z-9.558
X60.348 Z-9.525
X61.698 Z-9.462
X62.678 Z-9.338
X63.313 Z-9.178
X64.089 Z-8.903
X65.439 Z-8.27
X65.968 Z-8.071
X66.429 Z-7.979
X66.792 Z-7.982
X67.242 Z-8.068
X67.533 Z-8.186
X67.906 Z-8.442
X68.109 Z-8.673
X68.353 Z-9.144
X68.449 Z-9.567
X68.461 Z-12.592
X69. Z-12.388
X69.471 Z-12.26
X69.622 Z-12.195
X70.619 Z-11.946
X71.364 Z-11.811
X71.662 Z-11.595
X71.945 Z-11.46
X72.274 Z-11.389
X72.6 Z-11.396
X72.912 Z-11.477
X73.184 Z-11.615
X73.477 Z-11.889
X73.803 Z-11.936
X74.439 Z-12.101
X75.053 Z-12.311
X75.311 Z-12.143
X75.401 Z-12.044
X75.699 Z-11.774
X76.074 Z-11.582
X76.534 Z-11.463
X77.743 Z-11.383
X78.215 Z-11.363
X78.656 Z-11.413
X80.009 Z-11.554
X80.377 Z-11.68
X80.792 Z-11.765
X81.233 Z-11.952
X81.564 Z-12.189
X81.807 Z-12.181
X82.132 Z-12.211
X83.038 Z-12.402
X83.906 Z-12.665
X84.428 Z-12.891
X84.813 Z-13.144
X85.218 Z-13.59
X85.406 Z-13.963
X85.466 Z-14.192
X85.509 Z-14.617
X85.814 Z-14.833
X86.156 Z-15.013
X86.632 Z-15.069
X86.787 Z-14.968
X87.264 Z-14.736
X87.575 Z-14.665
X88.146 Z-14.644
X88.802 Z-14.719
X89.546 Z-14.881
X90.141 Z-15.079
X90.495 Z-15.109
X90.94 Z-15.226
X91.21 Z-15.375
X91.425 Z-15.563
X91.515 Z-15.625
X91.837 Z-15.888
X92.274 Z-16.442
X93.134 Z-16.384
X94.186 Z-16.4
X95.007 Z-16.491
X95.857 Z-16.657
X96.524 Z-16.854
X97.189 Z-17.137
X97.868 Z-17.52
X98.531 Z-18.028
X99.031 Z-18.515
X99.735 Z-19.389
X100.008 Z-19.544
X100.646 Z-19.482
X101.152 Z-19.472
X101.72 Z-19.552
X102.498 Z-19.795
X103.437 Z-20.343
X104.357 Z-21.15
X104.602 Z-21.486
X105.293 Z-21.413
X105.855 Z-21.392
X106.335 Z-21.472
X106.767 Z-21.642
X107.231 Z-21.945
X107.589 Z-22.287
X107.949 Z-22.792
X108.194 Z-23.292
X108.55 Z-24.171
X108.864 Z-25.038
X109.241 Z-25.948
X109.41 Z-25.952
X109.79 Z-25.987
X110.08 Z-26.089
X111.033 Z-26.15
X111.51 Z-26.241
X111.803 Z-26.361
X112.194 Z-26.621
X112.229 Z-26.623
X112.457 Z-26.459
X113.318 Z-26.09
X113.843 Z-25.861
X114.214 Z-25.765
X114.692 Z-25.756
X114.935 Z-25.472
X115.145 Z-25.312
X115.579 Z-25.06
X115.889 Z-24.97
X116.303 Z-24.948
X116.744 Z-25.025
X117.143 Z-25.184
X117.402 Z-25.369
X117.727 Z-25.695
X117.89 Z-25.95
X118.196 Z-25.979
X118.293 Z-25.755
X118.497 Z-25.447
X118.799 Z-25.11
X119.161 Z-24.841
X119.577 Z-24.652
X119.872 Z-24.587
X120.325 Z-24.592
X120.701 Z-24.664
X121.007 Z-24.799
X121.583 Z-24.659
X121.993 Z-24.649
X122.382 Z-24.716
X122.667 Z-24.834
X122.814 Z-24.833
X123.301 Z-24.846
X123.939 Z-24.981
X124.285 Z-25.125
X125.291 Z-25.02
X127.914 Z-24.882
X129.433
X130.088 Z-24.959
X130.737 Z-25.076
X131.667 Z-25.327
X132.429 Z-25.406
X133.109 Z-25.558
X133.73 Z-25.805
X134.809 Z-26.31
X135.274 Z-26.586
X135.726 Z-27.019
X136.038 Z-26.919
X136.44 Z-26.879
X136.86 Z-26.921
X137.211 Z-27.036
X137.28 Z-27.009
X137.696 Z-26.868
X138.098 Z-26.832
X138.495 Z-26.874
X138.538 Z-26.856
X138.94 Z-26.696
X139.474 Z-26.267
X139.817 Z-26.09
X140.167 Z-25.991
X140.639 Z-25.971
X141.167 Z-26.051
X141.292 Z-26.039
X141.703 Z-26.031
X142.171 Z-26.132
X142.818 Z-26.438
X143.113 Z-26.361
X143.442 Z-26.326
X143.763 Z-26.362
X144.068 Z-26.465
X144.421 Z-26.655
X144.699 Z-26.891
X144.875 Z-26.97
X145.152 Z-27.132
X145.502 Z-27.429
X145.589 Z-27.49
X145.899 Z-27.76
X146.027 Z-27.766
X146.292 Z-27.836
X146.641 Z-28.049
X146.744 Z-28.16
X146.841 Z-28.339
X147.313 Z-28.18
X147.704 Z-28.145
X147.76 Z-28.129
X147.83 Z-28.113
X147.846
X147.971 Y6.846
X147.846 Y6.971
X147.776 Z-28.129
X147.764 Z-28.135
X147.705 Z-28.151
X147.367 Z-28.174
X147.177 Z-28.218
X147.049 Z-27.974
X146.797 Z-27.711
X146.499 Z-27.526
X146.161 Z-27.419
X145.751 Z-27.409
X145.566 Z-27.427
X145.215 Z-27.115
X144.694 Z-26.79
X144.338 Z-26.527
X143.9 Z-26.335
X143.584 Z-26.272
X143.253 Z-26.276
X142.838 Z-26.37
X142.674 Z-26.342
X142.125 Z-26.118
X141.642 Z-26.043
X141.313 Z-26.045
X140.908 Z-25.952
X140.686 Z-25.933
X140.307 Z-25.927
X139.812 Z-26.023
X139.443 Z-26.193
X139.09 Z-26.486
X138.887 Z-26.709
X138.757 Z-26.839
X138.67 Z-26.874
X138.26 Z-26.791
X137.896 Z-26.783
X137.494 Z-26.852
X137.044 Z-26.977
X136.74 Z-26.897
X136.413 Z-26.876
X136.075 Z-26.907
X135.819 Z-26.978
X135.352 Z-26.56
X134.934 Z-26.279
X134.425 Z-26.001
X133.513 Z-25.634
X133.122 Z-25.512
X132.64 Z-25.407
X132.105 Z-25.348
X131.42 Z-25.123
X130.468 Z-24.948
X129.358 Z-24.839
X128.283 Z-24.84
X127.234 Z-24.9
X125.67 Z-25.028
X125.097 Z-25.087
X124.335 Z-25.204
X124.258 Z-25.168
X123.898 Z-25.015
X123.206 Z-24.886
X122.689 Z-24.884
X122.409 Z-24.759
X122.013 Z-24.683
X121.595 Z-24.69
X121.3 Z-24.757
X121.173 Z-24.797
X120.754 Z-24.609
X120.339 Z-24.523
X119.961 Z-24.514
X119.627 Z-24.569
X119.219 Z-24.743
X118.868 Z-24.975
X118.561 Z-25.284
X118.332 Z-25.601
X118.171 Z-25.929
X118.135 Z-26.041
X117.816 Z-26.026
X117.655 Z-25.772
X117.378 Z-25.494
X117.072 Z-25.277
X116.708 Z-25.133
X116.288 Z-25.075
X115.971 Z-25.094
X115.538 Z-25.231
X115.241 Z-25.423
X114.917 Z-25.732
X114.741 Z-25.981
X114.323 Z-25.968
X114.08 Z-26.009
X113.694 Z-26.179
X113.401 Z-26.36
X113.141 Z-26.581
X112.993 Z-26.696
X112.749 Z-26.813
X112.307 Z-26.843
X112.107 Z-26.833
X111.799 Z-26.615
X111.47 Z-26.465
X110.507 Z-26.285
X110.054 Z-26.26
X109.767 Z-26.151
X109.361 Z-26.099
X109.066 Z-25.439
X108.193 Z-23.173
X107.991 Z-22.758
X107.751 Z-22.375
X107.446 Z-22.029
X107.013 Z-21.7
X106.665 Z-21.523
X106.278 Z-21.4
X105.811 Z-21.351
X105.298 Z-21.414
X104.837 Z-21.57
X104.362 Z-20.988
X104.139 Z-20.764
X103.901 Z-20.545
X103.654 Z-20.337
X103. Z-19.874
X102.208 Z-19.504
X101.665 Z-19.341
X101.223 Z-19.266
X100.385 Z-19.207
X100.231 Z-19.16
X99.986 Z-19.015
X99.189 Z-18.336
X98.482 Z-17.779
X97.93 Z-17.424
X97.345 Z-17.119
X96.49 Z-16.809
X95.852 Z-16.659
X95.035 Z-16.543
X94.368 Z-16.496
X93.369 Z-16.512
X92.905 Z-16.562
X92.382 Z-16.637
X92.123 Z-16.279
X91.838 Z-15.911
X91.689 Z-15.688
X91.367 Z-15.361
X91.111 Z-15.189
X90.744 Z-15.051
X90.344 Z-14.987
X89.93 Z-15.007
X89.86 Z-15.013
X89.113 Z-14.838
X88.789 Z-14.777
X87.97 Z-14.672
X87.469 Z-14.694
X87.037 Z-14.828
X86.762 Z-14.956
X86.529 Z-15.11
X86.11 Z-15.058
X85.921 Z-14.977
X85.661 Z-14.79
X85.561 Z-14.443
X85.422 Z-13.952
X85.208 Z-13.555
X85.018 Z-13.335
X84.652 Z-13.051
X84.242 Z-12.854
X83.795 Z-12.678
