(03_T2_FINISH_BALL_3175x22)
(T2  2 Flute Ball Nose 3.175*22      D=3.175 CR=1.588 - ZMIN=-31.518 - ball end mill)
( =================================================== )
(   Z Origin Set To   : Stock Top )
(   Stock Height                    : 40. mm )
(   Toolpath Z Maximum from Stock Top: 15. mm )
(   Toolpath Z Min from Stock Top: -31.518 mm )
(  )
( =================================================== )

( The following values are based on the part position info used in fusion and can be used to roughly align the machine offset from anchor 1 if you use that feature. )
(   X Offset   : -75. mm )
(   Y Offset   : -75. mm )

( =================================================== )

G90 G94
G17
G21
(When using Fusion for Personal Use, the feedrate of rapid)
(moves is reduced to match the feedrate of cutting moves,)
(which can increase machining time. Unrestricted rapid moves)
(are available with a Fusion Subscription.)

(03_ANCHOR1_FINITION_RELIEF_BOULE_3175x22)
M6 T2 
(6)
M400
M851 S100
S12000 M3
G54
G0 X147.983 Y1.972
Z15.
G1 Z-26.217 F500.
Z-27.889 F200.
X147.692 Z-28.206 F500.
X147.295 Z-28.239
X146.899 Z-28.367
X146.632 Z-28.496
X146.379 Z-28.523
X145.66 Z-28.291
X145.179 Z-28.18
X144.993 Z-27.746
X144.725 Z-27.382
X144.14 Z-26.842
X143.736 Z-26.595
X143.443 Z-26.453
X143.016 Z-26.35
X142.651 Z-26.31
X142.018 Z-26.389
X141.745 Z-26.423
X141.283 Z-26.26
X140.89 Z-26.213
X140.463 Z-26.25
X139.718 Z-26.486
X139.324 Z-26.364
X138.918 Z-26.325
X138.518 Z-26.371
X137.639 Z-26.494
X137.003 Z-26.514
X135.966 Z-26.75
X135.737 Z-26.821
X135.563 Z-26.843
X134.931 Z-26.827
X134.733 Z-26.843
X134.068 Z-26.761
X133.731 Z-26.785
X132.999 Z-26.917
X132.854 Z-26.966
X132.297 Z-27.058
X131.802 Z-27.227
X131.302 Z-27.205
X130.476 Z-26.717
X129.854 Z-26.464
X129.059 Z-26.267
X128.395 Z-26.211
X127.152 Z-25.923
X125.902 Z-25.77
X125.016 Z-25.734
X123.073 Z-25.87
X122.102 Z-25.948
X121.334 Z-25.838
X120.384 Z-25.699
X119.928 Z-25.637
X118.882 Z-25.541
X118.215 Z-25.41
X116.106 Z-24.851
X114.232 Z-24.534
X113.705 Z-24.504
X113.059 Z-24.291
X112.505 Z-24.197
X111.592 Z-24.161
X111.303 Z-24.146
X110.842 Z-24.098
X110.401 Z-24.149
X109.087 Z-24.569
X108.4 Z-24.871
X107.885 Z-25.152
X107.091 Z-25.153
X106.6 Z-25.221
X106.095 Z-24.357
X105.641 Z-23.68
X105.183 Z-23.203
X104.917 Z-23.01
X104.504 Z-22.746
X103.98 Z-22.532
X103.421 Z-22.393
X103.096 Z-22.352
X102.008 Z-22.337
X101.746
X101.434 Z-22.238
X101.16 Z-22.12
X100.364 Z-21.653
X99.783 Z-21.359
X98.522 Z-20.838
X98.29 Z-20.605
X97.67 Z-19.515
X97.341 Z-19.074
X97.162 Z-18.863
X96.755 Z-18.467
X95.916 Z-17.826
X94.821 Z-16.984
X94.264 Z-16.665
X93.826 Z-16.459
X92.861 Z-16.088
X92.055 Z-15.929
X91.801 Z-15.893
X91.376 Z-15.435
X90.929 Z-15.013
X90.149 Z-14.452
X89.729 Z-14.212
X89.124 Z-13.94
X88.688 Z-13.83
X88.135 Z-13.795
X87.568 Z-13.881
X87.03 Z-14.053
X86.488 Z-14.311
X86.15 Z-14.518
X86.01 Z-14.172
X85.606 Z-13.485
X85.283 Z-13.149
X85.026 Z-12.979
X84.659 Z-12.838
X84.299 Z-12.742
X83.98 Z-12.609
X83.562 Z-12.439
X82.831 Z-12.289
X81.571 Z-12.321
X80.815 Z-12.412
X80.246 Z-12.375
X79.444 Z-12.428
X78.926 Z-12.56
X78.514 Z-12.77
X78.387 Z-12.847
X77.818 Z-12.558
X76.912 Z-12.237
X76.12 Z-12.03
X75.836 Z-11.988
X75.251 Z-11.925
X74.562 Z-11.896
X74.029 Z-11.937
X72.677 Z-12.191
X71.726 Z-12.329
X71.399 Z-11.943
X71.076 Z-11.391
X70.918 Z-10.972
X70.811 Z-10.416
X70.67 Z-9.544
X70.504 Z-8.96
X70.267 Z-8.529
X70.014 Z-8.24
X69.772 Z-8.053
X69.494 Z-7.908
X69.11 Z-7.791
X68.735 Z-7.756
X68.25 Z-7.815
X67.554 Z-8.084
X66.824 Z-8.375
X66.194 Z-8.547
X65.38 Z-8.68
X64.048 Z-8.781
X61.165 Z-8.837
X60.536 Z-8.797
X58.88 Z-8.584
X58.438 Z-8.587
X58.098 Z-8.656
X57.713 Z-8.836
X57.322 Z-9.108
X56.986 Z-9.475
X56.748 Z-9.898
X56.431 Z-10.695
X56.265 Z-11.275
X55.893 Z-11.059
X55.552 Z-10.943
X55.231 Z-10.893
X54.9 Z-10.905
X54.471 Z-11.025
X54.016 Z-11.263
X53.039 Z-10.892
X52.519 Z-10.806
X52.013 Z-10.794
X51.624 Z-10.869
X51.005 Z-11.087
X50.457 Z-11.385
X50.1 Z-11.576
X49.787 Z-11.668
X49.464 Z-11.71
X49.134 Z-11.665
X48.409 Z-11.419
X47.764 Z-11.258
X47.153 Z-11.175
X46.592 Z-11.145
X45.353 Z-11.221
X45.11 Z-11.204
X45.074 Z-10.675
X44.926 Z-10.148
X44.768 Z-9.85
X44.475 Z-9.526
X44.238 Z-9.339
X43.958 Z-9.203
X43.646 Z-9.127
X43.32 Z-9.106
X42.754 Z-9.215
X42.395 Z-9.357
X41.88 Z-9.68
X40.906 Z-10.376
X39.909 Z-11.143
X38.961 Z-11.913
X38.568 Z-12.221
X38.121 Z-12.67
X37.911 Z-13.011
X37.639 Z-13.671
X37.517 Z-14.001
X37.233 Z-14.518
X36.375 Z-15.898
X36.081 Z-16.429
X35.744 Z-17.137
X35.235 Z-18.437
X35.038 Z-19.118
X34.958 Z-19.605
X34.942 Z-19.985
Z-23.835
X33.068 Z-24.012
X32.441 Z-24.133
X31.867 Z-24.297
X31.793 Z-24.317
X31.275 Z-24.225
X30.369 Z-24.232
X29.766 Z-24.298
X28.758 Z-24.471
X27.799 Z-24.221
X27.149 Z-24.113
X26.308 Z-24.074
X25.563 Z-24.082
X23.766 Z-24.11
X22.952 Z-24.187
X22.627 Z-24.277
X21.769 Z-24.482
X20.842 Z-24.786
X20.125 Z-25.104
X19.591 Z-25.383
X19.083 Z-25.705
X18.532 Z-26.211
X18.197 Z-26.668
X18.104 Z-26.821
X17.807 Z-26.968
X17.395 Z-27.245
X16.86 Z-27.741
X16.72 Z-27.881
X16.527 Z-27.764
X16.302 Z-27.565
X15.957 Z-27.381
X15.231 Z-27.14
X14.858 Z-27.083
X13.944 Z-27.029
X13.35 Z-26.944
X12.328 Z-26.948
X11.694 Z-26.834
X11.148 Z-26.755
X10.738 Z-26.798
X10.349 Z-26.917
X9.475 Z-27.227
X8.819 Z-27.476
X8.143 Z-27.545
X7.524 Z-27.439
X6.969 Z-27.468
X4.402 Z-27.861
X3.378 Z-28.123
X2.699 Z-28.34
X2.2 Z-28.29
X2.057 Z-28.132
X2.038 Y2.199 Z-27.905
X2.019 Y2.426 Z-28.132
Z-28.159
X2.185 Z-28.318
X2.286 Z-28.313
X2.796 Z-28.131
X3.333 Z-27.988
X3.927 Z-27.811
X4.36 Z-27.683
X5.489 Z-27.538
X6.571 Z-27.29
X6.961 Z-27.235
X8.199 Z-27.272
X8.576 Z-27.223
X8.995 Z-27.059
X10.477 Z-26.506
X10.877 Z-26.435
X11.438 Z-26.467
X11.968 Z-26.603
X12.578 Z-26.729
X13.148 Z-26.691
X13.703 Z-26.715
X14.267 Z-26.829
X14.848 Z-26.884
X15.636 Z-27.09
X16.197 Z-27.357
X16.572 Z-27.652
X16.613 Z-27.664
X17.02 Z-27.315
X17.422 Z-27.016
X17.842 Z-26.794
X18.039 Z-26.448
X18.336 Z-26.089
X18.732 Z-25.731
X19.301 Z-25.358
X20.043 Z-25.022
X21.886 Z-24.382
X23.058 Z-24.073
X23.933 Z-23.997
X24.944 Z-24.029
X26.949 Z-24.145
X27.601 Z-24.242
X28.521 Z-24.464
X29.252 Z-24.332
X30.027 Z-24.242
X30.702 Z-24.216
X31.299 Z-24.25
X31.597 Z-24.297
X32.007 Z-24.148
X32.623 Z-24.014
X33.433 Z-23.894
X34.775 Z-23.79
X34.776 Z-20.036
X34.8 Z-19.473
X34.916 Z-18.85
X35.04 Z-18.399
X35.529 Z-17.096
X35.942 Z-16.24
X36.099 Z-15.966
X36.44 Z-15.431
X37.159 Z-14.368
X37.473 Z-13.815
X37.707 Z-13.245
X37.854 Z-12.934
X38.122 Z-12.507
X38.517 Z-12.129
X39.269 Z-11.605
X40.482 Z-10.635
X41.259 Z-10.054
X41.812 Z-9.68
X42.54 Z-9.226
X42.916 Z-9.049
X43.351 Z-8.966
X43.854 Z-8.977
X44.164 Z-9.054
X44.373 Z-9.15
X44.678 Z-9.38
X44.962 Z-9.706
X45.096 Z-9.96
X45.238 Z-10.397
X45.292 Z-11.033
X45.549 Z-11.05
X46.21 Z-10.987
X47.035 Z-10.936
X47.706 Z-10.978
X48.52 Z-11.097
X48.994 Z-11.223
X49.566 Z-11.416
X49.789 Z-11.409
X50.413 Z-11.251
X51.067 Z-10.979
X51.636 Z-10.769
X52.178 Z-10.672
X52.763 Z-10.683
X53.161 Z-10.763
X54.128 Z-11.137
X54.306 Z-11.046
X54.724 Z-10.87
X55.124 Z-10.796
X55.599 Z-10.815
X55.984 Z-10.924
X56.347 Z-11.133
X56.483 Z-10.689
X56.59 Z-10.393
X56.848 Z-9.8
X57.118 Z-9.394
X57.449 Z-9.058
X57.843 Z-8.81
X58.272 Z-8.658
X58.912 Z-8.605
X59.859 Z-8.742
X60.695 Z-8.832
X63.37 Z-8.757
X65.218 Z-8.643
X66.195 Z-8.492
X66.821 Z-8.325
X67.59 Z-8.011
X68.255 Z-7.814
X68.702 Z-7.778
X69.204 Z-7.864
X69.64 Z-8.042
X69.982 Z-8.29
X70.251 Z-8.609
X70.47 Z-9.032
X70.587 Z-9.446
X70.826 Z-10.85
X70.974 Z-11.307
X71.276 Z-11.857
X71.509 Z-12.176
X73.691 Z-11.817
X74.29 Z-11.744
X74.833 Z-11.745
X75.607 Z-11.86
X76.666 Z-12.163
X78.047 Z-12.726
X78.87 Z-12.448
X79.501 Z-12.277
X79.898 Z-12.25
X80.272 Z-12.242
X80.517 Z-12.275
X80.644 Z-12.296
X80.998 Z-12.266
X82.111 Z-12.216
X82.779 Z-12.23
X83.024 Z-12.253
X83.415 Z-12.346
X84.525 Z-12.833
X84.78 Z-12.914
X85.11 Z-13.078
X85.346 Z-13.268
X85.625 Z-13.61
X85.992 Z-14.264
X86.114 Z-14.613
X86.628 Z-14.3
X87.249 Z-14.03
X87.904 Z-13.874
X88.406 Z-13.857
X89.096 Z-13.961
X89.757 Z-14.17
X90.42 Z-14.494
X91.074 Z-14.906
X92.659 Z-16.097
X92.799 Z-16.129
X93.798 Z-16.492
X94.672 Z-16.915
X95.695 Z-17.726
X96.241 Z-18.062
X96.859 Z-18.448
X97.319 Z-18.836
X97.777 Z-19.353
X98.431 Z-20.366
X98.648 Z-20.614
X98.912 Z-20.816
X99.459 Z-21.04
X100.337 Z-21.402
X100.931 Z-21.699
X101.523 Z-21.802
X102.668 Z-21.845
X103.165 Z-21.887
X103.488 Z-21.937
X103.811 Z-22.01
X104.118 Z-22.097
X104.717 Z-22.345
X104.996 Z-22.512
X105.29 Z-22.712
X105.815 Z-23.187
X106.123 Z-23.59
X106.41 Z-24.078
X106.992 Z-25.208
X107.152 Z-25.19
X107.976 Z-25.158
X108.072 Z-25.114
X108.477 Z-24.864
X109.467 Z-24.431
X110.491 Z-24.105
X110.894 Z-24.074
X111.3 Z-24.118
X112.369 Z-24.112
X112.951 Z-24.144
X113.277 Z-24.191
X113.599 Z-24.257
X114.478 Z-24.512
X115.836 Z-24.723
X118.068 Z-25.264
X118.949 Z-25.42
X119.455 Z-25.457
X121.856 Z-25.641
X123.51 Z-25.82
X125.04 Z-25.66
X125.547 Z-25.655
X126.765 Z-25.73
X127.833 Z-25.893
X128.719 Z-26.107
X128.914 Z-26.134
X129.649 Z-26.231
X130.355 Z-26.417
X131.109 Z-26.737
X131.54 Z-26.974
X131.794 Z-27.136
X132.027 Z-27.163
X132.423 Z-27.051
X133.007 Z-26.808
X133.446 Z-26.699
X133.846 Z-26.644
X134.577 Z-26.678
X134.793 Z-26.641
X135.268 Z-26.608
X135.69 Z-26.477
X136.115 Z-26.427
X136.762 Z-26.318
X137.243 Z-26.31
X138.408 Z-26.107
X138.972 Z-26.059
X139.36 Z-26.097
X139.913 Z-26.275
X139.947 Z-26.269
X140.484 Z-26.105
X140.931 Z-26.051
X141.253 Z-26.089
X141.52 Z-26.171
X141.824 Z-26.207
X142.27 Z-26.296
X142.791 Z-26.283
X143.253 Z-26.358
X143.724 Z-26.53
X143.982 Z-26.699
X144.5 Z-27.201
X144.89 Z-27.674
X145.088 Z-28.101
X145.693 Z-28.253
X146.528 Z-28.551
X146.983 Z-28.314
X147.367 Z-28.199
X147.705 Z-28.179
X147.765 Z-28.163
X147.835 Z-28.147
X147.886 Y2.432
X147.934 Y2.448 Z-28.146
X147.977 Y2.475 Z-28.145
X148.013 Y2.511 Z-28.144
X148.04 Y2.554 Z-28.143
X148.057 Y2.602 Z-28.141
X148.062 Y2.653 Z-28.139
X148.057 Y2.703 Z-28.138
X148.04 Y2.751 Z-28.136
X148.013 Y2.794 Z-28.134
X147.977 Y2.83 Z-28.133
X147.934 Y2.857 Z-28.132
X147.886 Y2.874
X147.835 Y2.879
X147.826
X147.756 Z-28.148
X147.7 Z-28.163
X147.292 Z-28.198
X146.861 Z-28.342
X146.529 Z-28.537
X145.786 Z-28.236
X144.994 Z-28.011
X144.852 Z-27.982
X144.587 Z-27.477
X144.29 Z-27.039
X143.889 Z-26.675
X143.549 Z-26.49
X142.927 Z-26.302
X142.768 Z-26.278
X142.341 Z-26.067
X142.039 Z-25.969
X141.469 Z-25.922
X140.875
X140.338 Z-26.008
X139.986 Z-26.123
X139.586 Z-25.979
X139.183 Z-25.92
X138.592 Z-25.922
X137.984 Z-25.986
X137.4 Z-26.1
X137.003 Z-26.039
X136.581 Z-26.069
X136.269 Z-26.155
X136.059 Z-26.242
X135.635 Z-26.295
X135.134 Z-26.474
X134.463 Z-26.587
X133.829 Z-26.562
X133.513 Z-26.596
X132.931 Z-26.74
X132.302 Z-27.066
X132.025 Z-26.897
X131.514 Z-26.632
X130.689 Z-26.317
X129.995 Z-26.168
X129.538 Z-26.109
X128.826 Z-25.908
X128.341 Z-25.816
X127.011 Z-25.661
X125.745 Z-25.63
X124.851 Z-25.704
X124.199 Z-25.617
X120.272 Z-25.375
X119.09 Z-25.333
X118.202 Z-25.209
X117.006 Z-24.941
X115.95 Z-24.684
X114.991 Z-24.517
X114.241 Z-24.292
X113.644 Z-24.119
X112.991 Z-24.047
X112.484 Z-24.054
X111.739 Z-24.124
X111.048 Z-24.076
X110.71 Z-24.122
X109.351 Z-24.528
X108.819 Z-24.8
X108.187 Z-25.176
X107.344 Z-25.226
X106.742 Z-23.895
X106.399 Z-23.314
X106.213 Z-23.072
X105.992 Z-22.833
X105.451 Z-22.369
X104.957 Z-22.07
X104.21 Z-21.729
X103.293 Z-21.476
X101.561 Z-21.223
X100.621 Z-21.022
X99.455 Z-20.652
X99.142 Z-20.488
X98.9 Z-20.302
X98.265 Z-19.611
X97.977 Z-19.266
X97.552 Z-18.86
X97.061 Z-18.504
X96.498 Z-18.207
X95.692 Z-17.899
X95.475 Z-17.761
X94.758 Z-17.152
X93.993 Z-16.712
X93.662 Z-16.37
X93.23 Z-16.001
X92.829 Z-15.76
X92.536 Z-15.579
X91.976 Z-15.284
X90.748 Z-14.601
X90.074 Z-14.303
X89.529 Z-14.132
X88.833 Z-14.027
X88.205 Z-14.035
X87.574 Z-14.148
X86.907 Z-14.391
X86.329 Z-14.717
X86.071 Z-14.903
X85.914 Z-14.661
X85.817 Z-14.355
X85.609 Z-14.006
X85.418 Z-13.619
X85.09 Z-13.25
X84.68 Z-12.929
X84.399 Z-12.781
X84.055 Z-12.651
X83.546 Z-12.371
X82.919 Z-12.157
X82.511 Z-12.122
X82.225 Z-12.137
X81.55 Z-12.118
X80.764 Z-12.186
X80.651 Z-12.172
X80.348 Z-12.113
X79.599 Z-12.117
X79.143 Z-12.199
X78.65 Z-12.292
X78.242 Z-12.477
X77.427 Z-12.505
X77.191 Z-12.55
X76.725 Z-12.307
X76.479 Z-12.208
X75.735 Z-11.903
X74.88 Z-11.713
X74.294 Z-11.684
X73.759 Z-11.707
X71.442 Z-12.06
X71.171 Z-12.079
X70.847 Z-11.525
X70.648 Z-10.992
X70.414 Z-9.481
X70.251 Z-8.963
X70.044 Z-8.593
X69.727 Z-8.264
X69.408 Z-8.034
X69.006 Z-7.874
X68.625 Z-7.809
X68.2 Z-7.824
X67.622 Z-7.944
X66.684 Z-8.305
X66.047 Z-8.466
X65.07 Z-8.612
X62.904 Z-8.747
X60.165 Z-8.852
X59.033 Z-8.7
X58.484 Z-8.694
X58.211 Z-8.744
X57.788 Z-8.923
X57.469 Z-9.149
X57.194 Z-9.422
X57.089 Z-9.562
X56.827 Z-9.999
X56.652 Z-10.409
X56.479 Z-10.939
X56.455 Z-11.018
X56.054 Z-10.788
X55.731 Z-10.679
X55.41 Z-10.644
X55.081 Z-10.678
X54.63 Z-10.815
X54.232 Z-11.011
X53.088 Z-10.631
X52.631 Z-10.576
X52.209 Z-10.583
X51.568 Z-10.718
X50.254 Z-11.088
X49.957 Z-11.154
X49.208 Z-10.886
X49.04 Z-10.849
X48.718 Z-10.798
X48.139 Z-10.747
X47.042 Z-10.741
X45.968 Z-10.86
X45.602 Z-10.886
X45.477 Z-10.875
X45.421 Z-10.276
X45.268 Z-9.781
X45.05 Z-9.414
X44.877 Z-9.225
X44.632 Z-9.045
X44.349 Z-8.907
X44.04 Z-8.826
X43.638 Z-8.802
X43.231 Z-8.86
X42.942 Z-8.948
X42.433 Z-9.238
X41.162 Z-10.057
X40.271 Z-10.752
X39.406 Z-11.487
X38.997 Z-11.737
X38.64 Z-11.934
X38.265 Z-12.238
X38.029 Z-12.52
X37.646 Z-13.156
X37.306 Z-13.839
X36.973 Z-14.365
X36.217 Z-15.433
X35.677 Z-16.279
X35.323 Z-17.036
X34.985 Z-17.96
X34.885 Z-18.282
X34.69 Z-19.112
X34.637 Z-19.646
X34.63 Z-23.797
X33.345 Z-23.895
X32.205 Z-24.067
X31.59 Z-24.235
X31.364 Z-24.298
X30.765 Z-24.213
X29.734 Z-24.25
X28.472 Z-24.427
X28.076 Z-24.504
X27.58 Z-24.37
X27.26 Z-24.296
X26.936 Z-24.237
X26.61 Z-24.195
X25.441 Z-24.109
X23.971 Z-24.022
X23.381 Z-24.026
X22.854 Z-24.097
X21.968 Z-24.295
X21.524 Z-24.446
X21.192 Z-24.586
X19.714 Z-25.043
X19.159 Z-25.278
X18.512 Z-25.676
X18.071 Z-26.055
X17.725 Z-26.473
X17.541 Z-26.799
X17.093 Z-27.056
X16.563 Z-27.468
X16.386 Z-27.454
X15.982 Z-27.19
X15.388 Z-26.918
X14.924 Z-26.765
X14.719 Z-26.714
X14.412 Z-26.55
X14.066 Z-26.456
X13.781 Z-26.418
X13.326 Z-26.405
X12.821 Z-26.474
X12.574 Z-26.499
X12.045 Z-26.395
X11.437 Z-26.221
X10.949 Z-26.179
X10.465 Z-26.246
X8.972 Z-26.696
X8.335 Z-26.988
X8.095 Z-27.049
X7.535 Z-27.069
X7.074 Z-27.052
X6.679 Z-27.109
X5.629 Z-27.432
X5.364 Z-27.441
X4.894 Z-27.421
X4.196 Z-27.554
X2.191 Z-28.204
X2.072 Z-28.196
X2.003 Z-28.18
X1.999
X1.947 Y2.885 Z-28.179
X1.899 Y2.902 Z-28.176
X1.855 Y2.929 Z-28.172
X1.819 Y2.965 Z-28.167
X1.792 Y3.008 Z-28.16
X1.775 Y3.056 Z-28.153
X1.769 Y3.106 Z-28.145
X1.775 Y3.157 Z-28.137
X1.792 Y3.205 Z-28.13
X1.819 Y3.248 Z-28.123
X1.855 Y3.283 Z-28.118
X1.899 Y3.31 Z-28.114
X1.947 Y3.327 Z-28.111
X1.999 Y3.333 Z-28.11
X2.068 Z-28.126
X2.197 Z-28.131
X3.528 Z-27.602
X4.617 Z-27.314
X5.131 Z-27.29
X5.786 Z-27.384
X6.152 Z-27.235
X6.723 Z-27.033
X7.227 Z-26.981
X8.012 Z-26.891
X8.181 Z-26.798
X9.01 Z-26.448
X9.7 Z-26.259
X10.372 Z-26.079
X10.771 Z-26.022
X11.708 Z-26.038
X12.626 Z-26.217
X13.151 Z-26.11
X13.818 Z-26.095
X14.052 Z-26.142
X14.651 Z-26.378
X14.979 Z-26.604
X16.063 Z-27.27
X16.436 Z-27.343
X16.631 Z-27.18
X16.974 Z-26.941
X17.249 Z-26.798
X17.333 Z-26.658
X17.537 Z-26.331
X17.748 Z-26.077
X18.18 Z-25.711
X18.623 Z-25.413
X19.058 Z-25.193
X19.756 Z-24.915
X20.27 Z-24.834
X20.598 Z-24.741
X21.287 Z-24.414
X21.862 Z-24.244
X22.946 Z-24.089
X24.296 Z-24.078
X25.773 Z-24.179
X26.715 Z-24.303
X27.635 Z-24.535
X28.549 Z-24.385
X29.772 Z-24.25
X30.776 Z-24.234
X31.19 Z-24.32
X31.46 Z-24.227
X31.981 Z-24.122
X32.887 Z-23.994
X33.86 Z-23.91
X34.505 Z-23.816
X34.51 Z-19.769
X34.568 Z-18.983
X34.774 Z-18.048
X34.868 Z-17.735
X35.043 Z-17.218
X35.398 Z-16.408
X35.866 Z-15.605
X36.165 Z-15.214
X36.981 Z-14.066
X37.722 Z-12.857
X37.903 Z-12.597
X38.169 Z-12.297
X38.554 Z-11.973
X39.148 Z-11.657
X39.46 Z-11.491
X40.064 Z-10.929
X40.818 Z-10.244
X41.53 Z-9.755
X42.851 Z-8.948
X43.23 Z-8.766
X43.741 Z-8.66
X44.07
X44.468 Z-8.74
X44.825 Z-8.892
X45.064 Z-9.072
X45.252 Z-9.288
X45.462 Z-9.673
X45.599 Z-10.118
X45.662 Z-10.72
X45.801 Z-10.73
X47.063 Z-10.56
X48.64 Z-10.48
X49.058 Z-10.497
X49.343 Z-10.529
X49.858 Z-10.658
X50.38 Z-10.88
X51.157 Z-10.701
X52.123 Z-10.55
X52.714 Z-10.537
X53.081 Z-10.576
X54.3 Z-10.894
X54.624 Z-10.734
X55.015 Z-10.588
X55.509 Z-10.538
X55.831 Z-10.572
X56.284 Z-10.727
X56.545 Z-10.884
X56.716 Z-10.41
X56.854 Z-10.093
X57.117 Z-9.656
X57.486 Z-9.239
X57.81 Z-9.015
X58.124 Z-8.886
X58.525 Z-8.779
X58.858 Z-8.772
X59.847 Z-8.898
X60.905 Z-8.822
X63.322 Z-8.707
X65.227 Z-8.556
X66.196 Z-8.367
X67.021 Z-8.088
X67.599 Z-7.897
X68.212 Z-7.807
X68.617 Z-7.832
X69.004 Z-7.941
X69.413 Z-8.163
X69.76 Z-8.475
X69.996 Z-8.813
X70.158 Z-9.25
X70.261 Z-9.775
X70.376 Z-11.1
X70.522 Z-11.523
X70.797 Z-12.095
X71.515 Z-12.021
X71.806 Z-11.964
X72.358 Z-11.885
X73.357 Z-11.759
X74.315 Z-11.72
X74.974 Z-11.813
X75.752 Z-12.039
X76.434 Z-12.396
X77.03 Z-12.322
X77.799 Z-12.327
X78.228 Z-12.235
X78.781 Z-12.114
X79.495 Z-12.042
X80.014 Z-12.084
X80.754 Z-12.122
X81.509 Z-12.067
X82.087 Z-12.097
X82.224 Z-12.102
X82.747 Z-12.094
X83.063 Z-12.159
X83.559 Z-12.362
X84.069 Z-12.557
X84.324 Z-12.721
X84.602 Z-12.985
X84.881 Z-13.225
X85.13 Z-13.5
X85.266 Z-13.739
X85.345 Z-13.961
X85.411 Z-14.355
X85.492 Z-14.413
X85.966 Z-14.844
X86.337 Z-15.07
X86.491 Z-15.08
X86.678 Z-14.94
X87.268 Z-14.594
X87.975 Z-14.331
X88.655 Z-14.22
X89.237 Z-14.217
X89.886 Z-14.309
X90.805 Z-14.619
X92.798 Z-15.491
X93.077 Z-15.639
X93.561 Z-15.893
X94.119 Z-16.352
X94.561 Z-16.857
X94.703 Z-17.09
X94.911 Z-17.612
X95.07 Z-17.797
X95.351 Z-18.029
X95.678 Z-18.07
X96.365 Z-18.189
X97.1 Z-18.438
X97.765 Z-18.81
X98.413 Z-19.296
X99.174 Z-19.846
X99.77 Z-20.169
X100.463 Z-20.44
X101.479 Z-20.75
X102.258 Z-20.903
X103.507 Z-21.21
X103.981 Z-21.35
X104.932 Z-21.722
X105.604 Z-22.116
X105.734 Z-22.207
X106.279 Z-22.677
X106.63 Z-23.097
X106.996 Z-23.68
X107.652 Z-25.237
X107.733 Z-25.23
X108.449 Z-25.195
X108.504 Z-25.163
X108.812 Z-24.959
X109.975 Z-24.375
X110.757 Z-24.11
X111.122 Z-24.074
X111.945 Z-24.128
X112.466 Z-24.055
X112.956 Z-24.034
X113.774 Z-24.111
X115.001 Z-24.468
X115.294 Z-24.492
X115.944 Z-24.602
X117.322 Z-24.948
X118.556 Z-25.19
X119.21 Z-25.266
X120.331 Z-25.29
X124.843 Z-25.458
X125.953 Z-25.657
X126.382 Z-25.633
X127.564 Z-25.613
X128.644 Z-25.703
X129.516 Z-25.849
X130.256 Z-26.086
X130.785 Z-26.166
X131.551 Z-26.381
X132.007 Z-26.566
X132.631 Z-26.885
X132.756 Z-26.819
X133.266 Z-26.627
X133.803 Z-26.542
X134.413 Z-26.554
X134.813 Z-26.434
X135.28 Z-26.313
X135.947 Z-26.16
X136.346 Z-25.988
X136.841 Z-25.91
X137.408 Z-25.938
X138.007 Z-25.875
X138.901 Z-25.841
X139.398 Z-25.862
X139.558 Z-25.884
X140.049 Z-26.029
X140.173 Z-25.983
X140.714 Z-25.835
X141.405 Z-25.784
X141.903 Z-25.806
X142.219 Z-25.87
X142.578 Z-26.033
X143.134 Z-26.431
X143.29 Z-26.494
X143.706 Z-26.717
X144.005 Z-26.964
X144.279 Z-27.309
X144.549 Z-27.875
X145.012 Z-27.94
X145.56 Z-28.109
X146.022 Z-28.282
X146.552 Z-28.52
X146.833 Z-28.357
X147.297 Z-28.191
X147.695 Z-28.155
X147.751 Z-28.14
X147.761 Z-28.135
X147.831 Z-28.118
X147.851
X148.078 Y3.56
X147.851 Y3.786
X147.781 Z-28.135
X147.725 Z-28.15
X147.696 Z-28.153
X147.299 Z-28.188
X146.869 Z-28.338
X146.569 Z-28.51
X146.242 Z-28.34
X145.943 Z-28.205
X145.215 Z-27.929
X144.944 Z-27.821
X144.625 Z-27.775
X144.455 Z-27.771
X144.074 Z-27.527
X143.884 Z-27.234
X143.557 Z-26.886
X143.322 Z-26.679
X142.99 Z-26.31
X142.613 Z-26.03
X142.335 Z-25.888
X141.936 Z-25.788
X141.547 Z-25.756
X140.799 Z-25.843
X140.141 Z-26.024
X140.111 Z-26.027
X139.687 Z-25.875
X139.205 Z-25.807
X137.277 Z-25.856
X136.744 Z-25.861
X136.297 Z-25.952
X135.794 Z-26.148
X134.861 Z-26.368
X134.403 Z-26.555
X134.33 Z-26.582
X133.753
X133.374 Z-26.654
X133.006 Z-26.778
X132.29 Z-26.409
X131.693 Z-26.205
X131.132 Z-26.086
X130.765 Z-26.036
X130.223 Z-25.798
X129.202 Z-25.638
X128.289 Z-25.573
X127.554 Z-25.582
X127.053 Z-25.612
X126.397 Z-25.486
X124.901 Z-25.358
X123.416 Z-25.317
X120.631 Z-25.229
X119.785 Z-25.237
X118.567 Z-25.1
X117.146 Z-24.839
X115.854 Z-24.525
X115.23 Z-24.447
X114.902 Z-24.451
X114.469 Z-24.34
X113.863 Z-24.187
X113.413 Z-24.131
X112.679 Z-24.133
X112.51 Z-24.126
X112.146 Z-24.108
X111.722 Z-24.141
X111.384 Z-24.103
X110.825 Z-24.152
X110.462 Z-24.265
X109.786 Z-24.583
X109.105 Z-24.977
X108.756 Z-25.202
X107.97 Z-25.245
X107.93 Z-25.249
X107.307 Z-23.717
X106.981 Z-23.133
X106.618 Z-22.66
X106.219 Z-22.283
X105.702 Z-21.899
X105.282 Z-21.659
X104.761 Z-21.413
X103.763 Z-21.025
X102.049 Z-20.557
X101.284 Z-20.34
X100.141 Z-19.89
X99.313 Z-19.476
X98.814 Z-19.173
X97.621 Z-18.579
X97.122 Z-18.392
X96.42 Z-18.245
X95.901 Z-18.217
X95.516 Z-18.234
X95.383 Z-17.793
X95.065 Z-17.177
X94.647 Z-16.576
X94.119 Z-16.1
X93.58 Z-15.73
X93.148 Z-15.504
X92.682 Z-15.341
X91.507 Z-14.909
X90.55 Z-14.604
X89.827 Z-14.445
X89.198 Z-14.423
X88.471 Z-14.516
X87.821 Z-14.718
X87.421 Z-14.93
X87.03 Z-15.177
X86.692 Z-15.154
X86.39 Z-14.907
X85.988 Z-14.681
X85.508 Z-14.509
X85.429 Z-14.465
X85.102 Z-14.218
X85.018 Z-13.817
X84.91 Z-13.441
X84.694 Z-13.071
X84.387 Z-12.749
X84.136 Z-12.573
X83.848 Z-12.447
X83.408 Z-12.364
X83.358 Z-12.352
X83.089 Z-12.227
X82.777 Z-12.154
X82.38 Z-12.135
X81.987 Z-12.02
X81.533 Z-11.99
X80.753 Z-12.078
X80.449 Z-11.995
X79.993 Z-11.978
X79.481 Z-11.955
X78.813 Z-12.011
X78.341 Z-12.033
X77.803 Z-12.071
X77.419 Z-12.192
X77.383 Z-12.204
X76.095 Z-12.207
X75.63 Z-12.273
X75.334 Z-12.147
X74.578 Z-11.927
X73.938 Z-11.862
X72.924 Z-11.881
X71.149 Z-12.09
X70.738 Z-12.16
X70.488 Z-12.153
X70.337 Z-11.834
X70.157 Z-11.271
X70.097 Z-10.735
X70.045 Z-9.655
X69.922 Z-9.096
X69.786 Z-8.781
X69.535 Z-8.451
X69.171 Z-8.136
X68.755 Z-7.924
X68.28 Z-7.815
X67.902 Z-7.794
X67.324 Z-7.9
X66.545 Z-8.161
X65.922 Z-8.365
X64.987 Z-8.549
X62.892 Z-8.728
X60.726 Z-8.855
X59.5 Z-8.957
X58.897 Z-8.892
X58.523 Z-8.914
X58.122 Z-9.003
X57.774 Z-9.17
X57.452 Z-9.401
X57.227 Z-9.62
X57.005 Z-9.943
X56.716 Z-10.545
X56.636 Z-10.763
X56.244 Z-10.548
X55.939 Z-10.455
X55.529 Z-10.43
X55.129 Z-10.472
X54.699 Z-10.627
X54.323 Z-10.776
X54.032 Z-10.757
X53.345 Z-10.598
X53.022 Z-10.538
X52.694 Z-10.503
X52.024 Z-10.481
X51.095 Z-10.578
X50.88 Z-10.625
X50.569 Z-10.458
X50.275 Z-10.342
X49.958 Z-10.251
X49.439 Z-10.18
X48.726 Z-10.202
X46.842 Z-10.43
X45.992 Z-10.578
X45.844 Z-10.571
X45.782 Z-9.924
X45.703 Z-9.593
X45.59 Z-9.354
X45.309 Z-8.997
X45.073 Z-8.794
X44.802 Z-8.649
X44.338 Z-8.533
X43.97 Z-8.513
X43.529 Z-8.59
X43.242 Z-8.688
X42.843 Z-8.926
X42.356 Z-9.26
X41.32 Z-9.825
X41.015 Z-10.045
X40.666 Z-10.341
X40.092 Z-10.945
X39.625 Z-11.473
X39.495 Z-11.581
X38.927 Z-11.763
X38.65 Z-11.893
X38.393 Z-12.069
X38.016 Z-12.385
X37.63 Z-12.841
X36.323 Z-14.828
X35.615 Z-15.8
X35.071 Z-16.771
X34.75 Z-17.585
X34.534 Z-18.534
X34.44 Z-19.313
X34.423 Z-23.761
X33.251 Z-23.895
X32.481 Z-23.998
X32.071 Z-24.134
X31.932 Z-24.194
X31.454 Z-24.264
X31.029 Z-24.392
X30.559 Z-24.315
X29.717 Z-24.312
X28.426 Z-24.397
X27.216 Z-24.572
X26.584 Z-24.39
X25.94 Z-24.255
X24.958 Z-24.124
X23.851 Z-24.075
X22.702 Z-24.11
X22.023 Z-24.167
X21.482 Z-24.263
X21.195 Z-24.355
X20.769 Z-24.551
X20.361 Z-24.815
X19.966 Z-24.841
X19.49 Z-24.937
X18.953 Z-25.117
X18.413 Z-25.387
X17.636 Z-25.908
X17.408 Z-26.13
X17.119 Z-26.522
X16.981 Z-26.773
X16.597 Z-26.983
X16.263 Z-27.239
X15.925 Z-27.17
X15.43 Z-26.757
X14.664 Z-26.184
X14.303 Z-26.025
X13.912 Z-25.907
X13.508 Z-25.871
X12.978 Z-25.924
X12.749 Z-25.963
X11.758 Z-25.83
X11.083 Z-25.841
X9.879 Z-26.092
X9.404 Z-26.166
X8.696 Z-26.416
X8.01 Z-26.762
X7.843 Z-26.844
X6.59 Z-27.103
X6.171 Z-27.269
X5.965 Z-27.371
X5.135 Z-27.245
X4.586 Z-27.276
X3.788 Z-27.437
X3.254 Z-27.63
X2.198 Z-28.134
X2.06 Z-28.133
X1.99 Z-28.117
X1.986
X1.936 Y3.792
X1.888 Y3.809 Z-28.119
X1.844 Y3.836 Z-28.122
X1.808 Y3.872 Z-28.125
X1.781 Y3.915 Z-28.13
X1.764 Y3.963 Z-28.134
X1.759 Y4.013 Z-28.139
X1.764 Y4.064 Z-28.144
X1.781 Y4.112 Z-28.149
X1.808 Y4.155 Z-28.153
X1.844 Y4.191 Z-28.157
X1.888 Y4.218 Z-28.16
X1.936 Y4.234 Z-28.161
X1.986 Y4.24 Z-28.162
X2.056 Z-28.178
X2.199 Z-28.177
X2.998 Z-27.767
X3.759 Z-27.44
X4.566 Z-27.301
X5.18 Z-27.266
X6.127 Z-27.399
X6.314 Z-27.309
X6.874 Z-27.086
X7.749 Z-26.888
X7.902 Z-26.807
X8.786 Z-26.328
X9.391 Z-26.121
X10.163 Z-26.013
X11.205 Z-25.755
X11.95 Z-25.692
X12.987 Z-25.773
X13.331 Z-25.738
X13.578 Z-25.751
X13.977 Z-25.827
X14.472 Z-26.017
X14.851 Z-26.228
X15.837 Z-27.011
X16.111 Z-27.108
X16.362 Z-26.929
X16.766 Z-26.737
X16.968 Z-26.375
X17.17 Z-26.121
X17.495 Z-25.831
X17.958 Z-25.516
X19.013 Z-25.043
X19.377 Z-24.947
X20.08 Z-24.857
X20.255 Z-24.714
X20.65 Z-24.482
X21.142 Z-24.291
X21.651 Z-24.178
X21.946 Z-24.144
X23.346 Z-24.077
X23.763 Z-24.141
X23.957 Z-24.106
X24.76 Z-24.111
X25.579 Z-24.249
X26.219 Z-24.406
X26.832 Z-24.608
X27.425 Z-24.533
X29.336 Z-24.426
X31.089 Z-24.444
X31.378 Z-24.375
X32.076 Z-24.107
X32.511 Z-23.995
X32.805 Z-23.941
X34.385 Z-23.757
X34.397 Z-19.18
X34.473 Z-18.345
X34.629 Z-17.652
X34.813 Z-17.164
X35.254 Z-16.336
X35.752 Z-15.585
X36.348 Z-14.77
X36.79 Z-13.972
X37.179 Z-13.294
X37.663 Z-12.693
X38.284 Z-12.119
X38.746 Z-11.85
X39.106 Z-11.729
X39.663 Z-11.649
X40.166 Z-10.925
X40.452 Z-10.569
X40.715 Z-10.287
X41.121 Z-9.931
X41.552 Z-9.643
X42.485 Z-9.179
X42.961 Z-8.832
X43.499 Z-8.522
X43.769 Z-8.438
X44.232 Z-8.38
X44.561 Z-8.406
X44.869 Z-8.483
X45.146 Z-8.62
X45.394 Z-8.815
X45.701 Z-9.149
X45.835 Z-9.388
X45.978 Z-9.874
X46.02 Z-10.42
X46.227 Z-10.426
X46.797 Z-10.294
X47.934 Z-10.124
X49.135 Z-9.894
X49.932 Z-9.858
X50.53 Z-9.981
X51.106 Z-10.213
X51.477 Z-10.45
X51.616 Z-10.436
X52.175 Z-10.397
X52.758 Z-10.447
X53.909 Z-10.703
X54.2 Z-10.709
X54.38 Z-10.675
X55.087 Z-10.405
X55.475 Z-10.33
X55.97 Z-10.349
X56.278 Z-10.434
X56.707 Z-10.654
X56.74 Z-10.583
X57.022 Z-10.066
X57.299 Z-9.709
X57.609 Z-9.442
X58.061 Z-9.193
X58.496 Z-9.069
X59.052 Z-9.03
X60.217 Z-8.926
X62.69 Z-8.761
X64.8 Z-8.553
X65.731 Z-8.34
X66.882 Z-7.937
X67.502 Z-7.781
X67.835 Z-7.775
X68.264 Z-7.828
X68.686 Z-7.963
X69.016 Z-8.162
X69.415 Z-8.537
X69.584 Z-8.767
X69.716 Z-9.059
X69.83 Z-9.593
X69.881 Z-11.186
X69.977 Z-11.666
X70.164 Z-12.172
X70.459 Z-12.143
X72.362 Z-12.083
X73.394 Z-12.084
X73.89 Z-12.115
X74.524 Z-12.249
X75.761 Z-12.076
X76.352 Z-12.056
X76.755 Z-12.113
X77.124 Z-12.158
X77.209 Z-12.123
X77.585 Z-11.992
X77.956 Z-11.943
X78.515 Z-11.957
X78.717 Z-11.908
X79.222 Z-11.869
X79.885 Z-11.909
X80.561 Z-11.891
X80.927 Z-11.923
X81.969 Z-12.044
X82.354 Z-12.16
X82.698 Z-12.346
X82.76 Z-12.358
X83.12 Z-12.46
X83.318 Z-12.456
X83.719 Z-12.503
X84.014 Z-12.61
X84.347 Z-12.821
X84.624 Z-13.079
X84.842 Z-13.424
X84.97 Z-13.804
X85.02 Z-14.233
X85.147 Z-14.333
X85.251 Z-14.346
X85.841 Z-14.515
X86.502 Z-14.883
X86.943 Z-15.248
X87.541 Z-15.293
X87.618 Z-15.246
X87.857 Z-15.047
X88.125 Z-14.887
X88.416 Z-14.788
X88.801 Z-14.758
X89.286 Z-14.682
X89.623 Z-14.655
X90.206 Z-14.69
X91.257 Z-14.899
X92.523 Z-15.274
X93.373 Z-15.58
X93.875 Z-15.833
X94.535 Z-16.31
X95.087 Z-16.836
X95.567 Z-17.433
X95.834 Z-17.894
X96.007 Z-18.327
X96.566 Z-18.313
X97.223 Z-18.383
X97.776 Z-18.534
X98.605 Z-18.842
X100.392 Z-19.701
X101.631 Z-20.209
X103.327 Z-20.702
X104.265 Z-21.013
X105.022 Z-21.329
X105.462 Z-21.546
X105.984 Z-21.858
X106.402 Z-22.177
X106.643 Z-22.394
X106.853 Z-22.62
X107.059 Z-22.877
X107.255 Z-23.148
X107.554 Z-23.702
X108.163 Z-25.254
X108.393 Z-25.229
X109.141 Z-25.221
X109.176 Z-25.194
X110.016 Z-24.68
X110.377 Z-24.455
X110.947 Z-24.28
X111.532 Z-24.25
X111.867 Z-24.205
X112.352 Z-24.176
X113.156 Z-24.328
X113.513 Z-24.332
X114.422 Z-24.455
X114.83 Z-24.529
X115.183 Z-24.516
X115.843 Z-24.566
X116.97 Z-24.787
X118.76 Z-25.043
X120.388 Z-25.183
X122.167 Z-25.185
X123.494 Z-25.256
X125.808 Z-25.322
X126.769 Z-25.385
X127.901 Z-25.568
X128.965 Z-25.521
X129.677 Z-25.572
X130.526 Z-25.721
X131.241 Z-25.98
X131.643 Z-26.025
X132.202 Z-26.146
X132.812 Z-26.375
X133.247 Z-26.606
X133.514 Z-26.768
X133.809 Z-26.729
X134.239 Z-26.732
X134.451 Z-26.613
X134.903 Z-26.42
X135.797 Z-26.175
X136.214 Z-26.01
X136.617 Z-25.909
X137.138 Z-25.876
X137.842 Z-25.852
X139.23 Z-25.881
X139.714 Z-25.961
X140.145 Z-26.138
X140.237 Z-26.108
X140.805 Z-25.985
X141.066 Z-25.897
X141.36 Z-25.841
X141.836 Z-25.851
X142.227 Z-25.947
X142.586 Z-26.123
X142.959 Z-26.412
X143.259 Z-26.799
X143.507 Z-27.113
X143.567 Z-27.154
X143.898 Z-27.397
X144.269 Z-27.554
X144.623 Z-27.533
X145.005 Z-27.584
X145.3 Z-27.698
X145.557 Z-27.865
X145.769 Z-28.073
X145.867 Z-28.122
X146.581 Z-28.492
X146.873 Z-28.329
X147.302 Z-28.186
X147.697 Z-28.151
X147.753 Z-28.135
X147.764 Z-28.13
X147.834 Z-28.114
X147.855
X148.082 Y4.467
X147.855 Y4.694
X147.785 Z-28.13
X147.729 Z-28.146
X147.7 Z-28.148
X147.306 Z-28.184
X146.876 Z-28.323
X146.605 Z-28.478
X146.076 Z-28.169
X145.855 Z-28.042
X145.659 Z-27.839
X145.41 Z-27.661
X145.045 Z-27.507
X144.81 Z-27.459
X144.481 Z-27.451
X144.116 Z-27.508
X143.889 Z-27.27
X143.494 Z-27.01
X142.995 Z-26.806
X142.722 Z-26.496
X142.471 Z-26.308
X142.032 Z-26.12
X141.716 Z-26.054
X141.385 Z-26.057
X141.046 Z-26.134
X140.707 Z-26.273
X140.19 Z-26.421
X139.849 Z-26.227
X139.334 Z-26.085
X138.514 Z-25.97
X137.471 Z-25.983
X137.139 Z-26.006
X136.599 Z-26.035
X136.233 Z-26.126
X135.808 Z-26.292
X135.481 Z-26.367
X134.786 Z-26.648
X134.217 Z-26.989
X133.713 Z-26.6
X133.164 Z-26.279
X132.619 Z-26.077
X132.075 Z-25.942
X131.613 Z-25.9
X131.044 Z-25.683
X130.36 Z-25.533
X129.491 Z-25.463
X128.752 Z-25.501
X128.26 Z-25.375
X127.771 Z-25.321
X126.113 Z-25.273
X124.848 Z-25.281
X123.645 Z-25.147
X122.041 Z-25.141
X121.282 Z-25.163
X120.799 Z-25.079
X119.783 Z-25.068
X116.483 Z-24.793
X115.37 Z-24.67
X115.032 Z-24.686
X114.416 Z-24.678
X114.23 Z-24.694
X113.702 Z-24.665
X113.411 Z-24.543
X112.525 Z-24.346
X112.119 Z-24.336
X111.245 Z-24.478
X110.875 Z-24.553
X110.487 Z-24.693
X110.059 Z-24.993
X109.703 Z-25.257
X109.446 Z-25.286
X109.003 Z-25.254
X108.401 Z-25.3
X108.386 Z-25.299
X107.866 Z-23.943
X107.627 Z-23.409
X107.273 Z-22.858
X106.874 Z-22.391
X106.364 Z-21.947
X105.831 Z-21.589
X105.256 Z-21.277
X104.66 Z-21.017
X103.124 Z-20.536
X102.059 Z-20.221
X101.124 Z-19.852
X99.214 Z-18.946
X98.526 Z-18.676
X97.57 Z-18.44
X97.08 Z-18.393
X96.505 Z-18.4
X96.322 Z-18.001
X95.927 Z-17.428
X95.454 Z-16.946
X94.907 Z-16.493
X94.149 Z-15.996
X93.36 Z-15.618
X92.557 Z-15.359
X91.546 Z-15.119
X90.405 Z-14.941
X89.813 Z-14.931
X89.56 Z-14.757
X89.27 Z-14.635
X88.83 Z-14.562
X88.458 Z-14.575
X88.031 Z-14.701
X87.726 Z-14.874
X87.357 Z-15.218
X87.26 Z-15.34
X87.154 Z-15.323
X86.931 Z-15.115
X86.374 Z-14.79
X85.596 Z-14.386
X85.213 Z-14.272
X84.947 Z-14.225
X84.927 Z-13.853
X84.84 Z-13.51
X84.652 Z-13.167
X84.396 Z-12.896
X84.075 Z-12.676
X83.634 Z-12.501
X83.313 Z-12.456
X82.828 Z-12.497
X82.692 Z-12.533
X82.409 Z-12.344
X81.667 Z-12.046
X81.262 Z-11.883
X80.719 Z-11.8
X79.941 Z-11.785
X78.844 Z-11.793
X78.484 Z-11.849
X77.85 Z-11.883
X77.583 Z-11.925
X77.081 Z-11.906
X76.574 Z-11.937
X76.299 Z-11.996
X75.301 Z-12.011
X74.13 Z-12.083
X73.454 Z-12.177
X72.873 Z-12.319
X72.724 Z-12.375
X71.504 Z-12.232
X70.388 Z-12.129
X69.832 Z-12.135
X69.667 Z-11.551
X69.633 Z-11.277
X69.615 Z-9.646
X69.53 Z-9.186
X69.397 Z-8.828
X69.182 Z-8.494
X68.974 Z-8.278
X68.537 Z-7.981
X68.151 Z-7.831
X67.719 Z-7.755
X67.201 Z-7.762
X66.693 Z-7.894
X65.478 Z-8.342
X64.68 Z-8.549
X63.533 Z-8.714
X61.652 Z-8.872
X59.626 Z-9.02
X58.49 Z-9.192
X57.993 Z-9.357
X57.586 Z-9.591
X57.243 Z-9.883
X57.134 Z-10.005
X56.813 Z-10.456
X56.751 Z-10.567
X56.299 Z-10.352
X55.987 Z-10.276
X55.594 Z-10.269
X55.049 Z-10.366
X54.237 Z-10.668
X53.886 Z-10.695
X53.423 Z-10.549
X52.749 Z-10.368
X52.319 Z-10.353
X52.048 Z-10.363
X51.636 Z-10.024
X51.217 Z-9.807
X50.672 Z-9.652
X50.1 Z-9.592
X49.454 Z-9.633
X48.295 Z-9.914
X47.055 Z-10.093
X46.259 Z-10.274
X46.191 Z-10.269
X46.13 Z-9.718
X46.032 Z-9.326
X45.919 Z-9.085
X45.752 Z-8.856
X45.531 Z-8.655
X45.125 Z-8.408
X44.738 Z-8.29
X44.342 Z-8.254
X43.895 Z-8.317
X43.497 Z-8.477
X43.085 Z-8.736
X42.651 Z-9.082
X41.786 Z-9.473
X41.21 Z-9.842
X41.033 Z-9.989
X40.804 Z-10.204
X40.603 Z-10.426
X40.412 Z-10.665
X40.241 Z-10.908
X39.89 Z-11.526
X39.757 Z-11.792
X39.335 Z-11.795
X38.902 Z-11.868
X38.468 Z-12.044
X37.961 Z-12.37
X37.397 Z-12.891
X37.01 Z-13.446
X36.69 Z-14.11
X36.394 Z-14.847
X36.048 Z-15.365
X35.516 Z-16.066
X34.804 Z-17.108
X34.619 Z-17.488
X34.441 Z-18.117
X34.383 Z-18.647
X34.368 Z-19.017
Z-23.8
X32.756 Z-23.938
X31.841 Z-24.075
X30.932 Z-24.268
X30.35 Z-24.327
X28.688 Z-24.402
X27.385 Z-24.532
X26.7 Z-24.609
X26.476 Z-24.636
X25.912 Z-24.425
X25.31 Z-24.251
X24.418 Z-24.091
X23.925 Z-24.109
X23.554 Z-24.161
X23.092 Z-24.129
X22.875 Z-24.133
X22.076 Z-24.118
X21.258 Z-24.19
X20.644 Z-24.355
X20.23 Z-24.545
X19.913 Z-24.748
X19.713 Z-24.934
X19.144 Z-25.015
X18.982 Z-25.044
X18.704 Z-25.069
X18.051 Z-25.269
X17.815 Z-25.375
X17.169 Z-25.855
X16.873 Z-26.141
X16.736 Z-26.3
X16.559 Z-26.612
X16.508 Z-26.718
X16.102 Z-26.916
X15.958 Z-27.011
X15.731 Z-26.93
X14.761 Z-26.176
X14.042 Z-25.805
X13.574 Z-25.697
X12.685 Z-25.603
X12.01 Z-25.615
X11.387 Z-25.695
X10.206 Z-26.06
X9.624 Z-26.104
X9.207 Z-26.222
X8.622 Z-26.475
X8.191 Z-26.702
X7.597 Z-26.819
X6.487 Z-27.176
X5.984 Z-27.407
X5.881 Z-27.42
X5.305 Z-27.35
X4.551 Z-27.357
X4.077 Z-27.429
X3.715 Z-27.537
X3.132 Z-27.783
X2.199 Z-28.243
X2.059
X1.99 Z-28.227
X1.938 Y4.699 Z-28.228
X1.89 Y4.716 Z-28.23
X1.846 Y4.743 Z-28.235
X1.81 Y4.779 Z-28.24
X1.783 Y4.822 Z-28.247
X1.766 Y4.87 Z-28.255
X1.76 Y4.92 Z-28.263
X1.766 Y4.971 Z-28.271
X1.783 Y5.019 Z-28.279
X1.81 Y5.062 Z-28.286
X1.846 Y5.098 Z-28.292
X1.89 Y5.125 Z-28.296
X1.938 Y5.141 Z-28.299
X1.99 Y5.147 Z-28.3
X1.994
X2.064 Z-28.316
X2.2 Z-28.317
X3.771 Z-27.59
X4.343 Z-27.408
X4.785 Z-27.35
X5.88 Z-27.367
X6.393 Z-27.025
X6.689 Z-26.893
X7.455 Z-26.662
X7.914 Z-26.558
X8.758 Z-26.515
X9.209 Z-26.301
X9.632 Z-26.134
X10.13 Z-26.071
X10.626 Z-26.012
X11.326 Z-25.76
X11.903 Z-25.602
X12.618 Z-25.513
X13.191 Z-25.547
X13.941 Z-25.741
X14.336 Z-25.932
X14.936 Z-26.361
X15.324 Z-26.703
X15.595 Z-26.914
X15.752 Z-26.973
X15.901 Z-26.875
X16.282 Z-26.703
X16.483 Z-26.35
X16.957 Z-25.826
X17.353 Z-25.503
X18.03 Z-25.12
X18.391 Z-25.006
X18.998 Z-24.916
X19.488 Z-24.958
X19.768 Z-24.689
X20.151 Z-24.432
X20.435 Z-24.313
X21.115 Z-24.164
X21.834 Z-24.113
X22.761 Z-24.116
X23.149 Z-24.196
X23.452 Z-24.155
X24.326 Z-24.138
X24.895 Z-24.227
X25.41 Z-24.366
X25.99 Z-24.587
X26.408 Z-24.414
X26.84 Z-24.281
X27.646 Z-24.126
X29.258 Z-24.038
X30.77 Z-24.049
X32.076 Z-23.95
X34.356 Z-23.889
X34.375 Z-18.501
X34.451 Z-17.912
X34.537 Z-17.603
X34.743 Z-17.175
X35.077 Z-16.751
X35.522 Z-16.361
X35.648 Z-16.204
X35.903 Z-15.907
X36.245 Z-15.506
X36.463 Z-15.134
X36.557 Z-14.656
X36.694 Z-14.12
X36.973 Z-13.472
X37.251 Z-13.031
X37.585 Z-12.652
X38.082 Z-12.279
X38.442 Z-12.103
X38.82 Z-12.003
X39.341 Z-11.955
X39.792 Z-12.015
X40.047 Z-11.426
X40.387 Z-10.772
X40.772 Z-10.251
X41.102 Z-9.92
X41.292 Z-9.764
X41.853 Z-9.404
X42.707 Z-9.047
X42.931 Z-8.878
X43.421 Z-8.504
X43.827 Z-8.279
X44.245 Z-8.17
X44.764 Z-8.147
X45.157 Z-8.234
X45.514 Z-8.403
X45.753 Z-8.589
X45.954 Z-8.814
X46.154 Z-9.157
X46.269 Z-9.528
X46.35 Z-10.108
X46.4 Z-10.109
X47.144 Z-9.925
X47.438 Z-9.872
X48.233 Z-9.805
X49.498 Z-9.461
X50.202 Z-9.365
X50.868 Z-9.388
X51.396 Z-9.496
X51.888 Z-9.709
X52.366 Z-10.056
X52.633 Z-10.346
X52.85 Z-10.367
X53.246 Z-10.45
X53.9 Z-10.7
X54.196 Z-10.657
X54.941 Z-10.366
X55.342 Z-10.267
X55.888 Z-10.248
X56.327 Z-10.323
X56.741 Z-10.494
X56.993 Z-10.153
X57.311 Z-9.838
X57.708 Z-9.56
X57.98 Z-9.423
X58.262 Z-9.314
X58.553 Z-9.234
X58.847 Z-9.173
X59.289 Z-9.109
X62.262 Z-8.892
X63.667 Z-8.734
X64.643 Z-8.548
X65.273 Z-8.348
X66.476 Z-7.878
X66.895 Z-7.766
X67.361 Z-7.729
X67.785 Z-7.78
X68.278 Z-7.94
X68.618 Z-8.135
X68.844 Z-8.338
X69.103 Z-8.694
X69.297 Z-9.117
X69.388 Z-9.675
X69.398 Z-11.61
X69.444 Z-11.876
X69.515 Z-12.133
X70.134 Z-12.153
X70.824 Z-12.257
X71.449 Z-12.45
X72.223 Z-12.205
X73.062 Z-12.033
X74.003 Z-11.921
X74.653 Z-11.941
X75.972 Z-12.025
X76.11 Z-11.958
X76.542 Z-11.817
X77.269 Z-11.765
X78.153 Z-11.693
X78.676 Z-11.708
X79.431
X80.292 Z-11.698
X81.244 Z-11.835
X81.539 Z-11.946
X81.789 Z-12.1
X82.251 Z-12.533
X82.679 Z-12.397
X83.081 Z-12.333
X83.569 Z-12.368
X83.952 Z-12.489
X84.293 Z-12.68
X84.636 Z-12.982
X84.836 Z-13.255
X84.994 Z-13.587
X85.072 Z-13.893
X85.092 Z-14.189
X85.379 Z-14.3
X86.267 Z-14.763
X86.727 Z-14.955
X87.158 Z-15.17
X87.453 Z-14.888
X87.715 Z-14.722
X88.14 Z-14.564
X88.538 Z-14.492
X88.97 Z-14.496
X89.207 Z-14.544
X89.581 Z-14.686
X89.868 Z-14.875
X90.237 Z-15.246
X90.821 Z-15.275
X91.402 Z-15.327
X92.055 Z-15.422
X93.022 Z-15.627
X93.921 Z-15.928
X94.88 Z-16.396
X95.505 Z-16.785
X96.054 Z-17.2
X96.543 Z-17.695
X96.873 Z-18.151
X97.025 Z-18.466
X97.337 Z-18.468
X98.044 Z-18.523
X98.815 Z-18.7
X99.97 Z-19.191
X101.148 Z-19.793
X101.713 Z-20.053
X102.709 Z-20.41
X103.762 Z-20.7
X104.8 Z-21.
X105.441 Z-21.254
X106.223 Z-21.705
X106.774 Z-22.122
X107.014 Z-22.333
X107.305 Z-22.644
X107.611 Z-23.071
X107.766 Z-23.334
X107.912 Z-23.621
X108.149 Z-24.187
X108.599 Z-25.399
X108.631 Z-25.393
X109.268 Z-25.326
X109.738 Z-25.385
X110.117 Z-25.346
X110.266 Z-25.2
X110.645 Z-24.932
X110.93 Z-24.812
X111.56 Z-24.71
X112.104 Z-24.626
X112.435 Z-24.627
X113.085 Z-24.753
X113.432 Z-24.854
X113.796 Z-25.048
X114.36 Z-24.945
X115.035 Z-24.936
X115.357 Z-24.999
X115.481 Z-25.008
X116.025 Z-24.95
X116.327 Z-24.976
X117.005 Z-24.96
X117.572 Z-24.971
X119.623 Z-24.991
X120.499 Z-25.006
X121.167 Z-25.022
X121.506 Z-25.087
X122.163 Z-25.105
X123.26 Z-25.063
X125.924 Z-25.227
X127.141 Z-25.203
X128.112 Z-25.213
X128.642 Z-25.269
X129.172 Z-25.437
X129.247 Z-25.447
X130.04 Z-25.412
X130.744 Z-25.462
X131.428 Z-25.608
X132.002 Z-25.824
X132.21 Z-25.846
X133.094 Z-26.064
X133.541 Z-26.25
X133.968 Z-26.492
X134.222 Z-26.671
X134.701 Z-27.086
X134.844 Z-26.97
X135.154 Z-26.803
X135.548 Z-26.612
X136.01 Z-26.46
X136.293 Z-26.36
X136.663 Z-26.292
X137.164 Z-26.273
X137.826 Z-26.192
X138.51 Z-26.187
X138.828 Z-26.238
X139.635 Z-26.608
X140.24 Z-26.413
X140.657 Z-26.375
X140.976 Z-26.422
X141.327 Z-26.551
X141.511 Z-26.526
X141.893 Z-26.57
X141.963
X142.478 Z-26.557
X142.839 Z-26.626
X143.44 Z-26.859
X143.869 Z-27.134
X144.204 Z-27.124
X144.522 Z-27.18
X144.809 Z-27.301
X145.046 Z-27.473
X145.235 Z-27.547
X145.751 Z-27.818
X146.042 Z-28.082
X146.625 Z-28.458
X146.836 Z-28.347
X147.309 Z-28.182
X147.703 Z-28.147
X147.759 Z-28.131
X147.828 Z-28.115
X147.859
X148.086 Y5.374
X147.859 Y5.601
X147.789 Z-28.131
X147.767 Z-28.142
X147.706 Z-28.158
X147.368 Z-28.177
X146.937 Z-28.299
X146.65 Z-28.44
X146.224 Z-28.135
X145.83 Z-27.732
X145.428 Z-27.474
X145.245 Z-27.374
X144.991 Z-27.166
X144.713 Z-27.024
X144.324 Z-26.924
X144.079 Z-26.903
X143.741 Z-26.941
X143.641 Z-26.964
X143.213 Z-26.726
X142.798 Z-26.583
X142.099 Z-26.463
X141.588 Z-26.4
X141.436 Z-26.399
X140.992 Z-26.261
X140.486 Z-26.229
X140.151 Z-26.277
X139.864 Z-26.382
X139.456 Z-26.637
X139.016 Z-26.628
X138.666 Z-26.689
X138.266 Z-26.624
X137.613 Z-26.698
X137.211 Z-26.721
X136.76 Z-26.695
X136.308 Z-26.775
X135.752 Z-26.98
X135.488 Z-27.153
X135.279 Z-27.359
X134.889 Z-26.916
X134.368 Z-26.489
X133.869 Z-26.215
X133.268 Z-25.987
X132.661 Z-25.856
X132.547 Z-25.826
X131.828 Z-25.556
X131.148 Z-25.412
X130.571 Z-25.372
X129.856 Z-25.371
X129.143 Z-25.264
X128.438 Z-25.126
X127.428 Z-25.134
X126.854 Z-25.131
X124.738 Z-25.069
X123.313 Z-25.025
X122.098 Z-24.922
X121.263 Z-24.915
X120.877 Z-24.975
X120.205 Z-24.938
X117.631 Z-25.15
X117.366 Z-25.142
X117.041 Z-25.084
X116.74 Z-24.935
X116.371 Z-24.836
X116.043 Z-24.816
X115.727 Z-24.863
X115.259 Z-25.012
X115.182 Z-25.043
X114.695 Z-25.009
X113.968 Z-25.076
X113.456 Z-25.179
X113.262 Z-25.243
X113.018 Z-25.248
X112.573 Z-25.176
X111.401 Z-25.14
X111.023 Z-25.2
X110.736 Z-25.324
X110.533 Z-25.483
X110.146 Z-25.49
X109.876 Z-25.512
X109.495 Z-25.447
X109.026 Z-25.46
X108.784 Z-25.501
X108.201 Z-23.937
X107.823 Z-23.16
X107.522 Z-22.71
X107.263 Z-22.397
X106.905 Z-22.083
X106.651 Z-21.89
X106.243 Z-21.629
X105.661 Z-21.334
X104.748 Z-20.998
X103.223 Z-20.656
X102.617 Z-20.468
X101.787 Z-20.138
X101.165 Z-19.825
X100.151 Z-19.249
X99.245 Z-18.866
X98.701 Z-18.686
X98.138 Z-18.572
X97.574 Z-18.539
X97.342 Z-18.128
X97.017 Z-17.725
X96.613 Z-17.347
X95.973 Z-16.912
X95.178 Z-16.498
X94.09 Z-16.078
X93.133 Z-15.834
X92.237 Z-15.693
X91.236 Z-15.626
X90.854 Z-15.558
X90.55 Z-15.556
X90.332 Z-15.252
X89.93 Z-14.89
X89.442 Z-14.625
X88.977 Z-14.509
X88.651 Z-14.476
X88.02 Z-14.551
X87.728 Z-14.631
X87.449 Z-14.765
X87.053 Z-15.045
X86.333 Z-14.845
X85.797 Z-14.562
X85.384 Z-14.313
X85.209 Z-14.221
X85.145 Z-13.826
X85.033 Z-13.5
X84.813 Z-13.143
X84.525 Z-12.83
X84.133 Z-12.564
X83.689 Z-12.384
X83.207 Z-12.302
X82.644 Z-12.32
X82.13 Z-12.44
X82.073 Z-12.402
X81.881 Z-12.192
X81.638 Z-12.008
X81.356 Z-11.871
X80.875 Z-11.75
X80.394 Z-11.685
X79.762 Z-11.656
X78.785 Z-11.6
X78.24 Z-11.546
X77.372 Z-11.583
X76.957 Z-11.682
X76.452 Z-11.791
X76.029 Z-11.956
X75.767 Z-12.12
X74.709 Z-11.914
X73.931 Z-11.839
X72.749 Z-11.894
X71.863 Z-12.031
X70.673 Z-12.318
X70.541 Z-12.37
X69.926 Z-12.233
X69.227 Z-12.183
X69.195 Z-12.18
X69.157 Z-11.988
X69.143 Z-9.59
X69.058 Z-9.13
X68.889 Z-8.721
X68.664 Z-8.389
X68.316 Z-8.095
X67.898 Z-7.886
X67.426 Z-7.766
X66.924 Z-7.752
X66.444 Z-7.839
X65.916 Z-8.043
X64.891 Z-8.459
X64.26 Z-8.655
X63.293 Z-8.858
X61.979 Z-9.014
X58.795 Z-9.221
X58.23 Z-9.346
X57.674 Z-9.579
X57.173 Z-9.929
X56.769 Z-10.358
X56.696 Z-10.444
X56.259 Z-10.289
X55.752 Z-10.238
X55.386 Z-10.257
X54.875 Z-10.388
X54.122 Z-10.682
X53.965 Z-10.718
X53.535 Z-10.532
X53.258 Z-10.456
X52.938 Z-10.001
X52.696 Z-9.769
X52.331 Z-9.52
X51.904 Z-9.319
X51.347 Z-9.19
X50.763 Z-9.153
X50.051 Z-9.217
X49.267 Z-9.413
X48.422 Z-9.673
X47.743 Z-9.681
X47.181 Z-9.781
X46.522 Z-9.944
X46.498 Z-9.943
X46.422 Z-9.446
X46.264 Z-8.987
X46.081 Z-8.692
X45.764 Z-8.387
X45.389 Z-8.176
X45.044 Z-8.076
X44.638 Z-8.041
X44.188 Z-8.118
X43.797 Z-8.257
X43.467 Z-8.464
X42.872 Z-8.954
X41.843 Z-9.374
X41.346 Z-9.702
X40.985 Z-10.024
X40.634 Z-10.458
X40.461 Z-10.735
X40.317 Z-11.01
X39.968 Z-11.879
X39.83 Z-12.233
X39.448 Z-12.092
X39.13 Z-12.038
X38.691 Z-12.064
X38.354 Z-12.148
X37.977 Z-12.346
X37.686 Z-12.544
X37.355 Z-12.887
X37.012 Z-13.432
X36.808 Z-13.902
X36.67 Z-14.447
X36.618 Z-14.969
X36.611 Z-15.698
X36.458 Z-15.933
X36.322 Z-16.068
X36.244 Z-16.114
X35.987 Z-16.195
X35.706 Z-16.318
X35.258 Z-16.602
X34.966 Z-16.88
X34.727 Z-17.187
X34.55 Z-17.556
X34.43 Z-18.038
X34.388 Z-18.604
Z-24.031
X31.7 Z-23.882
X31.268 Z-23.896
X29.727 Z-23.81
X28.902 Z-23.773
X28.522 Z-23.811
X28.017 Z-23.795
X27.367 Z-23.863
X26.636 Z-24.013
X26.028 Z-24.196
X25.385 Z-24.468
X24.735 Z-24.265
X24.004 Z-24.154
X23.202 Z-24.151
X22.809 Z-24.178
X22.321 Z-24.116
X21.307 Z-24.125
X20.767 Z-24.189
X20.258 Z-24.316
X19.851 Z-24.538
X19.599 Z-24.711
X19.4 Z-24.9
X18.978 Z-24.857
X18.542 Z-24.896
X17.93 Z-25.078
X17.416 Z-25.319
X17.284 Z-25.399
X17.031 Z-25.581
X16.601 Z-25.955
X16.37 Z-26.222
X16.187 Z-26.522
X16.135 Z-26.635
X15.567 Z-26.927
X15.314 Z-26.737
X14.724 Z-26.21
X14.132 Z-25.82
X13.759 Z-25.68
X13.12 Z-25.526
X12.702 Z-25.481
X12.118 Z-25.556
X11.134 Z-25.914
X10.411 Z-26.073
X9.839 Z-26.174
X9.187 Z-26.417
X8.028 Z-26.47
X6.813 Z-26.757
X6.387 Z-26.955
X5.818 Z-27.325
X5.648 Z-27.334
X5.251 Z-27.259
X4.834 Z-27.262
X4.25 Z-27.41
X3.704 Z-27.664
X2.887 Z-28.092
X2.303 Z-28.33
X2.2 Z-28.337
X2.12 Z-28.322
X2.05 Z-28.305
X2.029
X1.802 Y5.828
X2.029 Y6.054
X2.099 Z-28.322
X2.123 Z-28.334
X2.197 Z-28.35
X2.429 Z-28.344
X2.733 Z-28.22
X3.801 Z-27.647
X4.414 Z-27.367
X4.878 Z-27.265
X5.334 Z-27.258
X5.684 Z-27.319
X6.518 Z-26.844
X6.892 Z-26.688
X7.351 Z-26.595
X8.556 Z-26.387
X9.062 Z-26.354
X9.527 Z-26.384
X9.93 Z-26.296
X11.37 Z-25.911
X12.069 Z-25.659
X12.677 Z-25.547
X13.006 Z-25.555
X13.795 Z-25.757
X13.914 Z-25.765
X14.396 Z-25.84
X14.682 Z-25.962
X15.158 Z-26.332
X15.372 Z-26.57
X15.54 Z-26.819
X15.952 Z-26.636
X16.011 Z-26.522
X16.313 Z-26.066
X16.692 Z-25.685
X17.062 Z-25.413
X17.326 Z-25.266
X17.745 Z-25.09
X18.266 Z-24.936
X18.806 Z-24.867
X19.349 Z-24.911
X19.505 Z-24.747
X19.812 Z-24.511
X20.153 Z-24.327
X20.441 Z-24.243
X20.965 Z-24.153
X21.725 Z-24.138
X22.223 Z-24.177
X22.546 Z-24.222
X23.05 Z-24.159
X23.332 Z-24.144
X24.141 Z-24.193
X24.835 Z-24.387
X26.163 Z-23.909
X26.999 Z-23.74
X27.756 Z-23.635
X28.563 Z-23.652
X29.082 Z-23.611
X29.643 Z-23.647
X31.27 Z-23.828
X31.929 Z-23.873
X34.157 Z-24.205
X34.428 Z-24.071
Z-18.318
X34.443 Z-18.106
X34.534 Z-17.7
X34.666 Z-17.34
X34.937 Z-16.911
X35.27 Z-16.597
X35.657 Z-16.335
X36.071 Z-16.143
X36.729 Z-15.962
X36.741 Z-14.515
X36.858 Z-13.932
X37.066 Z-13.388
X37.363 Z-12.923
X37.605 Z-12.636
X37.825 Z-12.465
X38.265 Z-12.224
X38.647 Z-12.126
X39.164 Z-12.101
X39.493 Z-12.164
X39.889 Z-12.33
X40.096 Z-11.763
X40.37 Z-11.012
X40.64 Z-10.489
X41.011 Z-9.99
X41.37 Z-9.655
X41.724 Z-9.409
X42.166 Z-9.199
X43.002 Z-8.887
X43.563 Z-8.415
X43.92 Z-8.182
X44.342 Z-8.014
X44.718 Z-7.952
X45.131 Z-7.974
X45.588 Z-8.122
X45.978 Z-8.367
X46.218 Z-8.603
X46.437 Z-8.933
X46.562 Z-9.279
X46.649 Z-9.774
X47.482 Z-9.583
X47.945 Z-9.513
X48.641 Z-9.539
X49.518 Z-9.26
X50.092 Z-9.095
X50.848 Z-8.964
X51.518 Z-8.965
X52.084 Z-9.059
X52.54 Z-9.228
X52.947 Z-9.47
X53.459 Z-9.939
X53.635 Z-10.219
X53.858 Z-10.713
X53.958 Z-10.745
X54.768 Z-10.437
X55.125 Z-10.319
X55.599 Z-10.255
X56.172 Z-10.295
X56.635 Z-10.434
X56.936 Z-10.101
X57.323 Z-9.805
X57.756 Z-9.553
X58.254 Z-9.388
X58.695 Z-9.317
X60.721 Z-9.226
X62.315 Z-9.115
X63.295 Z-8.96
X64.125 Z-8.745
X65.128 Z-8.36
X66.266 Z-7.883
X66.747 Z-7.808
X67.228 Z-7.822
X67.678 Z-7.934
X68.102 Z-8.143
X68.454 Z-8.449
X68.645 Z-8.73
X68.814 Z-9.181
X68.87 Z-9.475
X68.886 Z-12.314
X69.183 Z-12.323
X69.691 Z-12.383
X70.451 Z-12.149
X71.102 Z-11.968
X71.874 Z-11.868
X72.744 Z-11.796
X73.814 Z-11.828
X74.46 Z-11.9
X75.545 Z-12.198
X75.579 Z-12.163
X75.861 Z-11.918
X76.274 Z-11.722
X76.705 Z-11.613
X77.363 Z-11.509
X77.995 Z-11.473
X80.392 Z-11.656
X80.883 Z-11.707
X81.378 Z-11.881
X81.752 Z-12.098
X81.972 Z-12.302
X82.076 Z-12.34
X82.291 Z-12.31
X82.808 Z-12.292
X83.342 Z-12.364
X84.059 Z-12.594
X84.462 Z-12.805
X84.699 Z-13.001
X84.926 Z-13.261
X85.168 Z-13.642
X85.289 Z-13.998
X85.323 Z-14.326
X85.66 Z-14.555
X86.224 Z-14.888
X86.879 Z-15.007
X86.908 Z-14.998
X87.323 Z-14.753
X87.895 Z-14.57
X88.211 Z-14.533
X88.793 Z-14.555
X89.352 Z-14.679
X89.799 Z-14.854
X90.211 Z-15.095
X90.537 Z-15.402
X90.895 Z-15.426
X91.203 Z-15.512
X91.629 Z-15.727
X91.922 Z-15.968
X92.473 Z-15.987
X93.135 Z-16.033
X93.464 Z-16.077
X94.112 Z-16.191
X94.433 Z-16.264
X95.505 Z-16.588
X96.333 Z-16.948
X96.981 Z-17.316
X97.557 Z-17.799
X97.941 Z-18.262
X98.216 Z-18.719
X98.361 Z-18.733
X99.213 Z-18.914
X100.114 Z-19.295
X100.937 Z-19.802
X101.564 Z-20.189
X101.925 Z-20.265
X102.543 Z-20.471
X102.971 Z-20.695
X103.243 Z-20.865
X104.06 Z-21.029
X104.552 Z-21.086
X105.795 Z-21.385
X106.394 Z-21.626
X106.906 Z-21.94
X107.414 Z-22.369
X107.717 Z-22.752
X108.022 Z-23.283
X108.401 Z-24.12
X108.962 Z-25.64
X109.386 Z-25.601
X109.71 Z-25.632
X109.976 Z-25.71
X110.248 Z-25.714
X111.081 Z-25.751
X111.365 Z-25.711
X111.529 Z-25.716
X111.748 Z-25.764
X111.931 Z-25.83
X112.534 Z-25.58
X112.895 Z-25.463
X113.195 Z-25.439
X113.548 Z-25.347
X114.145 Z-25.231
X114.894 Z-25.22
X114.954 Z-25.196
X115.359 Z-24.965
X115.788 Z-24.822
X116.126 Z-24.786
X116.402 Z-24.81
X116.895 Z-24.948
X117.337 Z-25.188
X117.56 Z-25.382
X117.682 Z-25.45
X117.865 Z-25.418
X118.344 Z-25.29
X118.826 Z-25.195
X119.395 Z-25.09
X119.669 Z-24.992
X120.225 Z-24.902
X120.668 Z-24.915
X120.99 Z-24.832
X121.727 Z-24.736
X122.096 Z-24.748
X122.479 Z-24.844
X122.851 Z-24.858
X123.402 Z-24.893
X124.046 Z-25.041
X126.003 Z-25.001
X129.537 Z-25.076
X129.938 Z-25.14
X130.55 Z-25.338
X131.166 Z-25.332
X131.899 Z-25.436
X132.689 Z-25.66
X133.259 Z-25.905
X133.732 Z-26.014
X134.183 Z-26.183
X134.602 Z-26.424
X135.112 Z-26.812
X135.542 Z-27.271
X135.63 Z-27.222
X135.983 Z-27.075
X136.298 Z-27.021
X136.793 Z-27.042
X137.102 Z-27.125
X137.398 Z-27.05
X137.827 Z-27.014
X138.152 Z-27.061
X138.515 Z-26.814
X138.799 Z-26.696
X139.095 Z-26.636
X139.433 Z-26.635
X139.609 Z-26.514
X139.95 Z-26.324
X140.383 Z-26.193
X140.794 Z-26.154
X141.107 Z-26.193
X141.395 Z-26.155
X141.647 Z-26.164
X142.048 Z-26.228
X142.553 Z-26.435
X142.928 Z-26.594
X143.213 Z-26.75
X143.543 Z-26.751
X143.849 Z-26.82
X144.001 Z-26.813
X144.297 Z-26.828
X144.612 Z-26.907
X145.018 Z-27.088
X145.299 Z-27.296
X145.603 Z-27.457
X145.888 Z-27.695
X146.258 Z-28.101
X146.672 Z-28.417
X146.94 Z-28.297
X147.367 Z-28.176
X147.705 Z-28.153
X147.764 Z-28.137
X147.77 Z-28.135
X147.84 Z-28.118
X147.855
X148.081 Y6.281
X147.855 Y6.508
X147.785 Z-28.135
X147.725 Z-28.15
X147.704 Z-28.152
X147.367 Z-28.174
X146.888 Z-28.317
X146.704 Z-28.4
X146.145 Z-27.979
X145.855 Z-27.658
X145.609 Z-27.458
X145.23 Z-27.269
X144.875 Z-27.027
X144.528 Z-26.859
X144.259 Z-26.657
X143.819 Z-26.467
X143.503 Z-26.416
X143.128 Z-26.449
X142.931 Z-26.497
X142.534 Z-26.32
X142.143 Z-26.141
X141.789 Z-26.058
X141.374 Z-26.048
X141.068 Z-26.093
X140.68 Z-26.033
X140.193 Z-26.065
X139.9 Z-26.139
X139.557 Z-26.322
X139.413 Z-26.434
X139.065 Z-26.635
X138.718 Z-26.729
X138.353 Z-26.924
X138.032 Z-26.908
X137.579 Z-26.982
X137.294 Z-27.091
X137. Z-26.975
X136.682 Z-26.906
X136.238 Z-26.911
X135.847 Z-26.997
X135.661 Z-27.068
X135.157 Z-26.594
X134.628 Z-26.274
X133.957 Z-25.999
X133.109 Z-25.624
X132.203 Z-25.4
X131.167 Z-25.296
X130.262 Z-25.052
X129.941 Z-24.988
X129.304 Z-24.915
X126.833 Z-24.942
X125.206 Z-25.007
X124.276 Z-25.082
X124.042 Z-25.008
X123.67 Z-24.899
X123.034 Z-24.815
X122.631 Z-24.819
X122.334 Z-24.706
X121.93 Z-24.651
X121.523 Z-24.672
X120.834 Z-24.822
X120.527 Z-24.717
X120.036 Z-24.671
X119.721 Z-24.708
X119.293 Z-24.862
X118.964 Z-25.071
X118.676 Z-25.331
X118.478 Z-25.591
X117.904 Z-25.86
X117.735 Z-25.61
X117.396 Z-25.284
X117.061 Z-25.074
X116.606 Z-24.92
X116.2 Z-24.865
X115.864 Z-24.886
X115.571 Z-24.969
X115.023 Z-25.277
X114.728 Z-25.55
X114.706 Z-25.57
X114.2 Z-25.582
X113.741 Z-25.697
X113.295 Z-25.791
X112.984 Z-25.892
X112.531 Z-26.053
X111.999 Z-26.31
X111.639 Z-26.125
X111.412 Z-26.049
X110.922 Z-25.995
X109.985 Z-25.944
X109.597 Z-25.845
X109.147 Z-25.836
X108.676 Z-24.618
X108.311 Z-23.667
X107.952 Z-22.903
X107.589 Z-22.375
X107.19 Z-21.992
X106.723 Z-21.687
X106.281 Z-21.503
X105.804 Z-21.403
X104.82 Z-21.35
X104.326 Z-21.328
X104.044 Z-21.045
X103.387 Z-20.475
X102.482 Z-19.976
X102.114 Z-19.841
X101.553 Z-19.713
X101.308 Z-19.688
X100.979 Z-19.682
X100.514 Z-19.72
X99.897 Z-19.345
X99.21 Z-19.101
X99.093 Z-19.073
X98.804 Z-18.624
X98.455 Z-18.193
X97.828 Z-17.628
X97.004 Z-17.115
X96.352 Z-16.833
X95.568 Z-16.587
X94.578 Z-16.385
X93.677 Z-16.286
X92.664 Z-16.275
X92.184 Z-16.302
X91.813 Z-15.853
X91.58 Z-15.659
X91.145 Z-15.435
X90.477 Z-15.237
X90.395 Z-15.216
X89.935 Z-14.965
X89.315 Z-14.774
X89.075 Z-14.718
X88.384 Z-14.608
X87.957 Z-14.607
X87.365 Z-14.704
X87.029 Z-14.839
X86.713 Z-15.041
X86.243 Z-14.989
X85.955 Z-14.86
X85.45 Z-14.516
X85.423 Z-14.192
X85.333 Z-13.892
X85.076 Z-13.424
X84.832 Z-13.149
X84.473 Z-12.869
X83.959 Z-12.643
X83.056 Z-12.37
X82.317 Z-12.258
X81.989 Z-12.253
X81.865 Z-12.26
X81.75 Z-12.239
X81.361 Z-11.958
X80.996 Z-11.779
X80.502 Z-11.666
X80.194 Z-11.628
X79.769 Z-11.539
X78.142 Z-11.421
X77.32 Z-11.439
X76.615 Z-11.483
X76.107 Z-11.61
X75.829 Z-11.735
X75.562 Z-11.931
X75.299 Z-12.227
X75.23 Z-12.269
X74.771 Z-12.102
X73.761 Z-11.867
X73.022 Z-11.798
X72.692 Z-11.665
X72.536 Z-11.632
X72.372 Z-11.626
X72.063 Z-11.693
X71.793 Z-11.817
X71.206 Z-11.836
X70.507 Z-12.
X69.67 Z-12.212
X69.403 Z-12.325
X68.973 Z-12.459
X68.808 Z-12.524
X68.598 Z-12.502
X68.582 Z-9.49
X68.503 Z-9.145
X68.345 Z-8.792
X68.152 Z-8.505
X67.937 Z-8.303
X67.674 Z-8.133
X67.305 Z-7.979
X66.907 Z-7.911
X66.448 Z-7.922
X65.93 Z-8.036
X64.806 Z-8.543
X64.133 Z-8.831
X63.208 Z-9.122
X62.455 Z-9.273
X61.25 Z-9.381
X59.416 Z-9.441
X58.498 Z-9.461
X58.055 Z-9.538
X57.56 Z-9.714
X57.166 Z-9.956
X56.871 Z-10.218
X56.611 Z-10.479
X56.048 Z-10.332
X55.537 Z-10.306
X55.031 Z-10.381
X54.674 Z-10.494
X54.284 Z-10.649
X54.042 Z-10.113
X53.836 Z-9.815
X53.462 Z-9.412
X53.148 Z-9.198
X52.86 Z-9.046
X52.286 Z-8.849
X51.759 Z-8.78
X51.178 Z-8.788
X50.541 Z-8.889
X49.874 Z-9.067
X48.904 Z-9.414
X48.179 Z-9.352
X47.642 Z-9.417
X46.81 Z-9.608
X46.724 Z-9.174
X46.559 Z-8.787
X46.362 Z-8.502
X46.031 Z-8.207
X45.748 Z-8.042
X45.335 Z-7.896
X44.972 Z-7.855
X44.634 Z-7.889
X44.071 Z-8.087
X43.8 Z-8.234
X43.442 Z-8.547
X43.115 Z-8.833
X42.11 Z-9.176
X41.972 Z-9.237
X41.702 Z-9.384
X41.45 Z-9.56
X41.063 Z-9.93
X40.75 Z-10.347
X40.468 Z-10.881
X39.944 Z-12.394
X39.531 Z-12.217
X39.177 Z-12.144
X38.669 Z-12.161
X38.304 Z-12.262
X37.903 Z-12.484
X37.645 Z-12.68
X37.387 Z-12.994
X37.179 Z-13.322
X36.962 Z-13.862
X36.866 Z-14.339
X36.847 Z-14.594
X36.844 Z-15.864
X36.236 Z-16.044
X35.957 Z-16.157
X35.685 Z-16.292
X35.429 Z-16.468
X35.085 Z-16.777
X34.866 Z-17.042
X34.675 Z-17.433
X34.533 Z-17.937
X34.505 Z-18.515
X34.503 Z-24.04
X34.134 Z-24.205
X33.726 Z-24.273
X33.277 Z-24.221
X33.006 Z-24.167
X32.208 Z-23.965
X31.251 Z-23.808
X30.639 Z-23.686
X29.685 Z-23.577
X29.23 Z-23.551
X28.597 Z-23.586
X27.935 Z-23.551
X27.048 Z-23.62
X25.956 Z-23.863
X24.638 Z-24.246
X24.35 Z-24.344
X23.967 Z-24.246
X23.643 Z-24.198
X23.23 Z-24.169
X22.811 Z-24.192
X22.385 Z-24.277
X21.825 Z-24.18
X21.047 Z-24.162
X20.731 Z-24.193
X20.436 Z-24.253
X20.011 Z-24.402
X19.614 Z-24.635
X19.202 Z-24.976
X18.717 Z-24.896
X18.296 Z-24.91
X17.759 Z-25.02
X17.095 Z-25.282
X16.64 Z-25.549
X16.26 Z-25.878
X15.945 Z-26.29
X15.766 Z-26.633
X15.703 Z-26.653
X15.349 Z-26.206
X15.09 Z-25.954
X14.695 Z-25.704
X14.243 Z-25.556
X13.75 Z-25.499
X12.481 Z-25.556
X11.829 Z-25.686
X11.404 Z-25.831
X10.938 Z-26.078
X9.644 Z-26.318
X9.343 Z-26.292
X8.858 Z-26.342
X7.747 Z-26.569
X7.439 Z-26.603
X7.013 Z-26.642
X6.453 Z-26.789
X5.828 Z-27.066
X5.274 Z-27.221
X4.731 Z-27.326
X3.218 Z-27.783
X2.456 Z-28.113
X2.194 Z-28.287
X1.947 Z-28.154
Z-27.914
X1.953 Y6.735 Z-27.687
X1.959 Y6.961 Z-27.914
X2.19 Z-28.055
X2.268 Z-28.016
X3.714 Z-27.377
X5.333 Z-27.017
X6.159 Z-26.675
X6.516 Z-26.536
X6.832 Z-26.494
X7.26 Z-26.496
X7.55 Z-26.478
X8.353 Z-26.211
X8.809 Z-26.088
X9.21 Z-26.072
X9.637 Z-26.122
X9.923 Z-26.23
X10.094 Z-26.218
X10.126 Z-26.202
X10.867 Z-25.738
X11.285 Z-25.562
X11.868 Z-25.433
X12.715 Z-25.344
X13.964 Z-25.39
X14.361 Z-25.465
X14.878 Z-25.671
X15.193 Z-25.902
X15.69 Z-26.402
X15.976 Z-25.969
X16.268 Z-25.653
X16.744 Z-25.334
X17.33 Z-25.082
X18.051 Z-24.886
X18.524 Z-24.869
X19.011 Z-24.951
X19.19 Z-24.814
X19.666 Z-24.52
X20.05 Z-24.346
X20.563 Z-24.228
X21.132 Z-24.181
X21.633 Z-24.206
X22.192 Z-24.315
X22.402 Z-24.263
X23.003 Z-24.197
X23.625 Z-24.234
X23.93 Z-24.312
X24.254 Z-24.202
X25.881 Z-23.834
X27.115 Z-23.608
X28.067 Z-23.434
X28.809 Z-23.401
X29.319 Z-23.453
X29.749 Z-23.578
X30.891 Z-23.733
X31.635 Z-23.962
X32.258 Z-24.108
X32.694 Z-24.253
X33.213 Z-24.268
X33.522 Z-24.098
X33.959 Z-23.982
X34.583 Z-23.979
X34.593 Z-18.264
X34.615 Z-17.86
X34.79 Z-17.279
X34.978 Z-16.955
X35.279 Z-16.6
X35.708 Z-16.262
X36.041 Z-16.082
X36.32 Z-15.973
X36.953 Z-15.771
X36.966 Z-14.594
X37. Z-14.185
X37.142 Z-13.659
X37.282 Z-13.328
X37.598 Z-12.883
X37.891 Z-12.596
X38.288 Z-12.362
X38.742 Z-12.222
X39.126 Z-12.197
X39.557 Z-12.268
X39.997 Z-12.435
X40.446 Z-11.045
X40.653 Z-10.541
X40.976 Z-10.025
X41.299 Z-9.661
X41.456 Z-9.521
X41.928 Z-9.217
X42.34 Z-9.04
X43.225 Z-8.775
X43.67 Z-8.393
X43.912 Z-8.208
X44.307 Z-7.968
X44.592 Z-7.864
X45.046 Z-7.792
X45.525 Z-7.822
X45.835 Z-7.907
X46.115 Z-8.046
X46.42 Z-8.298
X46.723 Z-8.681
X46.863 Z-8.972
X46.984 Z-9.448
X47.75 Z-9.261
X48.05 Z-9.211
X48.471 Z-9.199
X49.087 Z-9.282
X50.035 Z-8.951
X51.045 Z-8.675
X51.853 Z-8.615
X52.348 Z-8.661
X52.786 Z-8.751
X53.414 Z-9.021
X53.708 Z-9.229
X54.131 Z-9.637
X54.461 Z-10.093
X54.66 Z-10.531
X54.99 Z-10.432
X55.498 Z-10.37
X55.993 Z-10.394
X56.627 Z-10.558
X56.885 Z-10.33
X57.38 Z-9.972
X57.963 Z-9.728
X58.384 Z-9.661
X59.271 Z-9.663
X61.072 Z-9.653
X62.032 Z-9.568
X62.683 Z-9.459
X63.467 Z-9.235
X63.998 Z-9.018
X65.194 Z-8.425
X65.86 Z-8.157
X66.343 Z-8.073
X66.762 Z-8.07
X67.153 Z-8.156
X67.577 Z-8.366
X67.91 Z-8.66
X68.095 Z-8.944
X68.267 Z-9.439
X68.29 Z-9.676
Z-12.574
X68.465 Z-12.529
X68.905 Z-12.382
X69.974 Z-12.092
X71.232 Z-11.56
X71.593 Z-11.366
X72.052 Z-11.191
X72.39 Z-11.156
X72.521 Z-11.167
X72.942 Z-11.28
X73.293 Z-11.453
X73.519 Z-11.645
X73.799 Z-12.029
X74.771 Z-12.353
X74.944 Z-12.345
X75.063 Z-12.253
X75.41 Z-12.008
X75.612 Z-11.824
X75.877 Z-11.655
X76.236 Z-11.521
X76.776 Z-11.432
X77.382 Z-11.339
X77.709 Z-11.357
X78.37 Z-11.335
X78.925 Z-11.429
X79.732 Z-11.511
X80.185 Z-11.608
X80.533 Z-11.773
X80.943 Z-11.912
X81.23 Z-12.081
X81.451 Z-12.051
X81.949 Z-12.082
X82.279 Z-12.17
X82.548 Z-12.291
X83.623 Z-12.622
X84.208 Z-12.838
X84.64 Z-13.041
X85.008 Z-13.326
X85.201 Z-13.545
X85.417 Z-13.945
X85.558 Z-14.441
X85.654 Z-14.79
X85.942 Z-14.986
X86.158 Z-15.071
X86.533 Z-15.109
X86.76 Z-14.958
X87.052 Z-14.823
X87.467 Z-14.694
X87.804 Z-14.667
X88.468 Z-14.729
X89.078 Z-14.829
X89.782 Z-14.992
X89.908 Z-15.014
X90.322 Z-14.989
X90.723 Z-15.05
X91.092 Z-15.183
X91.349 Z-15.351
X91.623 Z-15.615
X91.843 Z-15.929
X92.378 Z-16.629
X92.714 Z-16.58
X93.584 Z-16.496
X94.639 Z-16.506
X95.663 Z-16.626
X96.427 Z-16.791
X97.322 Z-17.112
X97.9 Z-17.411
X98.453 Z-17.766
X98.949 Z-18.14
X99.828 Z-18.91
X100.072 Z-19.093
X100.231 Z-19.177
X100.363 Z-19.216
X101.241 Z-19.277
X101.686 Z-19.355
X101.998 Z-19.438
X102.228 Z-19.519
X103.017 Z-19.89
X103.67 Z-20.356
X104.155 Z-20.786
X104.377 Z-21.013
X104.823 Z-21.561
X104.845 Z-21.567
X105.339 Z-21.405
X105.807 Z-21.353
X106.138 Z-21.379
X106.53 Z-21.472
X106.962 Z-21.672
X107.409 Z-21.998
X107.631 Z-22.233
X107.851 Z-22.527
X108.19 Z-23.169
X109.113 Z-25.561
X109.356 Z-26.091
X109.772 Z-26.144
X110.058 Z-26.254
X110.552 Z-26.281
X111.474 Z-26.456
X111.803 Z-26.606
X112.112 Z-26.823
X112.407 Z-26.838
X112.714 Z-26.81
X113.006 Z-26.668
X113.127 Z-26.572
X113.387 Z-26.356
X113.678 Z-26.177
X114.062 Z-26.004
X114.316 Z-25.959
X114.739 Z-25.97
X114.917 Z-25.722
X115.272 Z-25.39
X115.538 Z-25.224
X115.972 Z-25.088
X116.309 Z-25.071
X116.709 Z-25.128
X117.073 Z-25.271
X117.395 Z-25.501
X117.657 Z-25.766
X117.819 Z-26.022
X118.137 Z-26.038
X118.169 Z-25.938
X118.329 Z-25.608
X118.556 Z-25.293
X118.861 Z-24.983
X119.212 Z-24.749
X119.628 Z-24.57
X119.943 Z-24.517
X120.321 Z-24.524
X120.738 Z-24.605
X121.168 Z-24.797
X121.299 Z-24.755
X121.594 Z-24.688
X122.012 Z-24.681
X122.408 Z-24.757
X122.689 Z-24.881
X123.207 Z-24.883
X123.905 Z-25.015
X124.287 Z-25.183
X124.336 Z-25.201
X125.087 Z-25.086
X125.541 Z-25.036
X127.222 Z-24.901
X128.271 Z-24.841
X129.449 Z-24.844
X130.436 Z-24.947
X131.408 Z-25.125
X132.057 Z-25.335
X132.786 Z-25.434
X133.106 Z-25.51
X133.497 Z-25.63
X134.409 Z-25.999
X134.918 Z-26.276
X135.368 Z-26.574
X135.814 Z-26.978
X136.05 Z-26.911
X136.388 Z-26.875
X136.747 Z-26.898
X137.051 Z-26.979
X137.161 Z-26.943
X137.741 Z-26.8
X138.242 Z-26.79
X138.661 Z-26.872
X138.764 Z-26.832
X139.255 Z-26.335
X139.583 Z-26.117
X139.83 Z-26.019
X140.307 Z-25.928
X140.68 Z-25.934
X140.905 Z-25.954
X141.308 Z-26.044
X141.647 Z-26.042
X142.129 Z-26.118
X142.675 Z-26.343
X142.834 Z-26.374
X143.032 Z-26.32
X143.419 Z-26.267
X143.742 Z-26.297
X144.051 Z-26.392
X144.406 Z-26.571
X144.699 Z-26.797
X145.161 Z-27.076
X145.573 Z-27.437
X145.742 Z-27.42
X146.153 Z-27.429
X146.528 Z-27.55
X146.805 Z-27.734
X147.041 Z-27.981
X147.163 Z-28.213
X147.367 Z-28.174
X147.705 Z-28.15
X147.764 Z-28.135
X147.769 Z-28.132
X147.839 Z-28.116
X147.859
X148.086 Y7.188
X147.859 Y7.415
X147.789 Z-28.132
X147.721 Z-28.148
X147.706 Z-28.149
X147.562 Z-28.151
X147.436 Z-27.882
X147.151 Z-27.507
X146.919 Z-27.318
X146.564 Z-27.15
X146.173 Z-27.039
X145.847 Z-27.013
X145.461 Z-27.077
X145.271 Z-27.13
X145.005 Z-26.902
X144.65 Z-26.699
X144.276 Z-26.454
X143.827 Z-26.295
X143.444 Z-26.248
X143.082 Z-26.283
X142.658 Z-26.212
X142.416 Z-26.202
X142.132 Z-26.106
X141.805 Z-26.111
X141.616 Z-26.132
X141.508 Z-26.13
X141.223 Z-26.001
X140.912 Z-25.922
X140.459 Z-25.87
X140.011 Z-25.901
X139.52 Z-26.044
X139.262 Z-26.182
X139.015 Z-26.385
X138.781 Z-26.681
X138.366 Z-26.764
X137.91 Z-26.677
X137.578 Z-26.676
X137.242 Z-26.741
X136.875 Z-26.911
X136.759 Z-26.976
X136.438 Z-26.942
X136.142 Z-26.967
X135.715 Z-26.54
X135.126 Z-26.12
X134.549 Z-25.828
X133.358 Z-25.503
X133.008 Z-25.427
X132.325 Z-25.152
X131.486 Z-24.954
X130.538 Z-24.858
X128.86 Z-24.776
X127.569 Z-24.876
X126.091 Z-25.119
X125.751 Z-25.15
X125.124 Z-25.047
X124.696 Z-25.036
X124.255 Z-25.113
X123.938 Z-25.22
X123.38 Z-24.957
X123.107 Z-24.888
X122.103 Z-24.86
X121.607 Z-24.856
X121.386 Z-24.899
X120.986 Z-24.686
X120.663 Z-24.558
X120.235 Z-24.495
X119.846 Z-24.507
X119.551 Z-24.575
X119.172 Z-24.759
X118.796 Z-25.036
X118.546 Z-25.306
X118.246 Z-25.804
X118.095 Z-26.29
X117.855 Z-26.282
X117.607 Z-26.323
X117.436 Z-26.017
X117.181 Z-25.756
X116.778 Z-25.529
X116.475 Z-25.445
X116.147 Z-25.452
X115.853 Z-25.521
X115.496 Z-25.734
X115.237 Z-26.04
X115.074 Z-26.353
X114.999 Z-26.613
X114.068 Z-26.821
X113.654 Z-26.968
X112.446 Z-27.083
X111.9 Z-27.192
X111.751 Z-27.2
X111.491 Z-27.057
X111.025 Z-26.879
X110.854 Z-26.705
X110.422 Z-26.224
X109.665 Z-25.522
X108.986 Z-24.884
X108.854 Z-24.737
X108.179 Z-22.966
X107.897 Z-22.412
X107.567 Z-21.958
X107.24 Z-21.678
X106.82 Z-21.434
X106.362 Z-21.293
X106.036 Z-21.254
X105.549 Z-21.282
X105.109 Z-21.406
X105.012 Z-21.449
X104.655 Z-20.995
X104.443 Z-20.763
X103.97 Z-20.326
X103.723 Z-20.115
X102.912 Z-19.58
X102.266 Z-19.261
X101.715 Z-19.036
X100.685 Z-18.778
X100.249 Z-18.577
X99.231 Z-17.947
X98.795 Z-17.676
X97.847 Z-17.218
X97.236 Z-16.989
X96.108 Z-16.74
X95.28 Z-16.671
X94.436 Z-16.673
X93.666 Z-16.749
X93.047 Z-16.865
X92.758 Z-16.74
X92.414 Z-16.646
X92.247 Z-16.205
X91.991 Z-15.798
X91.614 Z-15.42
X91.154 Z-15.116
X90.86 Z-14.989
X90.465 Z-14.906
X90.219 Z-14.888
X89.817 Z-14.939
X89.506 Z-15.031
X88.124 Z-14.758
X87.755 Z-14.676
X87.319 Z-14.683
X87.027 Z-14.749
X86.652 Z-14.927
X86.327 Z-15.155
X86.281 Z-15.192
X85.951 Z-15.114
X85.88 Z-14.696
X85.745 Z-14.335
X85.27 Z-13.647
X84.939 Z-13.304
X84.58 Z-13.084
X82.925 Z-12.459
X82.646 Z-12.219
X82.223 Z-12.003
X81.761 Z-11.874
X81.433 Z-11.846
X81.096 Z-11.876
X80.662 Z-11.99
X80.41 Z-11.809
X80.123 Z-11.679
X79.732 Z-11.587
X79.402 Z-11.564
X79.051 Z-11.486
X78.781 Z-11.39
X78.279 Z-11.325
X77.894 Z-11.368
X77.65 Z-11.321
X77.237 Z-11.314
X76.798 Z-11.396
X76.353 Z-11.574
X76.077 Z-11.646
X75.759 Z-11.789
X75.351 Z-11.958
X75.228 Z-12.035
X74.827 Z-12.02
X74.553 Z-12.066
X74.269 Z-12.201
X74.141 Z-12.288
X74.125 Z-12.257
X73.936 Z-11.824
X73.726 Z-11.516
X73.391 Z-11.222
X72.971 Z-10.995
X72.662 Z-10.898
X71.941 Z-10.809
X71.604 Z-10.85
X71.458 Z-10.896
X71.19 Z-11.067
X71.148 Z-11.11
X70.671 Z-11.365
X70.156 Z-11.793
X69.579 Z-12.196
X69.489 Z-12.27
X69.049 Z-12.346
X68.719 Z-12.434
X67.931 Z-12.589
X67.919 Z-9.804
X67.86 Z-9.358
X67.82 Z-9.214
X67.73 Z-9.014
X67.542 Z-8.758
X67.222 Z-8.512
X66.905 Z-8.362
X66.592 Z-8.289
X66.095 Z-8.29
X65.561 Z-8.413
X64.773 Z-8.763
X64.271 Z-9.072
X63.547 Z-9.436
X62.749 Z-9.736
X61.953 Z-9.924
X61.134 Z-10.006
X59.739 Z-9.999
X58.726 Z-9.967
X57.94 Z-10.011
X57.509 Z-10.164
X57.007 Z-10.469
X56.749 Z-10.7
X56.208 Z-10.53
X55.635 Z-10.454
X55.074 Z-10.483
X55.024 Z-10.491
X54.835 Z-10.099
X54.546 Z-9.669
X54.156 Z-9.283
X53.834 Z-9.047
X53.423 Z-8.795
X52.971 Z-8.638
X52.493 Z-8.51
X51.827 Z-8.487
X51.215 Z-8.561
X50.634 Z-8.704
X49.927 Z-8.944
X49.29 Z-9.154
X48.689 Z-9.046
X48.255 Z-9.039
X47.704 Z-9.139
X47.173 Z-9.272
X47.09 Z-8.955
X46.937 Z-8.62
X46.703 Z-8.309
X46.351 Z-8.013
X45.936 Z-7.799
X45.544 Z-7.705
X45.131 Z-7.698
X44.816 Z-7.752
X44.39 Z-7.921
X43.997 Z-8.154
X43.364 Z-8.701
X43.085 Z-8.799
X42.44 Z-8.957
X41.867 Z-9.206
X41.44 Z-9.501
X41.068 Z-9.894
X40.794 Z-10.307
X40.647 Z-10.602
X40.455 Z-11.112
X40.045 Z-12.461
X39.745 Z-12.343
X39.307 Z-12.261
X38.93 Z-12.262
X38.635 Z-12.324
X38.216 Z-12.504
X37.96 Z-12.677
X37.731 Z-12.897
X37.391 Z-13.372
X37.242 Z-13.734
X37.137 Z-14.209
X37.106 Z-14.636
X37.104 Z-15.667
X36.19 Z-15.981
X35.682 Z-16.273
X35.308 Z-16.609
X35.025 Z-16.977
X34.888 Z-17.227
X34.728 Z-17.734
X34.686 Z-18.109
Z-23.888
X34.186 Z-23.865
X33.868 Z-23.896
X33.434 Z-24.028
X33.011 Z-24.28
X32.903 Z-24.333
X32.412 Z-24.24
X31.835 Z-24.214
X31.176 Z-23.917
X30.684 Z-23.79
X30.235 Z-23.717
X29.813 Z-23.483
X29.355 Z-23.342
X28.864 Z-23.279
X28.204 Z-23.272
X27.582 Z-23.338
X25.624 Z-23.746
X25.095 Z-23.896
X24.74 Z-24.042
X24.149 Z-24.16
X23.71 Z-24.325
X23.096 Z-24.233
X22.557 Z-24.231
X22.017 Z-24.333
X21.504 Z-24.233
X21.004 Z-24.209
X20.192 Z-24.278
X19.615 Z-24.453
X18.816 Z-24.855
X18.719 Z-24.917
X18.238 Z-24.857
X17.679 Z-24.898
X17.172 Z-25.029
X16.491 Z-25.359
X16.238 Z-25.54
X15.921 Z-25.833
X15.677 Z-26.145
X15.612 Z-26.259
X15.217 Z-25.871
X14.967 Z-25.694
X14.377 Z-25.441
X14.059 Z-25.375
X12.684 Z-25.272
X11.753 Z-25.317
X11.167 Z-25.422
X10.713 Z-25.582
X10.173 Z-25.779
X9.887 Z-25.919
X9.505 Z-25.774
X9.051 Z-25.709
X8.566 Z-25.743
X8.202 Z-25.843
X7.46 Z-26.183
X7.215 Z-26.265
X6.553 Z-26.336
X5.505 Z-26.577
X5.149 Z-26.707
X4.938 Z-26.839
X4.782 Z-26.977
X3.84 Z-27.14
X3.425 Z-27.305
X2.804 Z-27.632
X2.187 Z-27.895
X2.055 Z-27.892
X1.985 Z-27.876
X1.984
X1.932 Y7.421 Z-27.874
X1.883 Y7.437 Z-27.871
X1.839 Y7.464 Z-27.865
X1.802 Y7.5 Z-27.857
X1.775 Y7.543 Z-27.848
X1.757 Y7.591 Z-27.837
X1.752 Y7.642 Z-27.826
X1.757 Y7.692 Z-27.815
X1.775 Y7.74 Z-27.804
X1.802 Y7.783 Z-27.795
X1.839 Y7.819 Z-27.787
X1.883 Y7.846 Z-27.781
X1.932 Y7.863 Z-27.778
X1.984 Y7.869 Z-27.776
X2.054 Z-27.793
X2.183 Z-27.797
X2.579 Z-27.636
X2.866 Z-27.51
X3.307 Z-27.244
X3.863 Z-27.002
X4.337 Z-26.922
X4.515 Z-26.791
X5.076 Z-26.398
X5.502 Z-26.228
X5.961 Z-26.178
X6.382 Z-26.101
X6.999 Z-26.065
X7.262 Z-25.931
X7.856 Z-25.668
X8.373 Z-25.557
X9. Z-25.516
X9.411 Z-25.562
X9.793 Z-25.678
X10.362 Z-25.494
X10.978 Z-25.392
X11.27 Z-25.321
X11.761 Z-25.266
X12.56 Z-25.275
X13.362 Z-25.377
X13.926 Z-25.433
X14.421 Z-25.552
X14.919 Z-25.747
X15.182 Z-25.924
X15.545 Z-26.244
X15.698 Z-25.993
X16.028 Z-25.631
X16.439 Z-25.331
X16.949 Z-25.088
X17.377 Z-24.95
X17.855 Z-24.891
X18.358 Z-24.902
X18.767 Z-24.651
X19.192 Z-24.49
X20.063 Z-24.301
X21.065 Z-24.247
X21.473 Z-24.283
X21.775 Z-24.375
X22.164 Z-24.283
X22.37 Z-24.253
X22.984 Z-24.261
X23.555 Z-24.398
X23.901 Z-24.274
X24.452 Z-24.103
X24.762 Z-23.936
X25.344 Z-23.697
X26.126 Z-23.515
X26.87 Z-23.38
X27.788 Z-23.229
X28.862 Z-23.227
X29.388 Z-23.332
X29.919 Z-23.512
X30.232 Z-23.694
X30.566 Z-23.948
X30.613 Z-23.976
X31.009 Z-24.06
X31.463 Z-24.263
X31.588 Z-24.297
X32.173 Z-24.236
X32.57 Z-24.26
X33.093 Z-24.078
X33.516 Z-23.987
X33.769 Z-23.919
X34.215 Z-23.863
X34.798 Z-23.907
X34.81 Z-17.878
X34.866 Z-17.542
X34.996 Z-17.167
X35.229 Z-16.766
X35.536 Z-16.411
X35.885 Z-16.141
X36.367 Z-15.878
X37.244 Z-15.565
X37.254 Z-14.554
X37.314 Z-13.966
X37.451 Z-13.549
X37.687 Z-13.13
X38.012 Z-12.779
X38.324 Z-12.554
X38.668 Z-12.385
X38.949 Z-12.315
X39.293 Z-12.297
X39.703 Z-12.347
X40.086 Z-12.47
X40.409 Z-11.371
X40.654 Z-10.622
X40.892 Z-10.138
X41.244 Z-9.661
X41.566 Z-9.363
X41.92 Z-9.134
X42.42 Z-8.917
X43.193 Z-8.733
X43.462 Z-8.643
X44.027 Z-8.177
X44.457 Z-7.897
X44.874 Z-7.71
X45.227 Z-7.642
X45.729 Z-7.637
X46.123 Z-7.717
X46.553 Z-7.919
X46.863 Z-8.151
X47.069 Z-8.383
X47.267 Z-8.697
X47.403 Z-9.115
X47.766 Z-9.011
X48.213 Z-8.912
X48.708 Z-8.891
X49.465 Z-9.031
X51.09 Z-8.523
X51.87 Z-8.403
X52.431 Z-8.418
X52.997 Z-8.51
X53.677 Z-8.774
X54.157 Z-9.075
X54.651 Z-9.481
X55.118 Z-10.051
X55.354 Z-10.547
X55.895 Z-10.583
X56.45 Z-10.714
X56.952 Z-10.926
X57.078 Z-10.828
X57.494 Z-10.583
X57.931 Z-10.447
X58.246 Z-10.392
X59.905 Z-10.484
X60.956 Z-10.5
X61.449 Z-10.457
X62.052 Z-10.346
X62.828 Z-10.078
X63.685 Z-9.672
X64.664 Z-9.089
X65.065 Z-8.86
X65.631 Z-8.648
X66.046 Z-8.576
X66.33 Z-8.593
X66.645 Z-8.661
X66.927 Z-8.786
X67.157 Z-8.963
X67.322 Z-9.172
X67.488 Z-9.541
X67.549 Z-9.861
X67.55 Z-12.661
X67.859 Z-12.61
X69.327 Z-12.42
X69.611 Z-12.108
X69.775 Z-11.782
X69.954 Z-11.573
X70.211 Z-11.414
X70.338 Z-11.283
X70.535 Z-10.753
X70.693 Z-10.516
X70.936 Z-10.331
X71.221 Z-10.208
X71.458 Z-10.168
X71.772 Z-10.179
X72.393 Z-10.299
X72.92 Z-10.345
X73.236 Z-10.409
X73.513 Z-10.522
X73.723 Z-10.702
X73.914 Z-11.009
X74.02 Z-11.357
X74.046 Z-11.811
X74.087 Z-11.891
X74.462 Z-11.739
X74.818 Z-11.68
X75.268 Z-11.697
X75.638 Z-11.791
X75.846 Z-11.719
X76.31 Z-11.655
X76.38 Z-11.615
X76.76 Z-11.46
X77.222 Z-11.386
X77.718 Z-11.42
X78.174 Z-11.276
X78.511 Z-11.252
X78.833 Z-11.297
X79.131 Z-11.404
X79.397 Z-11.564
X79.69 Z-11.814
X79.842 Z-11.838
X80.143 Z-11.939
X80.186 Z-11.923
X80.758 Z-11.764
X81.243 Z-11.722
X81.732 Z-11.774
X82.119 Z-11.886
X82.76 Z-12.22
X82.992 Z-12.413
X83.187 Z-12.652
X84.675 Z-13.237
X85.143 Z-13.55
X85.534 Z-13.87
X85.802 Z-14.241
X86.008 Z-14.669
X86.118 Z-15.09
X86.401 Z-14.892
X86.752 Z-14.739
X87.192 Z-14.65
X87.66 Z-14.632
X88.032 Z-14.697
X88.411 Z-14.821
X88.667 Z-14.967
X89.243 Z-15.091
X89.445 Z-15.008
X89.905 Z-14.899
X90.402 Z-14.9
X90.8 Z-14.977
X91.325 Z-15.191
X91.726 Z-15.441
X92.19 Z-15.876
X92.454 Z-16.238
X92.621 Z-16.605
X92.858 Z-16.717
X93.132 Z-16.895
X93.417 Z-17.141
X93.69 Z-17.064
X94.274 Z-16.938
X95.253 Z-16.82
X96.01 Z-16.822
X97.074 Z-16.956
X98.027 Z-17.213
X99.019 Z-17.589
X100.503 Z-18.331
X100.922 Z-18.534
X101.821 Z-18.854
X102.675 Z-19.263
X103.229 Z-19.603
X103.95 Z-20.1
X104.683 Z-20.765
X105.125 Z-21.307
X105.37 Z-21.223
X105.781 Z-21.135
X106.26 Z-21.137
X106.679 Z-21.226
X107.043 Z-21.377
X107.43 Z-21.654
X107.638 Z-21.865
X108.019 Z-22.45
X108.425 Z-23.382
X108.621 Z-23.644
X109.09 Z-24.098
X110.322 Z-25.089
X111.404 Z-25.971
X112.279 Z-26.763
X112.787 Z-27.259
X113.355 Z-27.149
X114.501 Z-27.017
X114.676 Z-26.956
X115.312 Z-26.773
X115.93 Z-26.655
X115.993 Z-26.55
X116.176 Z-26.359
X116.396 Z-26.31
X116.65 Z-26.409
X116.805 Z-26.52
X117.2 Z-26.473
X117.707 Z-26.444
X118.215 Z-26.479
X118.277 Z-26.16
X118.437 Z-25.745
X118.643 Z-25.394
X118.956 Z-25.045
X119.353 Z-24.78
X119.638 Z-24.663
X120.048 Z-24.603
X120.457 Z-24.626
X120.795 Z-24.718
X121.204 Z-24.906
X121.964 Z-24.809
X122.751 Z-24.782
X123.24 Z-24.824
X123.612 Z-24.942
X123.995 Z-25.156
X124.312 Z-25.055
X124.799 Z-24.982
X125.674 Z-25.004
X125.993 Z-24.928
X126.478 Z-24.883
X126.805 Z-24.916
X127.189 Z-25.028
X128.2 Z-24.809
X128.826 Z-24.725
X130.196 Z-24.797
X130.928 Z-24.804
X131.865 Z-24.873
X132.891 Z-25.092
X133.434 Z-25.284
X133.872 Z-25.541
X134.377 Z-25.644
X134.997 Z-25.844
X135.651 Z-26.165
X135.984 Z-26.4
X136.162 Z-26.547
X136.611 Z-27.037
X137.016 Z-26.775
X137.337 Z-26.662
X137.784 Z-26.602
X138.179 Z-26.642
X138.443 Z-26.539
X138.918 Z-26.451
X139.125 Z-26.257
X139.389 Z-26.084
X139.674 Z-25.968
X140.174 Z-25.869
X140.502 Z-25.877
X140.959 Z-25.965
X141.22 Z-25.822
X141.572 Z-25.677
X141.982 Z-25.606
X142.225 Z-25.622
X142.613 Z-25.725
X142.882 Z-25.871
X143.05 Z-26.013
X143.271 Z-26.296
X143.355 Z-26.346
X143.651 Z-26.358
X144.085 Z-26.464
X144.532 Z-26.664
X145.075 Z-27.007
X145.407 Z-26.885
X145.923 Z-26.819
X146.335 Z-26.869
X146.809 Z-27.028
X147.201 Z-27.292
X147.498 Z-27.606
X147.706 Z-28.001
X147.847 Z-28.086
X147.898 Y7.873 Z-28.083
X147.947 Y7.886 Z-28.076
X147.993 Y7.907 Z-28.063
X148.033 Y7.935 Z-28.047
X148.065 Y7.969 Z-28.027
X148.09 Y8.009 Z-28.004
X148.105 Y8.051 Z-27.979
X148.11 Y8.095 Z-27.953
X148.105 Y8.14 Z-27.927
X148.09 Y8.182 Z-27.902
X148.065 Y8.221 Z-27.878
X148.033 Y8.256 Z-27.858
X147.993 Y8.284 Z-27.842
X147.947 Y8.305 Z-27.829
X147.898 Y8.318 Z-27.822
X147.847 Y8.322 Z-27.819
X147.842
X147.707 Z-27.744
X147.559 Z-27.504
X147.361 Z-27.286
X146.979 Z-27.012
X146.56 Z-26.833
X146.224 Z-26.745
X145.813 Z-26.729
X145.414 Z-26.791
X145.06 Z-26.917
X144.766 Z-26.714
X144.474 Z-26.598
X143.99 Z-26.534
X143.754 Z-26.511
X143.572 Z-26.123
X143.383 Z-25.872
X143.163 Z-25.665
X142.904 Z-25.498
X142.534 Z-25.368
X142.13 Z-25.331
X141.793 Z-25.361
X141.362 Z-25.501
X140.897 Z-25.767
X140.627 Z-25.975
X140.195 Z-25.957
X139.857 Z-26.012
X139.434 Z-26.181
X139.191 Z-26.34
X138.789 Z-26.341
X138.417 Z-26.41
X138.029 Z-26.575
X137.946 Z-26.619
X137.446 Z-26.664
X137.085 Z-26.775
X136.872 Z-26.884
X136.481 Z-26.479
X136.03 Z-26.145
X135.378 Z-25.822
X134.711 Z-25.628
X134.444 Z-25.577
X133.823 Z-25.21
X133.213 Z-24.988
X132.655 Z-24.866
X131.664 Z-24.766
X130.651 Z-24.762
X129.85 Z-24.759
X128.732 Z-24.713
X128.175 Z-24.804
X127.338 Z-25.036
X126.881 Z-24.864
X126.48 Z-24.797
X125.891 Z-24.828
X125.47 Z-24.937
X124.789 Z-25.048
X124.148 Z-25.183
X124.035 Z-25.226
X123.69 Z-25.015
X123.315 Z-24.866
X122.916 Z-24.809
X122.159 Z-24.819
X121.133 Z-24.979
X120.88 Z-25.027
X120.549 Z-24.921
X120.048 Z-24.881
X119.752 Z-24.924
X119.399 Z-25.075
X119.201 Z-25.208
X118.964 Z-25.445
X118.722 Z-25.829
X118.548 Z-26.342
X118.515 Z-26.558
X117.626 Z-26.54
X117.457 Z-26.554
X116.871 Z-26.664
X115.578 Z-27.001
X115.183 Z-27.113
X114.465 Z-27.17
X114.185 Z-27.214
X111.94 Z-25.477
X110.689 Z-24.561
X108.911 Z-23.22
X108.303 Z-22.648
X108.07 Z-22.376
X107.729 Z-21.852
X107.416 Z-21.508
X106.892 Z-21.166
X106.597 Z-21.047
X106.2 Z-20.986
X105.633 Z-21.029
X105.208 Z-21.175
X104.831 Z-20.738
X104.228 Z-20.216
X103.562 Z-19.734
X102.466 Z-19.073
X101.616 Z-18.641
X100.96 Z-18.341
X100.128 Z-17.944
X99.221 Z-17.581
X98.333 Z-17.292
X97.465 Z-17.086
X96.643 Z-17.004
X95.693 Z-17.008
X95.035 Z-17.091
X94.313 Z-17.256
X93.841 Z-17.407
X93.747 Z-17.243
X93.561 Z-17.027
X93.183 Z-16.744
X92.88 Z-16.63
X92.791 Z-16.608
X92.477 Z-16.11
X92.163 Z-15.772
X91.848 Z-15.535
X91.275 Z-15.235
X90.413 Z-14.976
X89.921 Z-14.935
X89.508 Z-14.979
X89.145 Z-15.104
X89.019 Z-15.16
X88.623 Z-14.917
X88.157 Z-14.728
X87.415 Z-14.626
X86.819 Z-14.662
X86.383 Z-14.787
X86.171 Z-14.89
X85.943 Z-14.406
X85.736 Z-14.12
X85.286 Z-13.694
X84.886 Z-13.426
X84.598 Z-13.291
X84.128 Z-13.172
X83.324 Z-12.81
X83.15 Z-12.563
X82.938 Z-12.353
X82.539 Z-12.103
X81.956 Z-11.813
X81.551 Z-11.705
X80.875 Z-11.642
X80.266 Z-11.707
X80.224 Z-11.713
X79.96 Z-11.579
X79.802 Z-11.549
X79.521 Z-11.571
X79.48 Z-11.58
X79.125 Z-11.376
X78.764 Z-11.262
X78.469 Z-11.234
X78.095 Z-11.277
X77.702 Z-11.409
X77.418 Z-11.58
X76.938 Z-11.608
X76.784 Z-11.642
X76.217 Z-11.67
X76.032 Z-11.702
X75.53 Z-11.563
X74.96 Z-11.526
X74.671 Z-11.541
X74.654 Z-10.714
X74.565 Z-10.425
X74.412 Z-10.176
X74.136 Z-9.945
X73.851 Z-9.837
X73.363 Z-9.782
X72.945 Z-9.813
X72.433 Z-9.919
X72.181 Z-9.847
X71.671 Z-9.676
X71.346 Z-9.632
X70.935 Z-9.658
X70.713 Z-9.726
X70.441 Z-9.898
X70.12 Z-10.276
X69.966 Z-10.613
X69.912 Z-10.806
X69.625 Z-10.869
X69.467 Z-10.936
X69.341 Z-11.024
X69.208 Z-11.168
X69.084 Z-11.433
X69.02 Z-11.82
X69.013 Z-12.633
X68.339 Z-12.646
X68.125 Z-12.657
X68.026 Z-12.53
X67.804 Z-12.345
X67.452 Z-12.192
X67.136 Z-12.154
X67.094 Z-12.155
X67.08 Z-10.117
X67.054 Z-9.9
X66.971 Z-9.654
X66.81 Z-9.425
X66.642 Z-9.266
X66.309 Z-9.093
X66.078 Z-9.034
X65.751
X65.291 Z-9.13
X64.767 Z-9.376
X63.408 Z-10.197
X62.522 Z-10.639
X61.629 Z-11.012
X61.131 Z-11.154
X60.632 Z-11.201
X59.462 Z-11.141
X58.453 Z-11.051
X58.043 Z-11.077
X57.442 Z-11.24
X57.279 Z-11.323
X56.726 Z-10.988
X56.194 Z-10.787
X55.736 Z-10.691
X55.614 Z-10.676
X55.469 Z-10.247
X55.246 Z-9.863
X54.976 Z-9.553
X54.31 Z-9.033
X53.75 Z-8.718
X53.06 Z-8.469
X52.262 Z-8.365
X51.724 Z-8.393
X51.135 Z-8.493
X49.624 Z-8.915
X48.874 Z-8.767
X48.373 Z-8.775
X48.078 Z-8.828
X47.657 Z-8.931
X47.503 Z-8.526
X47.303 Z-8.229
X46.974 Z-7.925
X46.58 Z-7.703
X46.179 Z-7.575
X45.775 Z-7.528
X45.29 Z-7.571
X44.856 Z-7.705
X44.583 Z-7.842
X44.329 Z-8.003
X43.599 Z-8.549
X43.191 Z-8.688
X42.433 Z-8.862
X42.014 Z-9.029
X41.567 Z-9.32
X41.178 Z-9.712
X40.897 Z-10.129
X40.668 Z-10.626
X40.537 Z-11.014
X40.113 Z-12.475
X39.637 Z-12.365
X39.137 Z-12.367
X38.7 Z-12.477
X38.291 Z-12.697
X38.049 Z-12.892
X37.791 Z-13.193
X37.567 Z-13.596
X37.438 Z-14.055
X37.395 Z-14.59
X37.393 Z-15.476
X37.076 Z-15.573
X36.52 Z-15.794
X36.247 Z-15.925
X35.862 Z-16.17
X35.503 Z-16.487
X35.19 Z-16.943
X35.016 Z-17.347
X34.935 Z-17.772
X34.918 Z-18.086
Z-24.055
X34.347 Z-23.98
X34.096 Z-23.964
X33.678 Z-23.927
X33.18 Z-23.987
X32.537 Z-24.19
X32.268 Z-24.32
X31.879 Z-24.368
X31.596 Z-24.431
X31.288 Z-24.341
X30.848 Z-24.301
X30.382 Z-23.88
X29.858 Z-23.571
X29.483 Z-23.439
X28.798 Z-23.264
X27.919 Z-23.24
X27.329 Z-23.304
X26.289 Z-23.491
X25.797 Z-23.561
X25.189 Z-23.746
X24.643 Z-23.993
X24.165 Z-24.285
X23.524 Z-24.503
X23.008 Z-24.332
X22.481 Z-24.27
X22.035 Z-24.301
X21.56 Z-24.41
X21.184 Z-24.33
X19.609 Z-24.312
X19.001 Z-24.422
X18.578 Z-24.604
X18.237 Z-24.863
X18.097 Z-24.995
X17.596 Z-24.987
X17.177 Z-25.068
X16.753 Z-25.224
X16.28 Z-25.463
X15.973 Z-25.717
X15.508 Z-26.221
X15.296 Z-26.248
X15.064 Z-26.059
X14.503 Z-25.777
X13.804 Z-25.636
X13.25 Z-25.497
X12.65 Z-25.336
X11.992 Z-25.281
X11.347 Z-25.324
X11.108 Z-25.359
X10.418 Z-25.396
X9.988 Z-25.497
X9.703 Z-25.595
X9.177 Z-25.452
X8.518 Z-25.406
X7.865 Z-25.472
X7.502 Z-25.581
X6.966 Z-25.813
X6.727 Z-25.939
X6.038 Z-25.983
X5.461 Z-26.016
X5.186 Z-26.078
X4.77 Z-26.263
X4.51 Z-26.447
X3.964 Z-26.886
X3.804 Z-26.977
X3.362 Z-27.155
X2.961 Z-27.383
X2.755 Z-27.546
X2.338 Z-27.703
X2.179 Z-27.779
X2.041 Z-27.778
X1.971 Z-27.762
X1.92 Y8.328 Z-27.763
X1.871 Y8.345 Z-27.767
X1.827 Y8.372 Z-27.772
X1.79 Y8.407 Z-27.779
X1.763 Y8.45 Z-27.788
X1.746 Y8.498 Z-27.797
X1.74 Y8.549 Z-27.807
X1.746 Y8.599 Z-27.817
X1.763 Y8.647 Z-27.827
X1.79 Y8.69 Z-27.835
X1.827 Y8.726 Z-27.843
X1.871 Y8.753 Z-27.848
X1.92 Y8.77 Z-27.851
X1.971 Y8.776 Z-27.852
X1.972
X2.042 Z-27.869
X2.175 Z-27.871
X2.751 Z-27.619
X2.795 Z-27.592
X3.641 Z-26.936
X4.249 Z-26.436
X4.767 Z-26.099
X5.163 Z-25.96
X5.596 Z-25.886
X6.115 Z-25.89
X6.452 Z-25.893
X6.482 Z-25.877
X6.891 Z-25.655
X7.531 Z-25.428
X7.904 Z-25.375
X8.698 Z-25.374
X9.183 Z-25.45
X9.689 Z-25.599
X9.8 Z-25.553
X10.198 Z-25.443
X10.686 Z-25.405
X11.273 Z-25.447
X11.568 Z-25.421
X11.988 Z-25.41
X12.538 Z-25.46
X13.022 Z-25.592
X13.538 Z-25.866
X14.236 Z-26.052
X14.805 Z-26.274
X15.183 Z-26.18
X15.346 Z-25.976
X15.854 Z-25.506
X16.184 Z-25.3
X16.537 Z-25.17
X17.004 Z-25.061
X17.421 Z-25.047
X17.855 Z-25.115
X17.906 Z-25.063
X18.431 Z-24.618
X18.777 Z-24.445
X19.213 Z-24.333
X19.65 Z-24.294
X20.107 Z-24.314
X20.847 Z-24.365
X21.346 Z-24.448
X21.833 Z-24.353
X22.339 Z-24.317
X22.882 Z-24.396
X23.271 Z-24.53
X23.648 Z-24.684
X24.084 Z-24.518
X24.674 Z-24.112
X25.212 Z-23.84
X25.748 Z-23.682
X26.235 Z-23.605
X26.688 Z-23.506
X27.281 Z-23.397
X28.111 Z-23.362
X28.87 Z-23.439
X29.611 Z-23.691
X30.054 Z-23.921
X30.475 Z-24.228
X30.711 Z-24.465
X30.867 Z-24.469
X31.335 Z-24.509
X31.635 Z-24.609
X31.902 Z-24.537
X32.221 Z-24.376
X32.489 Z-24.237
X33.062 Z-24.049
X33.504 Z-23.982
X34.019 Z-24.009
X34.302 Z-24.09
X34.389 Z-24.104
X35.032 Z-24.089
X35.037 Z-17.842
X35.062 Z-17.55
X35.208 Z-17.09
X35.449 Z-16.675
X35.762 Z-16.315
X36.118 Z-16.012
X36.649 Z-15.727
X36.927 Z-15.605
X37.538 Z-15.395
Z-14.54
X37.569 Z-14.095
X37.688 Z-13.642
X37.872 Z-13.29
X38.072 Z-13.032
X38.444 Z-12.712
X38.854 Z-12.504
X39.19 Z-12.416
X39.643 Z-12.388
X40.129 Z-12.475
X40.46 Z-11.353
X40.717 Z-10.526
X40.962 Z-10.
X41.339 Z-9.491
X41.683 Z-9.169
X41.946 Z-9.008
X42.509 Z-8.78
X43.444 Z-8.571
X43.728 Z-8.456
X44.495 Z-7.92
X45.007 Z-7.626
X45.565 Z-7.456
X46.089 Z-7.422
X46.533 Z-7.484
X46.952 Z-7.621
X47.36 Z-7.862
X47.624 Z-8.109
X47.772 Z-8.335
X47.926 Z-8.77
X48.464 Z-8.651
X48.964 Z-8.639
X49.685 Z-8.803
X49.831 Z-8.804
X50.905 Z-8.543
X51.917 Z-8.386
X52.547 Z-8.384
X53.113 Z-8.474
X53.427 Z-8.564
X53.735 Z-8.675
X54.028 Z-8.81
X54.595 Z-9.138
X54.977 Z-9.42
X55.263 Z-9.689
X55.491 Z-9.986
X55.706 Z-10.483
X55.784 Z-10.86
X56.102 Z-10.942
X56.257 Z-10.992
X56.705 Z-11.172
X57.225 Z-11.542
X57.616 Z-11.942
X57.853 Z-11.917
X58.891 Z-11.82
X60.077 Z-11.658
X60.855 Z-11.501
X62.249 Z-11.117
X62.977 Z-10.834
X63.703 Z-10.469
X64.916 Z-9.799
X65.294 Z-9.705
X65.627 Z-9.681
X65.997 Z-9.777
X66.126 Z-9.856
X66.302 Z-10.056
X66.471 Z-10.378
X66.575 Z-10.724
X66.582 Z-11.773
X66.981 Z-11.603
X67.38 Z-11.531
X67.739 Z-11.581
X68.015 Z-11.719
X68.238 Z-11.93
X68.253 Z-11.257
X68.338 Z-10.984
X68.444 Z-10.758
X68.57 Z-10.62
X68.869 Z-10.431
X69.259 Z-10.301
X69.595 Z-10.25
X69.612 Z-10.195
X69.806 Z-9.793
X70.028 Z-9.536
X70.282 Z-9.332
X70.575 Z-9.204
X70.957 Z-9.165
X71.443 Z-9.225
X71.916 Z-9.406
X72.388 Z-9.635
X72.914 Z-9.414
X73.422 Z-9.285
X74.012 Z-9.222
X74.541 Z-9.269
X74.844 Z-9.369
X75.129 Z-9.544
X75.296 Z-9.765
X75.389 Z-10.048
X75.402 Z-11.461
X75.735 Z-11.504
X76.249 Z-11.647
X76.608 Z-11.604
X77.546 Z-11.589
X77.813 Z-11.443
X78.203 Z-11.318
X78.54 Z-11.296
X78.86 Z-11.346
X78.907 Z-11.318
X79.218 Z-11.158
X79.499 Z-11.085
X79.86 Z-11.072
X80.169 Z-11.143
X80.444 Z-11.28
X80.796 Z-11.579
X81.061 Z-11.616
X81.448 Z-11.697
X81.84 Z-11.808
X82.368 Z-12.029
X82.657 Z-12.177
X83.048 Z-12.426
X83.29 Z-12.67
X83.528 Z-13.027
X83.712 Z-13.12
X84.271 Z-13.246
X84.709 Z-13.43
X85.319 Z-13.839
X85.675 Z-14.144
X85.963 Z-14.454
X86.171 Z-14.81
X86.383 Z-14.73
X86.759 Z-14.665
X87.372 Z-14.671
X88.182 Z-14.821
X88.65 Z-14.956
X89.069 Z-15.157
X89.398 Z-15.043
X89.799 Z-14.995
X90.207 Z-15.026
X90.842 Z-15.204
X91.608 Z-15.488
X91.896 Z-15.634
X92.283 Z-15.906
X92.722 Z-16.325
X93.024 Z-16.389
X93.38 Z-16.546
X93.721 Z-16.805
X93.987 Z-17.113
X94.149 Z-17.411
X94.26 Z-17.718
X94.723 Z-17.549
X95.517 Z-17.335
X96.189 Z-17.23
X97.413 Z-17.206
X98.27 Z-17.336
X99.285 Z-17.556
X99.99 Z-17.799
X100.595 Z-18.047
X101.643 Z-18.596
X102.678 Z-19.188
X103.964 Z-20.01
X104.857 Z-20.691
X105.25 Z-21.076
X105.606 Z-20.945
X106.026 Z-20.895
X106.431 Z-20.925
X106.799 Z-21.035
X107.169 Z-21.218
X107.476 Z-21.46
X107.833 Z-21.858
X109.103 Z-22.772
X112.363 Z-25.027
X113.167 Z-25.601
X113.952 Z-26.201
X115.282 Z-27.254
X116.237 Z-27.157
X116.911 Z-26.87
X117.471 Z-26.722
X118.205 Z-26.63
X118.907 Z-26.638
X119.084 Z-26.573
X119.106 Z-26.55
X119.312 Z-25.95
X119.532 Z-25.677
X119.73 Z-25.534
X119.891 Z-25.477
X120.054 Z-25.447
X120.434 Z-25.471
X120.746 Z-25.308
X121.19 Z-25.148
X121.68 Z-25.07
X121.97 Z-25.01
X122.452 Z-24.963
X123.118 Z-24.989
X123.431 Z-25.077
X123.787 Z-25.239
X123.853 Z-25.24
X124.418 Z-25.294
X124.907 Z-25.144
X125.723 Z-24.851
X126.124 Z-24.785
X126.621 Z-24.808
X126.914 Z-24.889
X127.321 Z-25.082
X127.649 Z-24.976
X128.374 Z-24.797
X128.676 Z-24.751
X129.552 Z-24.778
X130.404 Z-24.759
X131.219 Z-24.712
X132.671 Z-24.776
X133.44 Z-24.905
X134.06 Z-25.114
X134.458 Z-25.298
X134.938 Z-25.599
X135.222 Z-25.664
X135.904 Z-25.872
X136.331 Z-26.098
X136.778 Z-26.426
X137.217 Z-26.888
X137.595 Z-26.77
X137.836 Z-26.587
X138.112 Z-26.449
X138.49 Z-26.357
X139.089 Z-26.33
X139.401 Z-26.271
X139.785 Z-26.264
X139.99 Z-26.213
X140.36 Z-26.175
X140.825 Z-25.723
X141.197 Z-25.442
X141.584 Z-25.278
X142.059 Z-25.168
X142.477 Z-25.175
X142.867 Z-25.259
X143.154 Z-25.396
X143.527 Z-25.676
X143.807 Z-25.987
X143.98 Z-26.296
X144.047 Z-26.298
X144.521 Z-26.371
X144.812 Z-26.491
X145.272 Z-26.83
X145.44 Z-26.778
X145.968 Z-26.71
X146.356 Z-26.739
X146.821 Z-26.881
X147.197 Z-27.078
X147.425 Z-27.273
X147.708 Z-27.649
X147.834 Z-27.712
X147.886 Y8.781 Z-27.711
X147.935 Y8.798 Z-27.708
X147.979 Y8.825 Z-27.702
X148.016 Y8.861 Z-27.695
X148.043 Y8.904 Z-27.686
X148.06 Y8.952 Z-27.676
X148.066 Y9.002 Z-27.665
X148.06 Y9.053 Z-27.655
X148.043 Y9.101 Z-27.645
X148.016 Y9.144 Z-27.636
X147.979 Y9.18 Z-27.628
X147.935 Y9.207 Z-27.623
X147.886 Y9.223 Z-27.619
X147.834 Y9.229 Z-27.618
X147.828
X147.71 Z-27.565
X147.402 Z-27.222
X147.153 Z-27.027
X146.876 Z-26.887
X146.409 Z-26.762
X145.914 Z-26.741
X145.488 Z-26.819
X145.41 Z-26.834
X145.018 Z-26.495
X144.722 Z-26.333
X144.416 Z-26.241
X144.199 Z-26.203
X143.999 Z-25.912
X143.614 Z-25.544
X143.182 Z-25.265
X142.846 Z-25.142
X142.526 Z-25.083
X142.035 Z-25.098
X141.741 Z-25.167
X141.326 Z-25.358
X140.944 Z-25.624
X140.441 Z-26.147
X139.861 Z-26.117
X139.467 Z-26.181
X138.936 Z-26.355
X138.871 Z-26.362
X138.522 Z-26.367
X138.225 Z-26.425
X137.941 Z-26.542
X137.678 Z-26.717
X137.523 Z-26.864
X136.96 Z-26.296
X136.389 Z-25.926
X135.987 Z-25.755
X135.376 Z-25.609
X134.829 Z-25.272
X134.383 Z-25.067
X133.598 Z-24.84
X132.781 Z-24.732
X130.865 Z-24.709
X130.274 Z-24.809
X129.854 Z-24.65
X129.365 Z-24.594
X128.987 Z-24.627
X128.461 Z-24.761
X127.679 Z-25.072
X127.323 Z-25.225
X126.944 Z-25.016
X126.641 Z-24.92
X126.232 Z-24.89
X125.832 Z-24.933
X125.405 Z-25.092
X125.035 Z-25.274
X124.477 Z-25.043
X124.076 Z-24.977
X123.654 Z-24.984
X123.05 Z-25.112
X122.766 Z-25.211
X122.569 Z-25.324
X121.995 Z-25.348
X121.68 Z-25.4
X121.019 Z-25.618
X120.702 Z-25.791
X120.475 Z-25.979
X120.262 Z-26.235
X119.915 Z-26.305
X119.046 Z-26.65
X118.963 Z-26.691
X118.294 Z-26.758
X117.891 Z-26.839
X117.048 Z-27.149
X116.077 Z-27.312
X114.567 Z-25.989
X113.285 Z-25.027
X111.527 Z-23.854
X109.296 Z-22.428
X108.532 Z-21.986
X107.573 Z-21.507
X107.13 Z-21.171
X106.738 Z-20.992
X106.388 Z-20.891
X105.915 Z-20.869
X105.62 Z-20.909
X105.282 Z-21.02
X104.95 Z-20.75
X104.124 Z-20.193
X101.701 Z-18.657
X101.007 Z-18.242
X100.326 Z-17.922
X99.271 Z-17.608
X98.674 Z-17.514
X98.14 Z-17.466
X97.507 Z-17.446
X96.836 Z-17.486
X96.031 Z-17.645
X95.391 Z-17.853
X94.541 Z-18.197
X94.502 Z-17.857
X94.385 Z-17.53
X94.073 Z-17.006
X93.811 Z-16.712
X93.441 Z-16.434
X92.843 Z-16.178
X92.483 Z-16.088
X92.083 Z-15.839
X91.649 Z-15.623
X90.959 Z-15.35
X90.411 Z-15.177
X89.85 Z-15.063
X89.432 Z-15.086
X89.083 Z-15.159
X88.554 Z-14.975
X87.445 Z-14.786
X86.777 Z-14.713
X86.248 Z-14.764
X86.096 Z-14.699
X85.663 Z-14.251
X85.414 Z-14.04
X84.74 Z-13.573
X84.11 Z-13.207
X83.907 Z-12.996
X83.546 Z-12.766
X83.294 Z-12.644
X82.939 Z-12.375
X82.534 Z-12.154
X81.781 Z-11.832
X81.251 Z-11.664
X80.988 Z-11.338
X80.678 Z-11.114
X80.316 Z-10.947
X79.926 Z-10.854
X79.514 Z-10.842
X79.176 Z-10.903
X78.742 Z-11.103
X78.368 Z-11.384
X78.33 Z-11.418
X76.935 Z-11.485
Z-9.259
X76.874 Z-9.047
X76.663 Z-8.826
X76.424 Z-8.685
X76.198 Z-8.64
X75.869 Z-8.648
X75.612 Z-8.669
X74.762 Z-8.636
X74.148 Z-8.713
X73.499 Z-8.891
X72.81 Z-9.18
X72.385 Z-9.417
X72.048 Z-9.211
X71.687 Z-9.005
X71.236 Z-8.807
X70.76 Z-8.717
X70.4 Z-8.751
X70.184 Z-8.808
X69.905 Z-8.959
X69.666 Z-9.189
X69.403 Z-9.598
X69.309 Z-9.854
X68.824 Z-9.883
X68.214 Z-10.047
X67.942 Z-10.216
X67.718 Z-10.416
X67.533 Z-10.611
X67.062 Z-10.842
X66.357 Z-11.417
X66.032 Z-11.734
X65.987 Z-11.347
X65.878 Z-11.038
X65.638 Z-10.727
X65.413 Z-10.58
X65.276 Z-10.536
X65.033 Z-10.535
X64.589 Z-10.608
X63.537 Z-10.984
X62.88 Z-11.174
X61.061 Z-11.506
X60.445 Z-11.626
X58.693 Z-11.855
X58.123 Z-11.9
X57.309 Z-12.024
X56.836 Z-11.582
X56.568 Z-11.407
X56.282 Z-11.25
X55.882 Z-11.11
X55.838 Z-11.098
X55.782 Z-10.554
X55.628 Z-10.122
X55.423 Z-9.755
X55.23 Z-9.534
X54.735 Z-9.173
X54.07 Z-8.827
X53.365 Z-8.562
X52.743 Z-8.436
X52.031 Z-8.417
X51.593 Z-8.449
X50.708 Z-8.588
X49.925 Z-8.722
X49.694 Z-8.69
X49.058 Z-8.554
X48.648 Z-8.539
X48.177 Z-8.613
X47.959 Z-8.167
X47.664 Z-7.806
X47.424 Z-7.612
X47.004 Z-7.411
X46.609 Z-7.322
X46.195 Z-7.304
X45.676 Z-7.377
X45.299 Z-7.492
X44.76 Z-7.77
X44.145 Z-8.194
X43.87 Z-8.352
X43.573 Z-8.48
X43.32 Z-8.543
X42.863 Z-8.62
X42.241 Z-8.808
X41.738 Z-9.072
X41.438 Z-9.337
X41.099 Z-9.766
X40.829 Z-10.255
X40.727 Z-10.52
X40.458 Z-11.431
X40.138 Z-12.47
X39.819 Z-12.404
X39.491 Z-12.392
X39.256 Z-12.425
X38.966 Z-12.517
X38.566 Z-12.74
X38.323 Z-12.928
X38.009 Z-13.295
X37.821 Z-13.654
X37.703 Z-14.087
X37.675 Z-14.491
X37.672 Z-15.336
X36.926 Z-15.603
X36.392 Z-15.884
X35.898 Z-16.271
X35.693 Z-16.473
X35.462 Z-16.812
X35.254 Z-17.264
X35.185 Z-17.648
X35.175 Z-24.019
X34.373 Z-24.075
X33.668 Z-24.097
X33.476 Z-24.123
X33.039 Z-24.185
X32.752 Z-24.278
X32.41 Z-24.44
X31.92 Z-24.651
X31.528 Z-24.77
X31.439 Z-24.81
X31.04 Z-24.731
X30.458 Z-24.735
X30.038 Z-24.288
X29.607 Z-24.037
X28.969 Z-23.762
X28.435 Z-23.65
X27.611 Z-23.576
X26.655 Z-23.708
X26.028 Z-23.883
X25.603 Z-23.953
X25.266 Z-24.081
X24.994 Z-24.193
X24.702 Z-24.399
X24.288 Z-24.763
X24.018 Z-24.926
X23.915 Z-24.961
X23.475 Z-24.725
X23.02 Z-24.541
X22.548 Z-24.416
X22.042 Z-24.37
X21.705 Z-24.383
X21.378 Z-24.431
X21.028 Z-24.502
X20.125 Z-24.352
X19.629 Z-24.321
X19.122 Z-24.367
X18.689 Z-24.486
X18.282 Z-24.702
X17.916 Z-24.989
X17.431 Z-24.929
X17.094 Z-24.921
X16.778 Z-24.965
X16.346 Z-25.103
X15.791 Z-25.372
X15.549 Z-25.537
X15.189 Z-25.826
X14.894 Z-26.156
X14.866 Z-26.19
X14.323 Z-26.33
X14.177 Z-26.384
X12.674 Z-25.763
X12.321 Z-25.672
X11.745 Z-25.641
X11.39 Z-25.672
X10.921 Z-25.562
X10.421 Z-25.538
X9.937 Z-25.604
X9.685 Z-25.656
X8.704 Z-25.418
X8.148 Z-25.367
X7.621 Z-25.365
X7.209 Z-25.427
X6.675 Z-25.62
X6.304 Z-25.826
X6.209 Z-25.89
X5.49 Z-25.87
X5.158 Z-25.917
X4.728 Z-26.059
X4.325 Z-26.282
X3.358 Z-27.065
X2.816 Z-27.595
X2.609 Z-27.83
X2.177 Z-28.034
X2.04 Z-28.033
X1.97 Z-28.017
X1.962
X1.911 Y9.235
X1.863 Y9.252 Z-28.018
X1.82 Y9.279 Z-28.02
X1.784 Y9.315 Z-28.022
X1.757 Y9.358 Z-28.024
X1.74 Y9.405 Z-28.027
X1.735 Y9.456 Z-28.03
X1.74 Y9.506 Z-28.033
X1.757 Y9.554 Z-28.035
X1.784 Y9.597 Z-28.038
X1.82 Y9.633 Z-28.04
X1.863 Y9.66 Z-28.041
X1.911 Y9.677 Z-28.042
X1.962 Y9.683 Z-28.043
X2.032 Z-28.059
X2.18 Z-28.054
X2.621 Z-27.802
X2.888 Z-27.442
X3.485 Z-26.901
X4.373 Z-26.279
X4.89 Z-26.039
X5.33 Z-25.952
X5.982 Z-25.946
X6.467 Z-25.675
X6.85 Z-25.516
X7.342 Z-25.399
X7.637 Z-25.38
X8.214 Z-25.422
X9.733 Z-25.753
X10.444 Z-25.709
X10.77 Z-25.758
X11.748 Z-26.044
X12.376 Z-26.124
X13.077 Z-26.284
X13.684 Z-26.502
X14.053 Z-26.327
X14.608 Z-26.166
X14.804 Z-25.938
X15.272 Z-25.535
X15.948 Z-25.167
X16.372 Z-25.009
X16.974 Z-24.86
X17.487 Z-24.857
X17.892 Z-24.936
X18.296 Z-24.655
X18.713 Z-24.468
X19.078 Z-24.378
X19.614 Z-24.343
X20.186 Z-24.393
X20.715 Z-24.546
X21.359 Z-24.436
X21.738 Z-24.399
X22.479 Z-24.474
X22.988 Z-24.627
X23.288 Z-24.755
X23.575 Z-24.901
X23.845 Z-25.066
X23.972 Z-25.158
X24.325 Z-25.467
X24.5 Z-25.298
X24.674 Z-25.127
X25.054 Z-24.732
X25.381 Z-24.517
X25.661 Z-24.395
X25.9 Z-24.361
X26.471 Z-24.154
X27.002 Z-24.014
X27.386 Z-23.978
X27.624 Z-23.972
X28.32 Z-24.077
X28.886 Z-24.287
X29.623 Z-24.746
X30.071 Z-24.741
X30.465 Z-24.674
X30.962 Z-24.672
X31.423 Z-24.757
X31.903 Z-24.801
X32.164 Z-24.782
X32.771 Z-24.387
X33.057 Z-24.277
X33.81 Z-24.129
X34.259 Z-24.12
X34.836 Z-24.071
X35.323 Z-24.043
Z-17.825
X35.342 Z-17.589
X35.38 Z-17.395
X35.546 Z-16.897
X35.719 Z-16.587
X36.015 Z-16.26
X36.566 Z-15.822
X37.196 Z-15.501
X37.802 Z-15.291
X37.811 Z-14.285
X37.904 Z-13.775
X38.09 Z-13.366
X38.353 Z-13.031
X38.651 Z-12.771
X39.052 Z-12.543
X39.342 Z-12.451
X39.68 Z-12.415
X40.146 Z-12.456
X40.63 Z-10.859
X40.84 Z-10.231
X41.093 Z-9.738
X41.383 Z-9.35
X41.674 Z-9.065
X42.067 Z-8.821
X42.558 Z-8.63
X43.426 Z-8.474
X43.732 Z-8.373
X44.031 Z-8.237
X44.599 Z-7.906
X45.281 Z-7.504
X45.738 Z-7.324
X46.251 Z-7.22
X46.744 Z-7.213
X47.062 Z-7.267
X47.57 Z-7.484
X47.898 Z-7.705
X48.172 Z-8.027
X48.414 Z-8.495
X48.709 Z-8.47
X49.164 Z-8.491
X49.822 Z-8.622
X50.112 Z-8.654
X51.121 Z-8.543
X52.002 Z-8.473
X52.668 Z-8.493
X53.356 Z-8.616
X53.939 Z-8.809
X54.527 Z-9.054
X54.991 Z-9.323
X55.315 Z-9.593
X55.492 Z-9.823
X55.744 Z-10.338
X55.802 Z-10.565
X55.867 Z-11.414
X56.027 Z-11.472
X56.309 Z-11.603
X56.607 Z-11.828
X57.002 Z-12.221
X57.432 Z-12.135
X58.075 Z-12.036
X58.551 Z-11.99
X59.505 Z-11.867
X59.912 Z-11.797
X60.436 Z-11.752
X60.838 Z-11.686
X61.722 Z-11.579
X63.37 Z-11.428
X64.042 Z-11.355
X64.621 Z-11.368
X64.938 Z-11.484
X65.158 Z-11.634
X65.287 Z-11.808
X65.364 Z-12.046
X65.56 Z-12.04
X65.808 Z-11.647
X66.241 Z-11.059
X66.865 Z-10.435
X66.946 Z-10.267
X67.119 Z-10.007
X67.262 Z-9.88
X67.745 Z-9.643
X68.172 Z-9.496
X68.679 Z-9.405
X69.084 Z-9.434
X69.118 Z-9.332
X69.271 Z-9.035
X69.58 Z-8.687
X69.842 Z-8.489
X70.258 Z-8.335
X70.594 Z-8.308
X70.904 Z-8.367
X71.488 Z-8.593
X72.082 Z-9.011
X72.361 Z-9.276
X72.544 Z-9.157
X73.12 Z-8.791
X74.053 Z-8.409
X74.808 Z-8.193
X75.869 Z-8.032
X76.411 Z-8.031
X76.846 Z-8.117
X77.104 Z-8.225
X77.426 Z-8.316
X77.738 Z-8.504
X78.199 Z-8.723
X78.399 Z-8.929
X78.51 Z-9.201
X78.512 Z-10.976
X78.786 Z-10.856
X79.223 Z-10.736
X79.665 Z-10.697
X80.109 Z-10.756
X80.798 Z-10.994
X81.132 Z-11.21
X81.435 Z-11.503
X81.639 Z-11.81
X82.317 Z-12.102
X82.955 Z-12.407
X83.257 Z-12.469
X83.554 Z-12.584
X83.96 Z-12.838
X84.279 Z-13.154
X84.514 Z-13.518
X84.588 Z-13.579
X85.752 Z-14.421
X86.085 Z-14.475
X86.506 Z-14.618
X86.76 Z-14.776
X86.87 Z-14.798
X88.603 Z-15.064
X89.111 Z-14.948
X89.441 Z-14.952
X89.727 Z-15.014
X90.126 Z-15.181
X90.405 Z-15.273
X91.107 Z-15.515
X92.022 Z-15.897
X92.398 Z-15.905
X92.793 Z-15.984
X93.077 Z-16.116
X93.827 Z-16.667
X94.227 Z-17.138
X94.456 Z-17.47
X94.596 Z-17.822
X94.79 Z-18.56
X94.942 Z-18.686
X96.591 Z-17.993
X97.543 Z-17.766
X98.293 Z-17.722
X99.257 Z-17.786
X100.028 Z-17.933
X100.494 Z-18.1
X101.114 Z-18.405
X101.441 Z-18.607
X101.857 Z-18.888
X102.642 Z-19.435
X103.637 Z-20.081
X104.885 Z-20.721
X105.336 Z-21.028
X105.39 Z-21.011
X105.822 Z-20.907
X106.32 Z-20.911
X106.692 Z-21.007
X107.284 Z-21.291
X108.119 Z-21.57
X108.922 Z-21.885
X109.908 Z-22.397
X111.706 Z-23.446
X113.691 Z-24.752
X114.21 Z-25.15
X115.474 Z-26.203
X115.912 Z-26.658
X116.646 Z-27.349
X118.07 Z-27.025
X118.638 Z-26.833
X118.969 Z-26.778
X119.525 Z-26.459
X119.943 Z-26.275
X120.526 Z-26.149
X120.827 Z-26.111
X121.601 Z-26.134
X121.913 Z-25.656
X122.267 Z-25.312
X122.594 Z-25.104
X123.09 Z-24.926
X123.613 Z-24.843
X124.151 Z-24.862
X124.547 Z-24.939
X124.99 Z-25.122
X125.394 Z-25.403
X125.508 Z-25.346
X125.941 Z-25.191
X126.177 Z-25.166
X126.587 Z-25.19
X126.854 Z-25.278
X127.315 Z-25.536
X127.791 Z-25.215
X128.289 Z-24.818
X128.653 Z-24.618
X129.09 Z-24.492
X129.491 Z-24.46
X129.948 Z-24.517
X130.59 Z-24.737
X131.23 Z-24.74
X132.686 Z-24.71
X133.45 Z-24.752
X134.216 Z-24.895
X134.874 Z-25.12
X135.171 Z-25.256
X135.762 Z-25.606
X135.882 Z-25.63
X136.392 Z-25.781
X136.816 Z-25.988
X137.352 Z-26.364
X137.799 Z-26.815
X138.034 Z-26.666
X138.321 Z-26.558
X138.628 Z-26.505
X139.149 Z-26.234
X139.591 Z-26.097
X140.16 Z-26.04
X140.599 Z-26.07
X140.821 Z-25.802
X141.126 Z-25.526
X141.633 Z-25.212
X141.971 Z-25.104
X142.389 Z-25.058
X142.718 Z-25.089
X143.186 Z-25.2
X143.516 Z-25.354
X143.883 Z-25.583
X144.228 Z-25.888
X144.494 Z-26.251
X144.86 Z-26.397
X145.104 Z-26.557
X145.431 Z-26.865
X145.495 Z-26.849
X145.923 Z-26.772
X146.405 Z-26.78
X146.856 Z-26.877
X147.141 Z-27.013
X147.518 Z-27.295
X147.713 Z-27.516
X147.832 Z-27.569
X147.843
X147.893 Y9.688
X147.941 Y9.705
X147.984 Y9.732
X148.02 Y9.768
X148.047 Y9.811
X148.064 Y9.859
X148.069 Y9.91
X148.064 Y9.96
X148.047 Y10.008
X148.02 Y10.051
X147.984 Y10.087
X147.941 Y10.114 Z-27.568
X147.893 Y10.131
X147.843 Y10.136
X147.724 Z-27.516
X147.715 Z-27.505
X147.518 Z-27.285
X147.141 Z-27.009
X146.858 Z-26.877
X146.467 Z-26.793
X145.958 Z-26.795
X145.448 Z-26.867
X145.218 Z-26.842
X144.929 Z-26.594
X144.66 Z-26.084
X144.39 Z-25.786
X143.86 Z-25.43
X143.204 Z-25.163
X142.785 Z-25.091
X142.177 Z-25.101
X141.79 Z-25.187
X141.51 Z-25.314
X141.252 Z-25.488
X140.93 Z-25.772
X140.722 Z-26.017
X140.298 Z-25.977
X139.815 Z-26.042
X139.24 Z-26.207
X138.087 Z-26.733
X138.029 Z-26.761
X137.697 Z-26.41
X137.188 Z-26.028
X136.76 Z-25.804
X136.298 Z-25.649
X136.06 Z-25.582
X135.815 Z-25.427
X135.553 Z-25.286
X135.069 Z-25.071
X134.642 Z-24.937
X134.161 Z-24.825
X133.673 Z-24.754
X133.155 Z-24.712
X132.068 Z-24.723
X131.81 Z-24.717
X131.304 Z-24.597
X130.873 Z-24.578
X130.578 Z-24.607
X130.193 Z-24.481
X129.793 Z-24.397
X129.294 Z-24.386
X128.853 Z-24.479
X128.433 Z-24.667
X128.175 Z-24.849
X127.834 Z-25.227
X127.509 Z-25.81
X127.433 Z-25.899
X127.237 Z-26.063
X127.093 Z-26.
X126.642 Z-25.779
X126.329 Z-25.728
X126.165 Z-25.736
X125.915 Z-25.813
X125.734 Z-25.752
X125.328 Z-25.367
X124.999 Z-25.137
X124.441 Z-24.918
X124.004 Z-24.83
X123.594 Z-24.819
X123.111 Z-24.891
X122.682 Z-25.019
X122.404 Z-25.158
X122.091 Z-25.418
X121.898 Z-25.615
X121.667 Z-25.978
X121.626 Z-26.054
X120.968 Z-26.08
X120.437 Z-26.167
X119.795 Z-26.371
X119.309 Z-26.682
X119.105 Z-26.825
X118.362 Z-26.99
X117.071 Z-27.412
X115.439 Z-25.742
X114.573 Z-24.965
X113.919 Z-24.484
X112.596 Z-23.555
X111.486 Z-22.906
X109.839 Z-22.047
X109.188 Z-21.755
X108.434 Z-21.512
X107.668 Z-21.333
X106.957 Z-21.188
X106.363 Z-21.024
X106.039 Z-20.991
X105.654 Z-21.042
X105.482 Z-21.09
X105.067 Z-20.831
X104.656 Z-20.649
X103.918 Z-20.472
X103.644 Z-20.386
X103.175 Z-20.121
X102.559 Z-19.69
X101.241 Z-18.716
X100.403 Z-18.288
X100.058 Z-18.195
X99.176 Z-18.075
X99.087
X98.868 Z-17.814
X98.642 Z-17.683
X98.189 Z-17.52
X97.526 Z-17.368
X97.314 Z-17.035
X97.101 Z-16.808
X96.885 Z-16.681
X96.795 Z-16.581
X96.609 Z-16.305
X96.392 Z-16.151
X96.058 Z-16.073
X95.115 Z-15.9
X94.802 Z-15.962
X94.569 Z-16.085
X94.406 Z-16.212
X94.22 Z-16.448
X94.005 Z-16.893
X93.575 Z-16.388
X93.214 Z-16.089
X92.868 Z-15.908
X92.32 Z-15.762
X91.927 Z-15.755
X91.594 Z-15.791
X90.659 Z-15.45
X90.247 Z-15.142
X89.812 Z-14.952
X89.503 Z-14.869
X89.092 Z-14.857
X88.693 Z-14.921
X88.271 Z-15.091
X87.145 Z-14.934
X86.842 Z-14.698
X86.437 Z-14.479
X85.872 Z-14.32
X85.411 Z-14.279
X84.725 Z-13.784
X84.54 Z-13.356
X84.273 Z-12.993
X84.047 Z-12.798
X83.487 Z-12.496
X83.026 Z-12.346
X82.565 Z-12.271
X81.969 Z-11.981
X81.769 Z-11.615
X81.768 Z-10.453
X81.719 Z-10.142
X81.588 Z-9.816
X81.405 Z-9.602
X81.297 Z-9.516
X81.037 Z-9.409
X80.619 Z-9.34
X80.366 Z-9.384
X80.128 Z-9.525
X79.864 Z-9.775
X79.655 Z-10.181
X79.621 Z-10.331
X79.607 Z-8.951
X79.518 Z-8.674
X79.322 Z-8.357
X79.106 Z-8.177
X78.791 Z-8.03
X78.424 Z-7.965
X78.188 Z-7.834
X77.972 Z-7.797
X77.713 Z-7.713
X77.445 Z-7.726
X77.114 Z-7.792
X76.418 Z-7.55
X76.09 Z-7.52
X75.733 Z-7.565
X74.971 Z-7.78
X73.443 Z-8.444
X72.868 Z-8.818
X72.686 Z-8.95
X72.223 Z-9.019
X71.775 Z-8.569
X71.258 Z-8.185
X70.978 Z-8.046
X70.508 Z-7.939
X70.179 Z-7.945
X69.814 Z-8.036
X69.51 Z-8.216
X69.143 Z-8.581
X69.067 Z-8.679
X68.712 Z-8.74
X68.261 Z-8.939
X67.79 Z-9.171
X67.253 Z-9.256
X67.003 Z-9.355
X66.863 Z-9.445
X66.579 Z-9.742
X66.432 Z-9.983
X66.315 Z-10.441
X66.292 Z-10.676
X65.984 Z-11.041
X65.644 Z-11.637
X65.327 Z-11.567
X65. Z-11.56
X64.831 Z-11.576
X64.662 Z-11.618
X64.342 Z-11.792
X64.13 Z-11.993
X64.05 Z-12.104
X63.71 Z-12.021
X63.31 Z-11.943
X62.471 Z-11.897
X61.627 Z-11.896
X61.237 Z-11.925
X60.443 Z-12.004
X59.68 Z-12.076
X59.315 Z-12.137
X58.247 Z-12.259
X57.008 Z-12.511
X56.715 Z-12.615
X56.391 Z-12.2
X56.017 Z-11.899
X55.863 Z-11.405
X55.807 Z-10.752
X55.736 Z-10.398
X55.585 Z-10.043
X55.426 Z-9.779
X55.115 Z-9.45
X54.724 Z-9.186
X54.126 Z-8.938
X53.499 Z-8.742
X52.816 Z-8.595
X52.53 Z-8.566
X52.031 Z-8.545
X50.5 Z-8.622
X50.162 Z-8.61
X49.171 Z-8.441
X48.663 Z-8.428
X48.439 Z-8.021
X48.171 Z-7.707
X47.794 Z-7.434
X47.366 Z-7.234
X46.889 Z-7.131
X46.522 Z-7.12
X45.974 Z-7.242
X45.743 Z-7.323
X45.464 Z-7.443
X44.123 Z-8.157
X43.522 Z-8.406
X42.874 Z-8.495
X42.58 Z-8.551
X42.153 Z-8.705
X41.769 Z-8.936
X41.461 Z-9.206
X41.162 Z-9.59
X40.897 Z-10.088
X40.733 Z-10.543
X40.283 Z-12.049
X40.148 Z-12.441
X39.758 Z-12.421
X39.329 Z-12.494
X39.039 Z-12.597
X38.692 Z-12.818
X38.413 Z-13.085
X38.172 Z-13.397
X38.023 Z-13.722
X37.946 Z-14.114
X37.93 Z-15.252
X37.332 Z-15.466
X36.8 Z-15.734
X36.307 Z-16.097
X35.956 Z-16.471
X35.708 Z-16.848
X35.572 Z-17.182
X35.473 Z-17.612
X35.455 Z-17.82
X35.448 Z-24.131
X35.397 Z-24.16
X34.836 Z-24.173
X34.628 Z-24.202
X33.931 Z-24.218
X33.604 Z-24.255
X33.17 Z-24.368
X32.749 Z-24.547
X32.318 Z-24.819
X32.092 Z-24.837
X31.636 Z-24.757
X30.84 Z-24.643
X30.259 Z-24.675
X29.788 Z-24.647
X29.471 Z-24.685
X29.245 Z-24.739
X28.617 Z-24.803
X28.202 Z-24.938
X28.087 Z-24.981
X27.813 Z-24.856
X27.451 Z-24.793
X27.082 Z-24.807
X26.57 Z-24.925
X26.297 Z-25.115
X26.124 Z-25.264
X25.786 Z-25.366
X25.307 Z-25.482
X25.199 Z-25.517
