(04_T3_DETAIL_REST_BALL_2x17)
(Sylvan Dragoness pear 150x150x45 - 04_T3_DETAIL_REST_BALL_2x17)
(T3  2 Flute Ball Nose 2.0*17 T3      D=2. CR=1. - ZMIN=-31.55 - ball end mill)
( =================================================== )
(   Z Origin Set To   : Stock Top )
(   Stock Height                    : 40. mm )
(   Toolpath Z Maximum from Stock Top: 15. mm )
(   Toolpath Z Min from Stock Top: -31.55 mm )
(  )
( =================================================== )

( The following values are based on the part position info used in fusion and can be used to roughly align the machine offset from anchor 1 if you use that feature. )
(   X Offset   : -75. mm )
(   Y Offset   : -75. mm )

( =================================================== )

G90 G94
G17
G21
(When using Fusion for Personal Use, the feedrate of rapid)
(moves is reduced to match the feedrate of cutting moves,)
(which can increase machining time. Unrestricted rapid moves)
(are available with a Fusion Subscription.)

(04_ANCHOR1_RELIEF_DETAIL_REST_BALL_2x17)
M6 T3 
(6)
M400
M851 S100
S12000 M3
G54
G0 X145.075 Y1.982
Z15.
G1 Z-25.192 F280.
Z-27.939 F200.
X144.847 Z-28.138 F280.
X144.735 Z-28.122
X144.707 Z-28.013
X144.704 Z-27.988
Z-27.873
X144.634 Y2.209 Z-27.636
X144.564 Y2.436 Z-27.873
X144.57 Z-27.909
X144.62 Z-28.039
X144.73 Z-28.054
X144.787 Z-28.045
X144.831 Z-28.035
X144.872 Y2.439 Z-28.034
X144.911 Y2.45 Z-28.032
X144.947 Y2.466 Z-28.028
X144.981 Y2.489 Z-28.023
X145.009 Y2.517 Z-28.017
X145.032 Y2.549 Z-28.01
X145.049 Y2.585 Z-28.003
X145.06 Y2.623 Z-27.994
X145.063 Y2.663 Z-27.986
X145.06 Y2.702 Z-27.977
X145.049 Y2.74 Z-27.969
X145.032 Y2.776 Z-27.961
X145.009 Y2.808 Z-27.954
X144.981 Y2.836 Z-27.948
X144.947 Y2.859 Z-27.943
X144.911 Y2.876 Z-27.94
X144.872 Y2.886 Z-27.937
X144.831 Y2.889
X144.619
X144.575 Z-27.947
X144.518 Z-27.956
X144.347 Z-27.934
X144.286 Z-27.755
X144.281 Z-27.723
X144.306 Y3.116 Z-27.495
X144.33 Y3.343 Z-27.723
Z-27.751
X144.221 Z-27.851
X144.007 Z-27.831
X143.887 Z-27.532
X143.88 Z-27.495
Z-27.301
X143.787 Y3.57 Z-27.056
X143.693 Y3.796 Z-27.301
X143.573 Z-27.399
X143.438 Z-27.372
X143.351 Z-27.188
X143.342 Z-27.145
Z-27.051
X143.395 Y4.023 Z-26.818
X143.448 Y4.25 Z-27.051
X143.299 Z-27.138
X143.09 Z-27.019
X142.928 Z-26.967
X142.883 Z-26.83
X142.872 Z-26.767
Z5.
X140.295
Z-23.991
Z-26.122 F200.
X140.198 Z-26.293 F280.
X140.142 Z-26.327
X140.081 Z-26.285
X140.037 Z-26.203
X139.827 Y4.465 Z-25.903
X139.804 Y4.489
X139.594 Y4.704 Z-26.203
Z-26.415
X139.62 Z-26.483
X139.868 Z-26.756
X139.94 Z-26.731
X140.254 Z-26.671
X140.413 Z-26.613
X140.679 Z-26.547
X140.997
X141.254 Z-26.414
X141.308 Z-26.325
X141.608 Z-26.025
X141.79
X142.09 Z-26.325
Z-26.445
X142.123 Z-26.52
X142.143 Z-26.537
X142.344 Z-26.794
X142.808 Z-26.843
X142.918 Z-26.744
X143.007 Y4.75 Z-26.644
X143.686 Y5.11
X143.775 Y5.157 Z-26.744
Z-27.227
X143.79 Z-27.28
X143.86 Z-27.391
X143.982 Z-27.358
X144.019 Z-27.339
X144.068 Z-27.318
X144.121 Z-27.325
X144.241 Z-27.375
X144.414 Z-27.447
X144.58 Z-27.449
X144.782 Z-27.249
Z5.
X146.404 Y2.889
Z-26.36
Z-28.417 F200.
X146.503 Z-28.59 F280.
X146.567 Z-28.627
X146.603 Z-28.617
X146.709 Z-28.572
X146.77 Z-28.48
Z-28.474
X146.767 Y3.116 Z-28.247
X146.764 Y3.343 Z-28.474
X146.717 Z-28.559
X146.592 Z-28.637
X146.492 Z-28.577
X146.491 Z-28.575
X146.458 Y3.346 Z-28.553
X146.427 Y3.357 Z-28.531
X146.398 Y3.373 Z-28.51
X146.371 Y3.396 Z-28.492
X146.349 Y3.424 Z-28.475
X146.33 Y3.456 Z-28.462
X146.317 Y3.492 Z-28.451
X146.309 Y3.53 Z-28.445
X146.307 Y3.57 Z-28.442
X146.31 Y3.609 Z-28.443
X146.319 Y3.647 Z-28.449
X146.333 Y3.683 Z-28.457
X146.352 Y3.715 Z-28.47
X146.376 Y3.743 Z-28.485
X146.403 Y3.766 Z-28.503
X146.432 Y3.783 Z-28.523
X146.464 Y3.793 Z-28.545
X146.496 Y3.796 Z-28.567
X146.595 Z-28.635
X146.713 Z-28.554
X146.726 Z-28.544
X146.742 Z-28.528
X146.771 Y3.8 Z-28.5
X146.798 Y3.81 Z-28.474
X146.824 Y3.827 Z-28.449
X146.847 Y3.85 Z-28.426
X146.867 Y3.878 Z-28.407
X146.883 Y3.91 Z-28.391
X146.895 Y3.946 Z-28.379
X146.902 Y3.984 Z-28.372
X146.905 Y4.023 Z-28.369
X146.902 Y4.063 Z-28.372
X146.895 Y4.101 Z-28.379
X146.883 Y4.137 Z-28.39
X146.867 Y4.169 Z-28.406
X146.846 Y4.197 Z-28.425
X146.823 Y4.22 Z-28.448
X146.797 Y4.236 Z-28.473
X146.77 Y4.247 Z-28.499
X146.742 Y4.25 Z-28.527
X146.734 Z-28.533
X146.606 Z-28.635
X146.476 Z-28.535
X146.445 Y4.253 Z-28.51
X146.416 Y4.264 Z-28.485
X146.389 Y4.28 Z-28.462
X146.364 Y4.303 Z-28.441
X146.343 Y4.331 Z-28.422
X146.327 Y4.363 Z-28.407
X146.315 Y4.399 Z-28.395
X146.308 Y4.437 Z-28.387
X146.306 Y4.477 Z-28.384
X146.31 Y4.516 Z-28.385
X146.319 Y4.554 Z-28.39
X146.332 Y4.59 Z-28.4
X146.351 Y4.623 Z-28.413
X146.373 Y4.651 Z-28.43
X146.399 Y4.673 Z-28.45
X146.427 Y4.69 Z-28.473
X146.456 Y4.7 Z-28.497
X146.487 Y4.704 Z-28.522
X146.494 Z-28.527
X146.613 Z-28.625
X146.748 Z-28.52
X146.756 Z-28.512
X146.764 Z-28.504
X146.792 Y4.707 Z-28.476
X146.819 Y4.717 Z-28.449
X146.845 Y4.734 Z-28.424
X146.868 Y4.757 Z-28.401
X146.887 Y4.785 Z-28.381
X146.903 Y4.817 Z-28.365
X146.915 Y4.853 Z-28.353
X146.922 Y4.891 Z-28.346
X146.924 Y4.93 Z-28.343
X146.922 Y4.97 Z-28.345
X146.914 Y5.008 Z-28.352
X146.902 Y5.044 Z-28.364
X146.886 Y5.076 Z-28.38
X146.866 Y5.104 Z-28.399
X146.842 Y5.127 Z-28.422
X146.817 Y5.143 Z-28.447
X146.789 Y5.154 Z-28.473
X146.761 Y5.157 Z-28.501
X146.754 Z-28.508
X146.625 Z-28.612
X146.508 Z-28.51
X146.504 Z-28.506
X146.475 Y5.161 Z-28.479
X146.448 Y5.171 Z-28.453
X146.422 Y5.188 Z-28.428
X146.399 Y5.21 Z-28.406
X146.379 Y5.238 Z-28.386
X146.363 Y5.271 Z-28.369
X146.352 Y5.306 Z-28.357
X146.346 Y5.345 Z-28.348
X146.345 Y5.384 Z-28.345
X146.348 Y5.423 Z-28.346
X146.357 Y5.462 Z-28.351
X146.371 Y5.497 Z-28.361
X146.389 Y5.53 Z-28.375
X146.41 Y5.558 Z-28.393
X146.435 Y5.58 Z-28.414
X146.462 Y5.597 Z-28.438
X146.49 Y5.607 Z-28.464
X146.519 Y5.611 Z-28.49
X146.639 Z-28.6
X146.772 Z-28.493
X146.779 Z-28.487
X146.817 Z-28.449
X146.845 Y5.614 Z-28.422
X146.872 Y5.624 Z-28.395
X146.898 Y5.641 Z-28.37
X146.921 Y5.664 Z-28.347
X146.941 Y5.692 Z-28.328
X146.958 Y5.724 Z-28.312
X146.97 Y5.76 Z-28.301
X146.977 Y5.798 Z-28.294
X146.98 Y5.838 Z-28.291
X146.978 Y5.877 Z-28.294
X146.971 Y5.915 Z-28.302
X146.959 Y5.951 Z-28.314
X146.943 Y5.983 Z-28.33
X146.923 Y6.011 Z-28.349
X146.901 Y6.034 Z-28.372
X146.875 Y6.051 Z-28.398
X146.848 Y6.061 Z-28.425
X146.82 Y6.064 Z-28.452
X146.812 Z-28.459
X146.651 Z-28.587
X146.52 Z-28.464
X146.485 Z-28.431
X146.456 Y6.068 Z-28.404
X146.429 Y6.078 Z-28.377
X146.403 Y6.095 Z-28.352
X146.38 Y6.117 Z-28.329
X146.361 Y6.145 Z-28.309
X146.345 Y6.178 Z-28.292
X146.334 Y6.213 Z-28.279
X146.328 Y6.252 Z-28.271
X146.327 Y6.291 Z-28.267
X146.331 Y6.33 Z-28.268
X146.339 Y6.369 Z-28.274
X146.352 Y6.404 Z-28.285
X146.37 Y6.437 Z-28.299
X146.391 Y6.465 Z-28.317
X146.415 Y6.487 Z-28.339
X146.442 Y6.504 Z-28.363
X146.47 Y6.514 Z-28.389
X146.499 Y6.518 Z-28.416
X146.668 Z-28.576
X146.816 Z-28.457
X146.992 Z-28.316
X147.023 Y6.521 Z-28.291
X147.053 Y6.532 Z-28.267
X147.081 Y6.548 Z-28.245
X147.107 Y6.571 Z-28.226
X147.129 Y6.599 Z-28.209
X147.148 Y6.631 Z-28.196
X147.162 Y6.667 Z-28.187
X147.171 Y6.705 Z-28.181
X147.174 Y6.745 Z-28.18
X147.172 Y6.784 Z-28.184
X147.165 Y6.822 Z-28.191
X147.153 Y6.858 Z-28.203
X147.136 Y6.89 Z-28.218
X147.115 Y6.918 Z-28.237
X147.091 Y6.941 Z-28.258
X147.063 Y6.958 Z-28.281
X147.034 Y6.968 Z-28.305
X147.003 Y6.971 Z-28.33
X146.849 Z-28.436
X146.681 Z-28.569
X146.343 Z-28.232
X145.95 Z-27.92
X145.665 Z-27.714
X145.582 Z-27.552
Z5.
X141.833 Y5.157
Z-24.107
Z-26.519 F200.
X141.721 Z-26.698 F280.
X141.539 Z-26.789
X141.31 Z-26.653
X141.212 Z-26.481
Z5.
X139.738
Z-24.196
Z-26.519 F200.
X139.648 Z-26.686 F280.
X139.588 Z-26.726
X139.477 Z-26.698
X139.429 Z-26.669
X139.351 Z-26.637
X139.192 Z-26.645
X138.974 Z-26.655
X138.857 Z-26.681
X138.686 Z-26.539
X138.614 Z-26.385
Z5.
X139.873 Y1.982
Z-24.252
Z-26.338 F200.
X139.7 Z-26.536 F280.
X139.296 Z-26.591
X139.035 Z-26.555
X138.546 Z-26.56
X138.021 Z-26.588
X137.358 Z-26.564
X137.284 Z-26.527
X137.233 Z-26.494
X137.173 Z-26.496
X136.862 Z-26.608
X136.857 Z-26.61
X136.849 Z-26.612
X136.841 Z-26.615
X136.824 Z-26.62
X136.808 Z-26.625
X136.791 Z-26.631
X136.775 Z-26.637
X136.675 Z-26.675
X136.607 Z-26.7
X136.22 Z-26.84
X135.86 Z-26.881
X135.664 Z-26.897
X135.445 Z-26.903
X135.173 Z-26.891
X134.982 Z-26.691
Z5.
X131.282
Z-24.734
Z-27.061 F200.
X131.15 Z-27.249 F280.
X130.974 Z-27.313
X130.58 Z-26.999
X129.958 Z-26.638
X129.722 Z-26.532
X129.663 Z-26.441
X129.759 Y2.009 Z-26.341
X131.203 Y2.409
X131.3 Y2.436 Z-26.441
Z-27.057
X131.336 Z-27.135
X131.4 Z-27.187
X131.492 Z-27.175
X131.58 Z-27.075
Z-27.039
X131.723 Y2.663 Z-26.77
X131.867 Y2.889 Z-27.039
X131.899 Z-27.112
X131.971 Z-27.179
X132.091 Z-27.184
X132.351 Z-27.233
X132.437 Z-27.144
X132.465 Z-27.074
Z-26.884
X132.587 Y3.116 Z-26.627
X132.709 Y3.343 Z-26.884
X132.674 Z-26.961
X132.484 Z-27.122
X132.314 Z-26.964
X132.283 Z-26.891
Z-26.743
X132.47 Y3.57 Z-26.449
X132.657 Y3.796 Z-26.743
X132.695 Z-26.822
X132.881 Z-26.966
X133.11 Z-26.827
X133.158 Z-26.742
Z-26.689
X133.137 Y4.023 Z-26.461
X133.116 Y4.25 Z-26.689
X133.151 Z-26.765
X133.394 Z-26.973
X133.449 Z-26.941
X133.675 Z-26.859
X133.741 Z-26.765
X133.717 Y4.477 Z-26.537
X133.692 Y4.704 Z-26.765
Z-26.804
X133.721 Z-26.873
X133.987 Z-27.147
X134.254 Z-27.54
X134.402 Z-27.815
X134.435 Z-27.514
X134.484 Z-27.321
X134.568 Z-27.176
X134.753 Z-26.97
X134.779 Z-26.903
X135.026 Y4.874 Z-26.603
X135.189 Y4.987
X135.436 Y5.157 Z-26.903
Z-27.143
X135.423 Z-27.193
X135.302 Z-27.402
X135.168 Z-27.726
X135.139 Z-27.846
X135.093 Z-27.881
X134.985 Z-27.935
X134.856 Z-28.03
X134.61 Z-27.543
X134.417 Z-27.238
X134.214 Z-26.977
X134.19 Y5.16 Z-26.941
X134.171 Y5.168 Z-26.904
X134.155 Y5.182 Z-26.866
X134.144 Y5.2 Z-26.829
X134.138 Y5.224 Z-26.793
X134.136 Y5.251 Z-26.76
X134.14 Y5.281 Z-26.729
X134.149 Y5.314 Z-26.703
X134.162 Y5.348 Z-26.681
X134.18 Y5.384 Z-26.664
X134.201 Y5.419 Z-26.653
X134.226 Y5.454 Z-26.647
X134.254 Y5.487 Z-26.648
X134.284 Y5.517 Z-26.654
X134.315 Y5.544 Z-26.666
X134.347 Y5.567 Z-26.683
X134.379 Y5.586 Z-26.706
X134.409 Y5.6 Z-26.733
X134.438 Y5.608 Z-26.764
X134.465 Y5.611 Z-26.797
X134.733 Z-27.171
X134.74 Z-27.181
X135.028 Z-27.669
X135.198 Z-27.614
X135.512 Z-27.583
X135.719 Z-27.615
X135.852 Z-27.511
X136.066 Z-27.378
X136.251 Z-27.319
X136.424 Z-27.302
X136.669 Z-27.336
X136.765 Z-27.26
X136.907 Z-27.195
X137.133 Z-27.165
X137.352 Z-27.08
X137.683 Z-27.022
X137.948 Z-27.036
X138.206 Z-27.111
X138.42 Z-26.92
X138.453 Z-26.845
X138.445 Y5.838 Z-26.618
X138.437 Y6.064 Z-26.845
Z-26.99
X138.41 Z-27.058
X138.321 Z-27.153
X138.214 Z-27.106
X138.155 Z-27.014
X138.055 Z-26.914
X137.274
X137.174 Z-27.014
Z-27.095
X137.125 Z-27.181
X137.043 Z-27.23
X136.961 Z-27.185
X136.909 Z-27.097
X136.809 Z-26.997
X135.774
X135.674 Z-27.097
Z-27.32
X135.65 Z-27.385
X135.559 Z-27.491
X135.275 Z-27.508
X135.175 Z-27.329
X135.117 Z-27.224
X135.097 Y6.068 Z-27.184
X135.08 Y6.078 Z-27.143
X135.068 Y6.095 Z-27.103
X135.061 Y6.117 Z-27.065
X135.059 Y6.145 Z-27.03
X135.062 Y6.178 Z-26.998
X135.07 Y6.213 Z-26.972
X135.082 Y6.252 Z-26.952
X135.099 Y6.291 Z-26.938
X135.12 Y6.33 Z-26.931
X135.144 Y6.369
X135.17 Y6.404 Z-26.938
X135.199 Y6.437 Z-26.952
X135.228 Y6.465 Z-26.972
X135.256 Y6.487 Z-26.998
X135.284 Y6.504 Z-27.029
X135.31 Y6.514 Z-27.065
X135.334 Y6.518 Z-27.103
X135.504 Z-27.384
X135.53 Z-27.345
X135.702 Z-27.157
X135.754 Z-27.022
Z5.
X137.149
Z-24.959
Z-27.009 F200.
X137.212 Z-27.154 F280.
X137.304 Z-27.242
X137.433 Z-27.155
X137.469 Y6.519 Z-27.124
X137.499 Y6.524 Z-27.088
X137.523 Y6.531 Z-27.048
X137.541 Y6.54 Z-27.006
X137.553 Y6.552 Z-26.962
X137.557 Y6.566 Z-26.917
X137.554 Y6.582 Z-26.873
X137.544 Y6.599 Z-26.83
X137.527 Y6.617 Z-26.79
X137.504 Y6.636 Z-26.754
X137.193 Y6.854 Z-26.348
X137.164 Y6.872 Z-26.316
X137.13 Y6.89 Z-26.289
X137.091 Y6.907 Z-26.268
X137.049 Y6.923 Z-26.254
X137.005 Y6.937 Z-26.246
X136.96 Y6.949 Z-26.245
X136.914 Y6.959 Z-26.252
X136.869 Y6.966 Z-26.265
X136.827 Y6.97 Z-26.285
X136.788 Y6.971 Z-26.311
X135.842 Z-27.034
X135.646 Z-27.184
X135.5 Z-26.983
X135.475 Y6.975 Z-26.948
X135.454 Y6.985 Z-26.911
X135.437 Y7.002 Z-26.875
X135.424 Y7.024 Z-26.84
X135.417 Y7.052 Z-26.808
X135.414 Y7.085 Z-26.779
X135.416 Y7.121 Z-26.755
X135.423 Y7.159 Z-26.736
X135.435 Y7.198 Z-26.722
X135.452 Y7.238 Z-26.715
X135.472 Y7.276 Z-26.714
X135.496 Y7.312 Z-26.719
X135.523 Y7.344 Z-26.73
X135.551 Y7.372 Z-26.748
X135.58 Y7.395 Z-26.77
X135.61 Y7.411 Z-26.797
X135.638 Y7.422 Z-26.829
X135.665 Y7.425 Z-26.862
X135.695 Z-26.903
X135.879 Z-27.138
X136.091 Z-27.029
X136.2 Z-26.851
Z5.
X139.445 Y6.064
Z-24.287
Z-26.487 F200.
X139.595 Z-26.68 F280.
X139.623 Z-26.687
X139.689 Z-26.648
X139.738 Z-26.562
X139.645 Y6.101 Z-26.462
X138.694 Y6.481
X138.601 Y6.518 Z-26.562
Z-26.874
X138.577 Z-26.938
X138.49 Z-27.041
X138.409 Z-27.015
X138.339 Z-26.92
Z-26.836
X138.469 Y6.745 Z-26.574
X138.6 Y6.971 Z-26.836
X138.656 Z-26.926
X138.804 Z-26.997
X138.961 Z-26.867
X138.997 Z-26.79
Z-26.626
X138.964 Y7.198 Z-26.397
X138.931 Y7.425 Z-26.626
X139.026 Z-26.726
X139.126 Z-26.731
X139.2 Z-26.591
X139.274 Z-26.432
X139.291 Y7.428 Z-26.397
X139.306 Y7.439 Z-26.362
X139.321 Y7.455 Z-26.329
X139.333 Y7.478 Z-26.299
X139.344 Y7.506 Z-26.273
X139.352 Y7.538 Z-26.252
X139.358 Y7.574 Z-26.236
X139.36 Y7.612 Z-26.226
Y7.652 Z-26.222
X139.357 Y7.691 Z-26.224
X139.351 Y7.729 Z-26.233
X139.342 Y7.765 Z-26.247
X139.331 Y7.797 Z-26.267
X139.318 Y7.825 Z-26.292
X139.303 Y7.848 Z-26.321
X139.287 Y7.865 Z-26.353
X139.271 Y7.875 Z-26.387
X139.254 Y7.879 Z-26.423
X139.196 Z-26.548
X139.139 Z-26.549
X139.028 Z-26.536
X138.852 Z-26.338
Z5.
X136.992 Y7.425
Z-24.737
Z-26.863 F200.
X136.913 Z-27.022 F280.
X136.851 Z-27.068
X136.812 Z-27.051
X136.752 Z-26.96
X136.798 Y7.652 Z-26.728
X136.843 Y7.879 Z-26.96
Z-26.99
X136.821 Z-27.052
X136.651 Z-27.263
X136.401 Z-27.261
X136.294 Z-27.279
X136.075 Z-26.926
X136.055 Y7.881 Z-26.887
X136.039 Y7.89 Z-26.847
X136.027 Y7.903 Z-26.806
X136.02 Y7.922 Z-26.767
X136.018 Y7.945 Z-26.729
X136.021 Y7.972 Z-26.694
X136.029 Y8.002 Z-26.663
X136.041 Y8.035 Z-26.636
X136.058 Y8.07 Z-26.614
X136.079 Y8.105 Z-26.598
X136.104 Y8.141 Z-26.588
X136.131 Y8.175 Z-26.584
X136.16 Y8.208 Z-26.587
X136.191 Y8.239 Z-26.595
X136.223 Y8.266 Z-26.61
X136.255 Y8.289 Z-26.631
X136.286 Y8.307 Z-26.657
X136.315 Y8.321 Z-26.687
X136.342 Y8.329 Z-26.721
X136.366 Y8.332 Z-26.758
X136.431 Z-26.871
X136.724 Z-27.377
X136.836 Z-27.184
X137.067 Z-26.915
X137.115 Z-26.785
Z5.
X136.148 Y13.321
Z-22.805
Z-24.817 F200.
X135.961 Z-25.016 F280.
X135.898 Z-25.02
X135.869 Z-24.994
X135.802 Z-24.845
Z5.
X133.203 Y23.299
Z-23.589
Z-25.928 F200.
X133.011 Z-26.128 F280.
X132.372 Z-26.156
X131.985 Z-26.196
X131.582 Z-26.256
X131.114 Z-26.372
X131.004 Z-26.408
X130.742 Z-26.218
Z5.
X133.375 Y23.753
Z-23.426
Z-25.896 F200.
X133.414 Z-26.015 F280.
X133.525 Z-26.164
X133.842
X133.942 Z-26.064
Z-26.021
X134.023 Y23.98 Z-25.78
X134.105 Y24.207 Z-26.021
X134.116 Z-26.067
X134.183 Z-26.198
X134.422 Z-26.199
X134.522 Z-26.099
Z-26.064
X134.549 Y24.433 Z-25.836
X134.575 Y24.66 Z-26.064
X134.582 Z-26.1
X134.627 Z-26.219
X134.785 Z-26.225
X134.889 Z-26.125
Z-26.067
X134.876 Y24.887 Z-25.84
X134.863 Y25.114 Z-26.067
X134.874 Z-26.112
X134.933 Z-26.231
X135.07 Z-26.238
X135.175 Z-26.138
Z-26.097
X135.172 Y25.34 Z-25.871
X135.168 Y25.567 Z-26.097
X135.174 Z-26.131
X135.212 Z-26.237
X135.328 Z-26.243
X135.433 Z-26.143
Z-26.103
X135.413 Y25.794 Z-25.875
X135.393 Y26.021 Z-26.103
X135.399 Z-26.137
X135.438 Z-26.246
X135.567 Z-26.251
X135.671 Z-26.151
Z-26.125
X135.642 Y26.248 Z-25.897
X135.613 Y26.474 Z-26.125
X135.621 Z-26.164
X135.659 Z-26.257
X135.754 Z-26.263
X135.967 Z-26.064
Z5.
X137.489 Y25.567
Z-24.701
Z-26.968 F200.
X137.613 Z-27.153 F280.
X137.716 Z-27.196
X137.808 Z-27.118
X137.844 Z-27.042
X137.789 Y25.794 Z-26.808
X137.735 Y26.021 Z-27.042
Z-27.118
X137.78 Z-27.202
X137.918 Z-27.292
X138.056 Z-27.171
X138.141 Z-27.095
X138.173 Y26.024 Z-27.068
X138.206 Y26.034 Z-27.044
X138.238 Y26.051 Z-27.023
X138.269 Y26.074 Z-27.007
X138.298 Y26.102 Z-26.994
X138.323 Y26.134 Z-26.987
X138.345 Y26.17 Z-26.984
X138.362 Y26.208 Z-26.987
X138.374 Y26.248 Z-26.995
X138.38 Y26.287 Z-27.008
X138.381 Y26.325 Z-27.025
X138.376 Y26.361 Z-27.046
X138.365 Y26.393 Z-27.07
X138.35 Y26.421 Z-27.097
X138.329 Y26.444 Z-27.126
X138.305 Y26.461 Z-27.155
X138.277 Y26.471 Z-27.185
X138.246 Y26.474 Z-27.213
X138.1 Z-27.343
X137.974 Z-27.24
X137.943 Y26.478 Z-27.214
X137.915 Y26.488 Z-27.189
X137.888 Y26.505 Z-27.165
X137.864 Y26.527 Z-27.142
X137.844 Y26.555 Z-27.122
X137.829 Y26.588 Z-27.105
X137.818 Y26.624 Z-27.092
X137.813 Y26.662 Z-27.082
Y26.701 Z-27.077
X137.818 Y26.74 Z-27.076
X137.828 Y26.779 Z-27.08
X137.843 Y26.815 Z-27.088
X137.863 Y26.847 Z-27.1
X137.886 Y26.875 Z-27.115
X137.913 Y26.898 Z-27.134
X137.942 Y26.914 Z-27.156
X137.972 Y26.924 Z-27.18
X138.003 Y26.928 Z-27.205
X138.018 Z-27.217
X138.237 Z-27.399
X138.543 Z-27.133
X138.577 Z-27.057
Z-26.89
X138.445 Y27.155 Z-26.628
X138.313 Y27.381 Z-26.89
X138.342 Z-26.961
X138.453 Z-27.072
X138.573 Z-27.245
X138.636 Z-27.189
X138.958 Z-26.948
X139.038 Z-26.788
Z5.
X136.176 Y26.928
Z-23.757
Z-26.086 F200.
X135.953 Z-26.285 F280.
X135.855 Z-26.273
X135.82 Z-26.189
X135.805 Y26.931 Z-26.149
X135.793 Y26.942 Z-26.11
X135.784 Y26.958 Z-26.072
X135.779 Y26.981 Z-26.036
X135.778 Y27.009 Z-26.004
X135.78 Y27.041 Z-25.977
X135.786 Y27.077 Z-25.955
X135.796 Y27.115 Z-25.939
X135.809 Y27.155 Z-25.93
X135.824 Y27.194 Z-25.927
X135.842 Y27.232 Z-25.932
X135.862 Y27.268 Z-25.943
X135.883 Y27.3 Z-25.961
X135.905 Y27.328 Z-25.984
X135.926 Y27.351 Z-26.013
X135.947 Y27.368 Z-26.046
X135.966 Y27.378 Z-26.082
X135.984 Y27.381 Z-26.121
X136.028 Z-26.227
X136.062 Z-26.3
X136.156 Z-26.312
X136.268 Z-26.212
X136.368 Z-26.112
X137.395
X137.495 Z-26.212
Z-26.626
X137.533 Z-26.704
X137.635 Z-26.787
X137.706 Z-26.766
X137.778 Z-26.67
Z-26.318
X137.558 Y27.585 Z-26.018
X137.507 Y27.632
X137.287 Y27.835 Z-26.318
X137.247 Z-26.398
X137.157 Z-26.466
X137.025 Z-26.431
X136.864 Z-26.395
X136.855 Z-26.393
X136.822 Z-26.387
X136.801 Z-26.383
X136.755 Z-26.375
X136.722 Z-26.37
X136.706 Z-26.368
X136.697 Z-26.367
X136.432 Z-26.337
X136.415 Z-26.336
X136.381 Z-26.333
X136.36 Z-26.331
X136.344 Z-26.33
X136.297 Z-26.327
X136.238 Z-26.316
X136.206 Z-26.256
X136.183 Z-26.164
Z5.
X138.712
Z-23.893
Z-26.613 F200.
X138.754 Z-26.736 F280.
X138.98 Z-27.027
X139.317 Z-26.809
X139.363 Z-26.725
Z-26.544
X139.268 Y28.062 Z-26.298
X139.174 Y28.289 Z-26.544
X139.193 Z-26.603
X139.374 Z-26.852
X139.682 Z-26.682
X139.734 Z-26.595
Z-26.342
X139.672 Y28.515 Z-26.107
X139.61 Y28.742 Z-26.342
X139.632 Z-26.405
X139.716 Z-26.51
X139.81 Z-26.668
X140.094 Z-26.555
X140.157 Z-26.462
Z-26.32
X140.099 Y28.969 Z-26.086
X140.04 Y29.196 Z-26.32
X140.052 Z-26.367
X140.158 Z-26.566
X140.337 Z-26.511
X140.407 Z-26.415
Z-26.407
X140.501 Y29.422 Z-26.162
X140.594 Y29.649 Z-26.407
X140.514 Z-26.505
X140.342 Z-26.54
X140.249 Z-26.44
X140.214 Z-26.375
X140.202 Z-26.327
Z-26.308
X140.413 Y29.863 Z-26.008
X140.44 Y29.89
X140.651 Y30.103 Z-26.308
X140.673 Z-26.37
X140.775 Z-26.498
X140.929 Z-26.481
X141.107 Z-26.282
Z5.
X136.923 Y28.289
Z-23.705
Z-26.154 F200.
X136.884 Z-26.272 F280.
X136.814 Z-26.369
X136.395 Z-26.334
X136.327 Z-26.204
X136.266 Z-26.088
X136.248 Y28.292 Z-26.052
X136.232 Y28.302 Z-26.016
X136.219 Y28.319 Z-25.982
X136.208 Y28.342 Z-25.95
X136.2 Y28.37 Z-25.922
X136.196 Y28.402 Z-25.898
X136.195 Y28.438 Z-25.879
X136.197 Y28.476 Z-25.866
X136.204 Y28.515 Z-25.859
X136.213 Y28.555 Z-25.858
X136.225 Y28.593 Z-25.863
X136.24 Y28.629 Z-25.875
X136.257 Y28.661 Z-25.892
X136.276 Y28.689 Z-25.914
X136.296 Y28.712 Z-25.941
X136.316 Y28.728 Z-25.972
X136.336 Y28.739 Z-26.006
X136.355 Y28.742 Z-26.041
X136.548 Z-26.347
X136.62 Z-26.352
X136.835 Z-26.042
X136.906 Z-25.931
X136.927 Y28.746 Z-25.896
X136.947 Y28.756 Z-25.862
X136.963 Y28.773 Z-25.828
X136.976 Y28.795 Z-25.797
X136.986 Y28.823 Z-25.769
X136.991 Y28.856 Z-25.744
X136.993 Y28.891 Z-25.725
X136.99 Y28.93 Z-25.71
X136.983 Y28.969 Z-25.702
X136.972 Y29.008 Z-25.699
X136.958 Y29.046 Z-25.703
X136.941 Y29.082 Z-25.712
X136.921 Y29.115 Z-25.727
X136.899 Y29.143 Z-25.747
X136.876 Y29.165 Z-25.772
X136.852 Y29.182 Z-25.801
X136.829 Y29.192 Z-25.833
X136.806 Y29.196 Z-25.866
X136.585 Z-26.207
X136.372 Z-25.932
X136.345 Z-25.903
X136.324 Z-25.88
X136.298 Y29.199 Z-25.851
X136.273 Y29.209 Z-25.821
X136.25 Y29.226 Z-25.793
X136.23 Y29.249 Z-25.766
X136.214 Y29.277 Z-25.743
X136.203 Y29.309 Z-25.722
X136.195 Y29.345 Z-25.706
X136.193 Y29.383 Z-25.695
X136.195 Y29.422 Z-25.688
X136.201 Y29.462 Z-25.687
X136.213 Y29.5 Z-25.69
X136.228 Y29.536 Z-25.699
X136.247 Y29.568 Z-25.713
X136.269 Y29.596 Z-25.731
X136.294 Y29.619 Z-25.753
X136.32 Y29.636 Z-25.778
X136.347 Y29.646 Z-25.805
X136.375 Y29.649 Z-25.834
X136.575 Z-26.052
X136.734 Z-25.817
X136.752 Z-25.792
X136.774 Y29.653 Z-25.759
X136.794 Y29.663 Z-25.727
X136.814 Y29.68 Z-25.696
X136.83 Y29.702 Z-25.668
X136.844 Y29.73 Z-25.644
X136.855 Y29.763 Z-25.624
X136.862 Y29.798 Z-25.608
X136.865 Y29.837 Z-25.598
Y29.876 Z-25.593
X136.86 Y29.915 Z-25.595
X136.852 Y29.954 Z-25.601
X136.84 Y29.989 Z-25.614
X136.825 Y30.022 Z-25.631
X136.808 Y30.05 Z-25.653
X136.788 Y30.072 Z-25.679
X136.767 Y30.089 Z-25.708
X136.744 Y30.099 Z-25.739
X136.722 Y30.103 Z-25.772
X136.592 Z-25.946
X136.415 Z-25.785
X136.349 Z-25.637
Z5.
X138.577
Z-23.46
Z-25.418 F200.
X138.73 Z-25.612 F280.
X138.885 Z-25.65
X139.143 Z-25.669
X139.345 Z-25.721
X139.631 Z-25.859
X139.774 Z-25.893
X139.897 Z-25.796
X139.991 Y30.137 Z-25.696
X141.03 Y30.522
X141.124 Y30.556 Z-25.796
Z-26.367
X141.139 Z-26.42
X141.196 Z-26.511
X141.295 Z-26.52
X141.404 Z-26.42
X141.442 Y30.783 Z-26.19
X141.481 Y31.01 Z-26.42
Z-26.443
X141.491 Z-26.488
X141.534 Z-26.573
X141.624 Z-26.588
X141.74 Z-26.489
Z-26.485
Y31.237 Z-26.259
X141.741 Y31.463 Z-26.485
X141.748 Z-26.523
X141.797 Z-26.644
X142.08 Z-26.698
X142.199 Z-26.6
Z-26.576
X142.262 Y31.69 Z-26.341
X142.326 Y31.917 Z-26.576
X142.241 Z-26.675
X142.099 Z-26.697
X142.002 Z-26.686
X141.931 Z-26.507
X141.918 Y31.92 Z-26.467
X141.908 Y31.931 Z-26.428
X141.901 Y31.947 Z-26.39
X141.897 Y31.97 Z-26.356
X141.896 Y31.998 Z-26.325
X141.898 Y32.03 Z-26.298
X141.904 Y32.066 Z-26.278
X141.912 Y32.104 Z-26.263
X141.924 Y32.144 Z-26.256
X141.937 Y32.183 Z-26.255
X141.953 Y32.221 Z-26.261
X141.97 Y32.257 Z-26.273
X141.988 Y32.29 Z-26.292
X142.007 Y32.318 Z-26.317
X142.026 Y32.34 Z-26.347
X142.043 Y32.357 Z-26.38
X142.06 Y32.367 Z-26.417
X142.075 Y32.371 Z-26.456
X142.081 Z-26.474
X142.156 Z-26.687
X142.373 Z-26.659
X142.513 Z-26.642
X142.552 Y32.374 Z-26.637
X142.59 Y32.384 Z-26.632
X142.625 Y32.401 Z-26.628
X142.658 Y32.424 Z-26.624
X142.685 Y32.452 Z-26.621
X142.708 Y32.484 Z-26.619
X142.724 Y32.52 Z-26.617
X142.735 Y32.558
X142.738 Y32.597
X142.735 Y32.637 Z-26.618
X142.725 Y32.675 Z-26.62
X142.708 Y32.711 Z-26.622
X142.686 Y32.743 Z-26.626
X142.658 Y32.771 Z-26.629
X142.626 Y32.794 Z-26.634
X142.591 Y32.81 Z-26.639
X142.553 Y32.821 Z-26.644
X142.514 Y32.824 Z-26.649
X142.286 Z-26.677
X142.203 Z-26.43
X142.192 Y32.828 Z-26.391
X142.183 Y32.838 Z-26.353
X142.177 Y32.855 Z-26.317
X142.172 Y32.877 Z-26.283
X142.17 Y32.905 Z-26.254
X142.171 Y32.938 Z-26.23
X142.173 Y32.973 Z-26.211
X142.179 Y33.012 Z-26.199
X142.186 Y33.051 Z-26.193
X142.195 Y33.09 Z-26.194
X142.206 Y33.128 Z-26.202
X142.219 Y33.164 Z-26.216
X142.232 Y33.197 Z-26.236
X142.246 Y33.225 Z-26.262
X142.26 Y33.247 Z-26.292
X142.274 Y33.264 Z-26.327
X142.287 Y33.274 Z-26.364
X142.299 Y33.278 Z-26.402
X142.323 Z-26.486
X142.377 Z-26.67
X142.582 Z-26.65
X142.617 Z-26.641
X142.661 Z-26.631
X142.695
X142.735 Y33.281
X142.773 Y33.291
X142.809 Y33.308
X142.841 Y33.331 Z-26.632
X142.869 Y33.359
X142.892 Y33.391 Z-26.633
X142.908 Y33.427 Z-26.634
X142.919 Y33.465 Z-26.635
X142.922 Y33.504 Z-26.636
X142.919 Y33.544 Z-26.637
X142.908 Y33.582 Z-26.638
X142.892 Y33.618
X142.869 Y33.65 Z-26.639
X142.841 Y33.678 Z-26.64
X142.809 Y33.701
X142.773 Y33.718 Z-26.641
X142.735 Y33.728
X142.695 Y33.731
X142.651 Z-26.651
X142.621 Z-26.661
X142.436 Z-26.686
X142.386 Z-26.507
X142.376 Y33.735 Z-26.469
X142.366 Y33.745 Z-26.432
X142.356 Y33.762 Z-26.397
X142.349 Y33.784 Z-26.366
X142.342 Y33.812 Z-26.339
X142.337 Y33.845 Z-26.316
X142.334 Y33.88 Z-26.3
X142.333 Y33.919 Z-26.29
X142.334 Y33.958 Z-26.286
X142.336 Y33.997 Z-26.289
X142.34 Y34.036 Z-26.298
X142.346 Y34.071 Z-26.314
X142.354 Y34.104 Z-26.335
X142.363 Y34.132 Z-26.362
X142.372 Y34.154 Z-26.393
X142.383 Y34.171 Z-26.427
X142.394 Y34.181 Z-26.464
X142.404 Y34.185 Z-26.502
X142.416 Z-26.543
X142.465 Z-26.71
X142.611 Z-26.689
X142.662 Z-26.666
X142.693 Z-26.619
X142.74 Z-26.56
X142.816 Z-26.552
X143.746 Z-26.813
X144.217 Z-26.945
X144.447 Z-26.82
X144.499 Z-26.732
Z-26.622
X144.402 Y34.21 Z-26.522
X142.834 Y34.613
X142.737 Y34.638 Z-26.622
X142.647 Z-26.721
X142.461 Z-26.74
X142.401 Z-26.551
X142.392 Z-26.491
Z5.
X136.83 Y30.556
Z-23.452
Z-25.603 F200.
X136.782 Z-25.733 F280.
X136.643 Z-25.895
X136.482 Z-25.762
X136.452 Y30.56 Z-25.737
X136.423 Y30.57 Z-25.711
X136.396 Y30.587 Z-25.687
X136.373 Y30.609 Z-25.664
X136.353 Y30.637 Z-25.643
X136.338 Y30.67 Z-25.626
X136.328 Y30.706 Z-25.611
X136.323 Y30.744 Z-25.601
X136.324 Y30.783 Z-25.595
X136.329 Y30.823 Z-25.593
X136.34 Y30.861 Z-25.596
X136.356 Y30.897 Z-25.604
X136.376 Y30.929 Z-25.615
X136.4 Y30.957 Z-25.63
X136.427 Y30.98 Z-25.649
X136.457 Y30.996 Z-25.67
X136.487 Y31.006 Z-25.693
X136.518 Y31.01 Z-25.718
X136.565 Z-25.757
X136.729 Z-25.889
X136.866 Z-25.739
X136.901 Z-25.7
X136.928 Y31.013 Z-25.67
X136.956 Y31.024 Z-25.643
X136.982 Y31.04 Z-25.618
X137.007 Y31.063 Z-25.596
X137.03 Y31.091 Z-25.578
X137.049 Y31.123 Z-25.565
X137.065 Y31.159 Z-25.556
X137.077 Y31.197 Z-25.553
X137.084 Y31.237 Z-25.555
X137.087 Y31.276 Z-25.562
X137.085 Y31.314 Z-25.574
X137.078 Y31.35 Z-25.591
X137.067 Y31.382 Z-25.611
X137.051 Y31.41 Z-25.636
X137.032 Y31.433 Z-25.663
X137.01 Y31.45 Z-25.692
X136.985 Y31.46 Z-25.722
X136.959 Y31.463 Z-25.752
X136.829 Z-25.896
X136.678 Z-25.77
X136.648 Y31.467 Z-25.744
X136.62 Y31.477 Z-25.717
X136.594 Y31.494 Z-25.692
X136.572 Y31.517 Z-25.668
X136.553 Y31.544 Z-25.646
X136.539 Y31.577 Z-25.627
X136.53 Y31.613 Z-25.612
X136.526 Y31.651 Z-25.601
X136.527 Y31.69 Z-25.595
X136.533 Y31.73 Z-25.593
X136.545 Y31.768 Z-25.595
X136.561 Y31.804 Z-25.602
X136.581 Y31.836 Z-25.614
X136.605 Y31.864 Z-25.629
X136.632 Y31.887 Z-25.648
X136.661 Y31.903 Z-25.67
X136.691 Y31.914 Z-25.695
X136.721 Y31.917 Z-25.72
X136.805 Z-25.793
X136.963 Z-25.932
X137.101 Z-25.792
X137.129 Z-25.722
X137.206 Y32.144 Z-25.482
X137.283 Y32.371 Z-25.722
Z-25.77
X137.26 Z-25.833
X137.127 Z-25.999
X136.955 Z-25.849
X136.927 Y32.374 Z-25.821
X136.9 Y32.384 Z-25.792
X136.876 Y32.401 Z-25.765
X136.856 Y32.424 Z-25.739
X136.839 Y32.452 Z-25.715
X136.827 Y32.484 Z-25.695
X136.819 Y32.52 Z-25.678
X136.817 Y32.558 Z-25.666
X136.819 Y32.597 Z-25.658
X136.827 Y32.637 Z-25.655
X136.839 Y32.675 Z-25.658
X136.856 Y32.711 Z-25.665
X136.877 Y32.743 Z-25.676
X136.901 Y32.771 Z-25.693
X136.927 Y32.794 Z-25.712
X136.956 Y32.81 Z-25.736
X136.985 Y32.821 Z-25.761
X137.014 Y32.824 Z-25.789
X137.123 Z-25.895
X137.29 Z-26.058
X137.464 Z-25.864
X137.544 Z-25.775
X137.574 Y32.828 Z-25.744
X137.604 Y32.838 Z-25.716
X137.635 Y32.855 Z-25.692
X137.665 Y32.877 Z-25.672
X137.694 Y32.905 Z-25.657
X137.72 Y32.938 Z-25.648
X137.743 Y32.973 Z-25.644
X137.761 Y33.012 Z-25.646
X137.776 Y33.051 Z-25.654
X137.785 Y33.09 Z-25.667
X137.789 Y33.128 Z-25.686
X137.788 Y33.164 Z-25.709
X137.781 Y33.197 Z-25.736
X137.77 Y33.225 Z-25.766
X137.753 Y33.247 Z-25.798
X137.732 Y33.264 Z-25.831
X137.708 Y33.274 Z-25.865
X137.681 Y33.278 Z-25.897
X137.475 Z-26.126
X137.273 Z-25.919
X137.245 Y33.281 Z-25.89
X137.219 Y33.291 Z-25.86
X137.196 Y33.308 Z-25.831
X137.177 Y33.331 Z-25.804
X137.161 Y33.359 Z-25.779
X137.15 Y33.391 Z-25.757
X137.144 Y33.427 Z-25.739
X137.143 Y33.465 Z-25.726
X137.147 Y33.504 Z-25.717
X137.156 Y33.544 Z-25.713
X137.169 Y33.582 Z-25.715
X137.187 Y33.618 Z-25.721
X137.209 Y33.65 Z-25.733
X137.233 Y33.678 Z-25.749
X137.26 Y33.701 Z-25.769
X137.288 Y33.718 Z-25.792
X137.318 Y33.728 Z-25.819
X137.346 Y33.731 Z-25.847
X137.452 Z-25.955
X137.491 Z-25.994
X137.668 Z-26.237
X137.903 Z-25.936
X137.924 Z-25.875
X138.018 Y33.958 Z-25.629
X138.112 Y34.185 Z-25.875
Z-25.918
X138.085 Z-25.987
X137.925 Z-26.157
X137.825 Z-26.319
X137.603 Z-25.988
X137.586 Z-25.932
X137.648 Y34.412 Z-25.697
X137.709 Y34.638 Z-25.932
Z-25.976
X137.732 Z-26.04
X137.745 Z-26.056
X137.992 Z-26.442
X138.111 Z-26.238
X138.256 Z-26.05
X138.285 Z-26.011
X138.311 Y34.642 Z-25.978
X138.339 Y34.652 Z-25.947
X138.367 Y34.669 Z-25.92
X138.394 Y34.691 Z-25.897
X138.421 Y34.719 Z-25.879
X138.446 Y34.752 Z-25.867
X138.467 Y34.788 Z-25.861
X138.486 Y34.826
X138.5 Y34.865 Z-25.867
X138.51 Y34.905 Z-25.879
X138.516 Y34.943 Z-25.897
Y34.979 Z-25.92
X138.512 Y35.011 Z-25.947
X138.503 Y35.039 Z-25.977
X138.489 Y35.062 Z-26.01
X138.472 Y35.078 Z-26.045
X138.451 Y35.088 Z-26.08
X138.427 Y35.092 Z-26.115
X138.268 Z-26.331
X138.194 Z-26.506
X138.1 Z-26.472
X137.939 Z-26.196
X137.87 Z-26.098
X137.849 Y35.095 Z-26.064
X137.83 Y35.106 Z-26.031
X137.813 Y35.122 Z-25.998
X137.799 Y35.145 Z-25.968
X137.788 Y35.173 Z-25.942
X137.781 Y35.205 Z-25.919
X137.777 Y35.241 Z-25.902
Y35.279 Z-25.889
X137.781 Y35.319 Z-25.883
X137.788 Y35.358 Z-25.882
X137.799 Y35.396 Z-25.888
X137.813 Y35.432 Z-25.899
X137.83 Y35.464 Z-25.915
X137.849 Y35.492 Z-25.937
X137.87 Y35.515 Z-25.963
X137.892 Y35.532 Z-25.992
X137.914 Y35.542 Z-26.024
X137.935 Y35.545 Z-26.057
X138.017 Z-26.187
X138.183 Z-26.454
X138.454 Z-26.568
X138.527 Z-26.427
X138.717 Z-26.176
X138.758 Z-26.055
Z5.
X138.73 Y43.71
Z-23.347
Z-25.473 F200.
X138.795 Z-25.621 F280.
X138.849 Z-25.67
X138.926 Z-25.643
X139.058 Z-25.455
Z5.
X131.761
Z-23.985
Z-26.317 F200.
X131.693 Z-26.467 F280.
X131.63 Z-26.522
X131.568 Z-26.514
X131.481 Z-26.415
X131.44 Y43.936 Z-26.185
X131.399 Y44.163 Z-26.415
Z-26.541
X131.494 Z-26.64
X131.539 Z-26.643
X131.582 Z-26.602
X131.614 Y44.162 Z-26.567
X131.64 Y44.16 Z-26.528
X131.66 Y44.157 Z-26.485
X131.673 Y44.153 Z-26.44
X131.678 Y44.147 Z-26.394
X131.676 Y44.14 Z-26.347
X131.667 Y44.133 Z-26.302
X131.651 Y44.125 Z-26.258
X131.629 Y44.117 Z-26.218
X131.6 Y44.108 Z-26.182
X128.669 Y43.311 Z-23.054
X128.634 Y43.302 Z-23.023
X128.596 Y43.294 Z-22.998
X128.553 Y43.286 Z-22.979
X128.508 Y43.279 Z-22.967
X128.462 Y43.272 Z-22.962
X128.415 Y43.266 Z-22.965
X128.369 Y43.262 Z-22.975
X128.326 Y43.259 Z-22.991
X128.285 Y43.257 Z-23.015
X128.248 Y43.256 Z-23.044
X124.552 Z-26.508
X124.311 Z-26.717
X124.236 Z-26.722
X124.05 Z-26.627
X123.775 Z-26.579
X123.692 Z-26.48
Z-26.203
X123.789 Y43.283 Z-26.103
X125.209 Y43.682
X125.306 Y43.71 Z-26.203
X125.356 Z-26.29
X125.736 Z-26.504
X125.905 Z-26.547
X126.077 Z-26.622
X126.175 Z-26.71
X126.273 Z-26.774
X126.454 Z-26.767
X126.858 Z-26.68
X126.936 Z-26.582
Z-26.566
X126.814 Y43.936 Z-26.308
X126.691 Y44.163 Z-26.566
X126.703 Z-26.613
X126.72 Z-26.646
X126.792 Z-26.846
X126.927 Z-27.105
X127.061 Z-27.528
X127.211 Z-27.417
X127.317 Z-27.372
X127.627 Z-27.31
X127.949 Z-27.085
X127.99 Z-27.019
X127.973 Z-26.944
X127.954 Z-26.873
X127.989 Z-26.809
X128.059 Z-26.785
X128.708 Z-26.817
X129.009 Z-26.831
X129.834 Z-26.788
X129.928 Z-26.688
X130.024 Y44.192 Z-26.588
X131.341 Y44.588
X131.437 Y44.617 Z-26.688
Z-26.785
X131.422 Z-26.838
X131.319 Z-27.
X131.069 Z-27.046
X130.857 Z-27.101
X130.716 Z-27.161
X130.393 Z-27.081
X130.07 Z-27.072
X129.813 Z-27.105
X129.72 Z-27.055
X129.603 Z-27.043
X129.441 Z-27.114
X129.391 Z-27.15
X128.976 Z-27.223
X128.599 Z-27.311
X128.379 Z-27.445
X128.234 Z-27.604
X127.844 Z-27.908
X127.733 Z-28.06
X127.605 Z-28.324
X127.575 Z-27.897
X127.513 Z-27.612
X127.415 Z-27.402
X127.294 Z-27.223
X127.143 Z-26.844
X127.047 Z-26.679
X127.034 Z-26.629
X127.273 Y44.798 Z-26.329
X127.391 Y44.888
X127.63 Y45.07 Z-26.629
Z-26.682
X127.637 Z-26.719
X127.731 Z-26.957
X127.751 Z-26.887
X127.827 Z-26.717
X127.835 Z-26.676
Z-26.148
X127.798 Y45.297 Z-25.918
X127.761 Y45.524 Z-26.148
X127.711 Z-26.235
X127.598 Z-26.299
X127.517 Z-26.229
X127.448 Z-26.078
Z5.
X130.991 Y45.07
Z-24.349
Z-26.685 F200.
X131.081 Z-26.852 F280.
X131.338 Z-27.023
X131.536 Z-26.697
X131.55 Z-26.645
Z-26.481
X131.625 Y45.297 Z-26.242
X131.7 Y45.524 Z-26.481
X131.68 Z-26.541
X131.52 Z-26.756
X131.312 Z-26.615
X131.301 Z-26.607
X131.272 Y45.527 Z-26.581
X131.244 Y45.537 Z-26.554
X131.218 Y45.554 Z-26.528
X131.196 Y45.577 Z-26.504
X131.177 Y45.605 Z-26.483
X131.163 Y45.637 Z-26.464
X131.154 Y45.673 Z-26.45
X131.149 Y45.711 Z-26.439
X131.15 Y45.751 Z-26.433
X131.156 Y45.79 Z-26.431
X131.168 Y45.828 Z-26.434
X131.183 Y45.864 Z-26.441
X131.203 Y45.896 Z-26.453
X131.227 Y45.924 Z-26.469
X131.254 Y45.947 Z-26.488
X131.282 Y45.964 Z-26.511
X131.312 Y45.974 Z-26.535
X131.342 Y45.977 Z-26.561
X131.359 Z-26.576
X131.367 Z-26.582
X131.572 Z-26.73
X131.72 Z-26.538
X131.742 Y45.981 Z-26.505
X131.763 Y45.991 Z-26.473
X131.783 Y46.008 Z-26.444
X131.802 Y46.03 Z-26.417
X131.818 Y46.058 Z-26.394
X131.831 Y46.091 Z-26.376
X131.842 Y46.127 Z-26.363
X131.849 Y46.165 Z-26.355
X131.852 Y46.204 Z-26.353
X131.851 Y46.243 Z-26.357
X131.847 Y46.282 Z-26.366
X131.839 Y46.317 Z-26.381
X131.828 Y46.35 Z-26.401
X131.814 Y46.378 Z-26.425
X131.797 Y46.4 Z-26.453
X131.778 Y46.417 Z-26.483
X131.757 Y46.427 Z-26.515
X131.736 Y46.431 Z-26.548
X131.708 Z-26.592
X131.526 Z-26.871
X131.376 Z-26.741
X131.26 Z-26.633
X131.228 Z-26.56
X131.093 Y46.658 Z-26.296
X130.958 Y46.884 Z-26.56
Z-26.785
X130.978 Z-26.845
X131.033 Z-26.918
X131.367 Z-27.264
X131.452 Z-27.074
X131.647 Z-26.705
X131.658 Z-26.659
X131.587 Y47.111 Z-26.421
X131.516 Y47.338 Z-26.659
Z-26.978
X131.511 Z-27.009
X131.352 Z-27.499
X131.335 Z-27.559
X131.084 Z-27.365
X130.856 Z-27.261
X130.654 Z-27.189
X130.56 Z-27.14
X130.355 Z-27.016
X129.869 Z-26.507
X129.796 Z-26.451
X129.633 Z-26.324
X129.6 Y47.341 Z-26.3
X129.568 Y47.352 Z-26.278
X129.537 Y47.368 Z-26.258
X129.507 Y47.391 Z-26.242
X129.481 Y47.419 Z-26.229
X129.458 Y47.451 Z-26.221
X129.44 Y47.487 Z-26.216
X129.426 Y47.525 Z-26.217
X129.418 Y47.565 Z-26.221
X129.415 Y47.604 Z-26.231
X129.418 Y47.642 Z-26.244
X129.427 Y47.678 Z-26.261
X129.441 Y47.711 Z-26.281
X129.459 Y47.738 Z-26.303
X129.482 Y47.761 Z-26.328
X129.509 Y47.778 Z-26.353
X129.539 Y47.788 Z-26.379
X129.57 Y47.792 Z-26.404
X129.917 Z-26.674
X130.305 Z-27.024
X130.498 Z-27.259
X130.558 Z-27.384
X130.622 Z-27.476
X130.851 Z-27.553
X131.071 Z-27.685
X131.334 Z-27.794
X131.432 Z-27.33
X131.538 Z-26.992
X131.542 Z-26.962
Z-26.693
X131.61 Y48.018 Z-26.456
X131.677 Y48.245 Z-26.693
X131.668 Z-26.735
X131.53 Z-27.033
X131.471 Z-27.218
X131.255 Z-27.024
X131.14 Z-26.946
X131.132 Z-26.94
X131.101 Y48.248 Z-26.911
X131.073 Y48.256 Z-26.881
X131.049 Y48.27 Z-26.85
X131.029 Y48.288 Z-26.817
X131.014 Y48.311 Z-26.786
X131.004 Y48.339 Z-26.755
X130.999 Y48.369 Z-26.726
X131. Y48.402 Z-26.7
X131.007 Y48.436 Z-26.677
X131.018 Y48.472 Z-26.657
X131.035 Y48.507 Z-26.642
X131.057 Y48.542 Z-26.632
X131.083 Y48.575 Z-26.626
X131.112 Y48.605
X131.144 Y48.632 Z-26.63
X131.178 Y48.655 Z-26.639
X131.213 Y48.674 Z-26.653
X131.248 Y48.688 Z-26.672
X131.283 Y48.696 Z-26.694
X131.316 Y48.699 Z-26.72
X131.332 Z-26.733
X131.346 Z-26.743
X131.419 Z-26.785
X131.588 Z-26.921
X131.756 Z-26.62
X131.776 Y48.702 Z-26.585
X131.795 Y48.712 Z-26.552
X131.814 Y48.729 Z-26.521
X131.831 Y48.752 Z-26.494
X131.847 Y48.78 Z-26.47
X131.86 Y48.812 Z-26.452
X131.871 Y48.848 Z-26.439
X131.878 Y48.886 Z-26.431
X131.883 Y48.925 Z-26.429
X131.884 Y48.965 Z-26.434
X131.881 Y49.003 Z-26.444
X131.875 Y49.039 Z-26.46
X131.867 Y49.071 Z-26.481
X131.855 Y49.099 Z-26.507
X131.84 Y49.122 Z-26.536
X131.824 Y49.139 Z-26.568
X131.806 Y49.149 Z-26.602
X131.787 Y49.152 Z-26.637
X131.785 Z-26.641
X131.637 Z-26.891
X131.38 Z-26.714
X131.347 Y49.156 Z-26.689
X131.315 Y49.166 Z-26.663
X131.287 Y49.183 Z-26.636
X131.263 Y49.205 Z-26.61
X131.245 Y49.233 Z-26.585
X131.232 Y49.266 Z-26.561
X131.224 Y49.301 Z-26.54
X131.223 Y49.34 Z-26.522
X131.229 Y49.379 Z-26.508
X131.24 Y49.418 Z-26.498
X131.257 Y49.457 Z-26.493
X131.279 Y49.492 Z-26.492
X131.306 Y49.525 Z-26.496
X131.336 Y49.553 Z-26.505
X131.369 Y49.575 Z-26.517
X131.404 Y49.592 Z-26.534
X131.44 Y49.602 Z-26.554
X131.475 Y49.606 Z-26.576
X131.573 Z-26.644
X131.755 Z-26.769
X131.887 Z-26.584
X131.924 Z-26.467
Z5.
X129.732
Z-24.231
Z-26.139 F200.
X129.555 Z-26.338 F280.
X129.373 Z-26.359
X129.329 Z-26.327
X129.248 Z-26.166
Z5.
X131.49 Y50.059
Z-24.375
Z-26.444 F200.
X131.553 Z-26.59 F280.
X131.59 Z-26.625
X131.809 Z-26.764
X131.963 Z-26.562
X131.986 Y50.063 Z-26.53
X132.008 Y50.073 Z-26.499
X132.03 Y50.09 Z-26.47
X132.05 Y50.112 Z-26.444
X132.067 Y50.14 Z-26.423
X132.082 Y50.173 Z-26.405
X132.094 Y50.209 Z-26.393
X132.102 Y50.247 Z-26.386
X132.106 Y50.286 Z-26.385
Y50.325 Z-26.389
X132.102 Y50.364 Z-26.399
X132.095 Y50.399 Z-26.414
X132.084 Y50.432 Z-26.434
X132.069 Y50.46 Z-26.458
X132.052 Y50.482 Z-26.486
X132.032 Y50.499 Z-26.516
X132.011 Y50.509 Z-26.547
X131.989 Y50.513 Z-26.58
X131.938 Z-26.652
X131.772 Z-26.89
X131.564 Z-26.761
X131.516 Z-26.708
X131.49 Z-26.641
X131.666 Y50.74 Z-26.353
X131.843 Y50.966 Z-26.641
Z-26.8
X131.829 Z-26.851
X131.712 Z-27.048
X131.555 Z-27.394
X131.089 Z-26.945
X130.959 Z-26.853
X130.923 Z-26.805
X130.921 Z-26.744
X130.954 Z-26.694
X130.99 Z-26.627
X130.969 Z-26.553
X130.901 Z-26.517
X130.037 Z-26.425
X129.791 Z-26.399
X129.695 Z-26.295
X129.668 Y50.969 Z-26.257
X129.646 Y50.977 Z-26.216
X129.629 Y50.991 Z-26.175
X129.617 Y51.009 Z-26.133
X129.611 Y51.032 Z-26.092
Y51.059 Z-26.054
X129.616 Y51.089 Z-26.018
X129.628 Y51.122 Z-25.986
X129.645 Y51.157 Z-25.959
X129.667 Y51.192 Z-25.937
X129.669 Y51.195 Z-25.936
X129.696 Y51.23 Z-25.919
X129.726 Y51.264 Z-25.909
X129.76 Y51.297 Z-25.906
X129.796 Y51.327 Z-25.909
X129.834 Y51.354 Z-25.919
X129.871 Y51.377 Z-25.935
X129.909 Y51.395 Z-25.956
X129.945 Y51.409 Z-25.983
X129.979 Y51.417 Z-26.015
X130.01 Y51.42 Z-26.05
X130.58 Z-26.782
X130.742 Z-26.99
X131.016 Z-27.38
X131.279 Z-27.388
X131.531 Z-27.437
X131.71 Z-27.087
X131.742 Z-27.019
X131.759 Y51.423 Z-26.983
X131.775 Y51.434 Z-26.949
X131.792 Y51.45 Z-26.917
X131.806 Y51.473 Z-26.888
X131.82 Y51.501 Z-26.863
X131.831 Y51.533 Z-26.843
X131.84 Y51.569 Z-26.829
X131.846 Y51.607 Z-26.821
X131.85 Y51.647 Z-26.818
X131.851 Y51.686 Z-26.823
X131.848 Y51.724 Z-26.833
X131.843 Y51.76 Z-26.849
X131.835 Y51.793 Z-26.87
X131.825 Y51.82 Z-26.896
X131.812 Y51.843 Z-26.926
X131.798 Y51.86 Z-26.959
X131.782 Y51.87 Z-26.994
X131.766 Y51.874 Z-27.03
X131.551 Z-27.488
X131.505 Z-27.613
X131.422 Z-27.51
X131.271 Z-27.307
X131.143 Z-27.121
X131.126 Z-27.064
Z-26.986
X131.173 Y52.1 Z-26.755
X131.221 Y52.327 Z-26.986
X131.252 Z-27.059
X131.392 Z-27.192
X131.597 Z-27.441
X131.692 Z-27.208
X131.794 Z-27.012
X131.823 Z-26.955
X131.842 Y52.331 Z-26.92
X131.86 Y52.341 Z-26.886
X131.877 Y52.357 Z-26.855
X131.894 Y52.38 Z-26.827
X131.908 Y52.408 Z-26.803
X131.92 Y52.44 Z-26.783
X131.93 Y52.476 Z-26.77
X131.937 Y52.514 Z-26.762
X131.941 Y52.554 Z-26.76
X131.942 Y52.593 Z-26.764
X131.939 Y52.631 Z-26.774
X131.934 Y52.667 Z-26.79
X131.925 Y52.7 Z-26.811
X131.914 Y52.728 Z-26.837
X131.9 Y52.75 Z-26.867
X131.885 Y52.767 Z-26.899
X131.868 Y52.777 Z-26.933
X131.85 Y52.781 Z-26.968
X131.669 Z-27.301
X131.616 Z-27.432
X131.48 Z-27.257
X131.241 Z-27.036
X131.229 Z-27.027
X131.185 Z-26.945
X131.305 Y53.007 Z-26.688
X131.424 Y53.234 Z-26.945
Z-27.021
X131.46 Z-27.097
X131.469 Z-27.105
X131.684 Z-27.328
X131.868 Z-27.002
X131.881 Z-26.951
X131.866 Z-26.901
X131.858 Z-26.815
X131.92 Z-26.755
X132.149 Z-26.676
X132.153 Z-26.673
X132.161 Z-26.665
X132.17 Z-26.656
X132.186 Z-26.641
X132.196 Z-26.632
X132.206 Z-26.623
X132.216 Z-26.615
X132.225 Z-26.607
X132.235 Z-26.599
X132.245 Z-26.591
X132.255 Z-26.583
X132.264 Z-26.576
X132.274 Z-26.569
X132.284 Z-26.562
X132.294 Z-26.555
X132.303 Z-26.548
X132.313 Z-26.542
X132.323 Z-26.535
X132.333 Z-26.529
X132.342 Z-26.523
X132.356 Z-26.515
X132.37 Z-26.507
X132.384 Z-26.499
X132.398 Z-26.491
X132.412 Z-26.484
X132.423 Z-26.479
X132.44 Z-26.47
X132.503 Z-26.438
X132.51 Z-26.435
X132.524 Z-26.428
X132.538 Z-26.422
X132.552 Z-26.416
X132.565 Z-26.41
X132.581 Z-26.404
X132.596 Z-26.398
X132.611 Z-26.392
X132.626 Z-26.387
X132.641 Z-26.382
X132.656 Z-26.377
X132.671 Z-26.373
X132.686 Z-26.368
X132.698 Z-26.366
X132.739 Z-26.355
X132.747 Z-26.353
X132.762 Z-26.349
X132.777 Z-26.346
X132.847 Z-26.33
X132.855 Z-26.328
X132.871 Z-26.325
X132.887 Z-26.322
X132.903 Z-26.319
X132.919 Z-26.317
X132.935 Z-26.314
X132.951 Z-26.312
X132.967 Z-26.311
X132.982 Z-26.309
X132.994 Z-26.308
X133.129 Z-26.299
X133.162 Z-26.296
X133.179 Z-26.295
X133.196 Z-26.294
X133.212
X133.229 Z-26.293
X133.233
X133.246
X133.262 Z-26.288
X133.337 Z-26.267
X133.345 Z-26.265
X133.409 Z-26.243
X133.446 Z-26.188
X133.462 Z-26.133
X133.456 Y53.461 Z-25.906
X133.45 Y53.688 Z-26.133
Z-26.134
X133.443 Z-26.173
X133.396 Z-26.284
X133.303 Z-26.32
X133.295 Z-26.321
X133.063 Z-26.124
Z5.
X129.762 Y52.781
Z-23.836
Z-25.853 F200.
X129.543 Z-26.052 F280.
X129.479 Z-26.045
X129.444 Z-26.015
X129.41 Z-25.939
X129.629 Y52.985 Z-25.639
X129.678 Y53.03
X129.898 Y53.234 Z-25.939
Z-26.191
X129.92 Z-26.253
X130.019 Z-26.377
X130.146 Z-26.405
X130.268 Z-26.307
X130.335 Y53.461 Z-26.071
X130.401 Y53.688 Z-26.307
Z-26.59
X130.41 Z-26.631
X130.468 Z-26.762
X130.624 Z-26.803
X130.683 Z-26.8
X130.73 Z-26.764
X130.795 Z-26.723
X130.87 Z-26.74
X131.465 Z-27.159
X131.709 Z-27.331
X131.847 Z-27.074
X131.866 Y53.691 Z-27.04
X131.885 Y53.701 Z-27.006
X131.902 Y53.718 Z-26.975
X131.919 Y53.741 Z-26.947
X131.933 Y53.769 Z-26.923
X131.945 Y53.801 Z-26.904
X131.955 Y53.837 Z-26.89
X131.961 Y53.875 Z-26.882
X131.965 Y53.915 Z-26.88
Y53.954 Z-26.884
X131.962 Y53.992 Z-26.894
X131.955 Y54.028 Z-26.909
X131.946 Y54.06 Z-26.93
X131.934 Y54.088 Z-26.955
X131.92 Y54.111 Z-26.984
X131.903 Y54.128 Z-27.016
X131.886 Y54.138 Z-27.05
X131.867 Y54.141 Z-27.085
X131.819 Z-27.175
X131.671 Z-27.443
X131.384 Z-27.302
X131.364 Z-27.288
X131.317 Z-27.266
X131.155 Z-27.236
X130.916 Z-27.193
X130.805 Z-26.915
X130.791 Z-26.841
Z5.
X133.031
Z-23.747
Z-26.173 F200.
X133.283 Z-26.367 F280.
X133.417 Z-26.33
X133.458 Z-26.211
X133.46 Z-26.201
X133.469 Y54.145 Z-26.162
X133.477 Y54.155 Z-26.125
X133.484 Y54.172 Z-26.09
X133.489 Y54.194 Z-26.058
X133.494 Y54.222 Z-26.03
X133.497 Y54.255 Z-26.007
X133.498 Y54.291 Z-25.99
Y54.329 Z-25.98
X133.496 Y54.368 Z-25.976
X133.492 Y54.407 Z-25.979
X133.487 Y54.446 Z-25.988
X133.481 Y54.481 Z-26.004
X133.474 Y54.514 Z-26.025
X133.466 Y54.542 Z-26.052
X133.457 Y54.564 Z-26.084
X133.448 Y54.581 Z-26.118
X133.439 Y54.591 Z-26.156
X133.43 Y54.595 Z-26.194
X133.42 Z-26.235
X133.416 Z-26.249
X133.38 Z-26.342
X133.264 Z-26.384
X133.13 Z-26.289
X133.03 Z-26.189
X131.987
X131.887 Z-26.289
Z-27.091
X131.875 Z-27.138
X131.639 Z-27.578
X131.581 Z-27.738
X131.292 Z-27.629
X131.187 Z-27.288
X131.105 Z-27.123
X131.094 Z-27.078
Z-27.042
X131.134 Y54.822 Z-26.812
X131.173 Y55.048 Z-27.042
X131.191 Z-27.099
X131.223 Z-27.145
X131.342 Z-27.387
X131.59 Z-27.793
X131.674 Z-27.576
X131.879 Z-27.176
X131.891 Z-27.13
Z-26.298
X131.991 Z-26.198
X133.007
X133.107 Z-26.298
X133.23 Z-26.395
X133.325 Z-26.372
X133.379 Z-26.248
X133.383 Z-26.235
X133.394 Y55.052 Z-26.197
X133.403 Y55.062 Z-26.159
X133.412 Y55.079 Z-26.125
X133.419 Y55.101 Z-26.093
X133.425 Y55.129 Z-26.066
X133.429 Y55.162 Z-26.043
X133.432 Y55.198 Z-26.026
Y55.236 Z-26.016
X133.431 Y55.275 Z-26.012
X133.428 Y55.315 Z-26.015
X133.423 Y55.353 Z-26.024
X133.417 Y55.389 Z-26.04
X133.409 Y55.421 Z-26.061
X133.4 Y55.449 Z-26.088
X133.39 Y55.472 Z-26.119
X133.38 Y55.488 Z-26.153
X133.369 Y55.499 Z-26.19
X133.358 Y55.502 Z-26.228
X133.338 Z-26.303
X133.335 Z-26.312
X133.307 Z-26.385
X133.227 Z-26.404
X133.104 Z-26.306
X133.004 Z-26.206
X131.983
X131.883 Z-26.306
Z-27.189
X131.873 Z-27.232
X131.655 Z-27.688
X131.305 Z-27.3
X131.278 Y55.505 Z-27.27
X131.251 Y55.516 Z-27.243
X131.225 Y55.532 Z-27.217
X131.2 Y55.555 Z-27.195
X131.178 Y55.583 Z-27.177
X131.159 Y55.615 Z-27.164
X131.143 Y55.651 Z-27.155
X131.132 Y55.689 Z-27.151
X131.125 Y55.729 Z-27.153
X131.123 Y55.768 Z-27.16
X131.125 Y55.806 Z-27.172
X131.132 Y55.842 Z-27.188
X131.144 Y55.875 Z-27.208
X131.159 Y55.902 Z-27.232
X131.179 Y55.925 Z-27.259
X131.201 Y55.942 Z-27.288
X131.226 Y55.952 Z-27.318
X131.252 Y55.956 Z-27.348
X131.371 Z-27.48
X131.418 Z-27.525
X131.674 Z-27.722
X131.853 Z-27.322
X131.868 Y55.959 Z-27.285
X131.882 Y55.969 Z-27.25
X131.896 Y55.986 Z-27.217
X131.909 Y56.009 Z-27.187
X131.921 Y56.037 Z-27.162
X131.931 Y56.069 Z-27.141
X131.939 Y56.105 Z-27.126
X131.945 Y56.143 Z-27.118
X131.949 Y56.182 Z-27.115
X131.95 Y56.222 Z-27.119
X131.948 Y56.26 Z-27.13
X131.944 Y56.296 Z-27.146
X131.937 Y56.328 Z-27.168
X131.929 Y56.356 Z-27.195
X131.918 Y56.379 Z-27.225
X131.906 Y56.395 Z-27.259
X131.893 Y56.406 Z-27.295
X131.879 Y56.409 Z-27.332
X131.797 Z-27.543
X131.669 Z-27.869
X131.42 Z-27.75
X131.306 Z-27.57
Z5.
X132.95 Y55.956
Z-23.789
Z-26.237 F200.
X133.21 Z-26.428 F280.
X133.293 Z-26.402
X133.313 Z-26.35
X133.326 Z-26.312
X133.338 Y55.959 Z-26.275
X133.349 Y55.969 Z-26.238
X133.359 Y55.986 Z-26.204
X133.368 Y56.009 Z-26.172
X133.375 Y56.037 Z-26.145
X133.38 Y56.069 Z-26.123
X133.383 Y56.105 Z-26.106
X133.384 Y56.143 Z-26.096
X133.383 Y56.182 Z-26.092
X133.38 Y56.222 Z-26.095
X133.374 Y56.26 Z-26.104
X133.367 Y56.296 Z-26.119
X133.358 Y56.328 Z-26.14
X133.348 Y56.356 Z-26.166
X133.336 Y56.379 Z-26.196
X133.324 Y56.395 Z-26.23
X133.312 Y56.406 Z-26.266
X133.3 Y56.409 Z-26.304
X133.257 Z-26.436
X133.172 Z-26.463
X133.098 Z-26.457
X133.054 Z-26.447
X133.03
X132.99 Y56.413
X132.952 Y56.423 Z-26.448
X132.916 Y56.439 Z-26.449
X132.883 Y56.462 Z-26.451
X132.855 Y56.49 Z-26.454
X132.833 Y56.522 Z-26.456
X132.816 Y56.558 Z-26.459
X132.806 Y56.596 Z-26.462
X132.802 Y56.636 Z-26.466
X132.806 Y56.675 Z-26.469
X132.816 Y56.713 Z-26.472
X132.833 Y56.749 Z-26.475
X132.855 Y56.782 Z-26.478
X132.883 Y56.81 Z-26.48
X132.916 Y56.832 Z-26.482
X132.952 Y56.849 Z-26.483
X132.99 Y56.859 Z-26.484
X133.03 Y56.863
X133.074 Z-26.495
X133.141 Z-26.502
X133.223 Z-26.482
X133.247 Z-26.4
X133.253 Y57.09 Z-26.409
X133.284 Y57.316 Z-26.418
X133.265 Z-26.499
X133.172 Z-26.52
X133.051 Z-26.422
Z-26.418
X133.092 Y57.543 Z-26.188
X133.133 Y57.77 Z-26.418
X133.265 Z-26.513
X133.376 Z-26.477
X133.419 Z-26.343
X133.432 Z-26.292
X133.442 Y57.773 Z-26.254
X133.453 Y57.783 Z-26.217
X133.465 Y57.8 Z-26.182
X133.477 Y57.823 Z-26.151
X133.488 Y57.851 Z-26.125
X133.499 Y57.883 Z-26.104
X133.509 Y57.919 Z-26.089
X133.518 Y57.957 Z-26.081
X133.526 Y57.997 Z-26.079
X133.531 Y58.036 Z-26.084
X133.535 Y58.074 Z-26.096
X133.537 Y58.11 Z-26.113
Y58.142 Z-26.137
X133.534 Y58.17 Z-26.166
X133.53 Y58.193 Z-26.199
X133.524 Y58.21 Z-26.235
X133.516 Y58.22 Z-26.273
X133.507 Y58.223 Z-26.311
X133.485 Z-26.398
X133.369 Z-26.493
X133.33 Z-26.496
X133.279 Z-26.486
X133.235 Z-26.476
X133.195 Y58.227 Z-26.475
X133.156 Y58.237 Z-26.472
X133.119 Y58.254 Z-26.468
X133.085 Y58.276 Z-26.463
X133.056 Y58.304 Z-26.456
X133.033 Y58.337 Z-26.448
X133.016 Y58.373 Z-26.439
X133.005 Y58.411 Z-26.429
X133.002 Y58.45 Z-26.42
X133.005 Y58.489 Z-26.41
X133.016 Y58.528 Z-26.401
X133.033 Y58.563 Z-26.392
X133.056 Y58.596 Z-26.384
X133.085 Y58.624 Z-26.377
X133.119 Y58.646 Z-26.371
X133.156 Y58.663 Z-26.367
X133.195 Y58.673 Z-26.365
X133.235 Y58.677 Z-26.364
X133.302
X133.346 Z-26.374
X133.4 Z-26.384
X133.501 Z-26.374
X133.533 Z-26.359
X133.569 Z-26.189
X133.583 Z-26.118
X133.591 Y58.68 Z-26.079
X133.596 Y58.691 Z-26.04
X133.6 Y58.707 Z-26.003
X133.602 Y58.73 Z-25.97
Y58.758 Z-25.94
X133.599 Y58.79 Z-25.916
X133.595 Y58.826 Z-25.898
X133.588 Y58.864 Z-25.885
X133.58 Y58.904 Z-25.88
X133.571 Y58.943 Z-25.882
X133.56 Y58.981 Z-25.89
X133.549 Y59.017 Z-25.905
X133.537 Y59.049 Z-25.927
X133.525 Y59.077 Z-25.953
X133.513 Y59.1 Z-25.985
X133.501 Y59.117 Z-26.02
X133.491 Y59.127 Z-26.058
X133.482 Y59.13 Z-26.097
X133.45 Z-26.227
X133.361 Z-26.249
X133.294 Z-26.242
X133.25 Z-26.231
X133.197
X133.156 Y59.134
X133.116 Y59.144 Z-26.228
X133.079 Y59.161 Z-26.223
X133.045 Y59.183 Z-26.216
X133.016 Y59.211 Z-26.209
X132.993 Y59.244 Z-26.199
X132.975 Y59.28 Z-26.189
X132.965 Y59.318 Z-26.178
X132.961 Y59.357 Z-26.167
X132.965 Y59.397 Z-26.156
X132.975 Y59.435 Z-26.145
X132.993 Y59.471 Z-26.135
X133.016 Y59.503 Z-26.126
X133.045 Y59.531 Z-26.118
X133.079 Y59.554 Z-26.112
X133.116 Y59.57 Z-26.107
X133.156 Y59.581 Z-26.104
X133.197 Y59.584 Z-26.103
X133.241 Z-26.113
X133.312 Z-26.12
X133.373 Z-26.103
X133.406 Z-25.995
X133.414 Z-25.937
Z5.
X129.357 Y56.409
Z-24.401
Z-26.933 F200.
X129.138 Z-27.132 F280.
X129.052 Z-27.124
X128.939 Z-26.869
X128.93 Z-26.828
X128.935 Y56.636 Z-26.601
X128.939 Y56.863 Z-26.828
Z-27.403
X128.942 Z-27.428
X128.95 Z-27.46
X129.09 Z-27.655
X129.204 Z-27.619
X129.274 Z-27.523
Z-27.177
X129.033 Y57.041 Z-26.877
X128.902 Y57.138
X128.661 Y57.316 Z-27.177
X128.475 Z-27.228
X128.312 Z-26.952
X128.138 Z-26.765
X128.085 Z-26.629
Z5.
X130.974 Y56.863
Z-25.243
Z-27.841 F200.
X131.042 Z-27.991 F280.
X131.091 Z-28.035
X131.147 Z-28.034
X131.398 Z-28.029
X131.649 Z-28.081
X131.741 Z-27.774
X131.751 Y56.866 Z-27.736
X131.761 Y56.876 Z-27.699
X131.771 Y56.893 Z-27.664
X131.779 Y56.916 Z-27.633
X131.787 Y56.944 Z-27.606
X131.794 Y56.976 Z-27.585
X131.8 Y57.012 Z-27.569
X131.803 Y57.05 Z-27.559
X131.806 Y57.089 Z-27.556
Y57.129 Z-27.56
X131.805 Y57.167 Z-27.57
X131.802 Y57.203 Z-27.587
X131.797 Y57.235 Z-27.609
X131.791 Y57.263 Z-27.636
X131.784 Y57.286 Z-27.668
X131.776 Y57.303 Z-27.703
X131.767 Y57.313 Z-27.74
X131.757 Y57.316 Z-27.778
X131.727 Z-27.896
X131.656 Z-28.172
X131.602 Z-28.45
X131.501 Z-28.451
X131.314 Z-28.254
X131.191 Z-28.156
X131.115 Z-27.999
Z5.
X129.514
Z-24.902
Z-27.977 F200.
X129.444 Z-28.13 F280.
X129.249 Z-28.296
X129.118 Z-28.088
X129.028 Z-27.984
X129.004 Z-27.918
X129.094 Y57.543 Z-27.674
X129.185 Y57.77 Z-27.918
Z-28.547
X129.188 Z-28.57
X129.264 Z-28.887
X129.281 Z-29.202
X129.455 Z-29.225
X129.536 Z-29.022
X129.677 Z-28.677
X129.692 Z-28.602
Z5.
X131.151
Z-25.271
Z-28.229 F200.
X131.211 Z-28.372 F280.
X131.34 Z-28.499
X131.51 Z-28.728
X131.578 Z-28.892
X131.586 Z-28.719
X131.635 Z-28.373
X131.709 Z-28.033
X131.715 Y57.773 Z-27.994
X131.722 Y57.783 Z-27.956
X131.729 Y57.8 Z-27.921
X131.735 Y57.823 Z-27.889
X131.74 Y57.851 Z-27.862
X131.744 Y57.883 Z-27.84
X131.747 Y57.919 Z-27.823
X131.75 Y57.957 Z-27.813
X131.751 Y57.997 Z-27.81
Y58.036 Z-27.813
X131.75 Y58.074 Z-27.824
X131.747 Y58.11 Z-27.84
X131.744 Y58.142 Z-27.862
X131.739 Y58.17 Z-27.89
X131.734 Y58.193 Z-27.922
X131.728 Y58.21 Z-27.957
X131.722 Y58.22 Z-27.995
X131.715 Y58.223 Z-28.034
X131.681 Z-28.229
X131.612 Z-28.619
X131.587 Z-29.021
X131.58 Z-29.907
X131.433 Z-29.842
X131.389 Z-29.381
X131.313 Z-29.189
X131.14 Z-28.943
X131. Z-28.802
X130.907 Z-28.745
X130.86 Z-28.66
X130.56 Z-28.36
X130.377
X130.077 Z-28.66
Z-29.062
X130.072 Z-29.092
X129.993 Z-29.342
X129.386 Z-29.204
X128.887 Z-29.185
X128.875 Z-28.899
Z-28.895
Z-28.233
G18 G2 X128.358 Z-28.233 I-0.259 K0.
G1 X128.254 Z-28.333
X128.205 Z-28.331
X128.186 Z-28.244
X128.181 Z-28.219
X128.179 Z-28.207
X128.121 Z-27.91
X128.119 Z-27.9
X128.104 Z-27.827
X128.085 Z-27.678
X128.063 Z-27.492
X128.055 Y58.226 Z-27.446
X128.042 Y58.234 Z-27.401
X128.025 Y58.248 Z-27.36
X128.004 Y58.266 Z-27.322
X127.979 Y58.289 Z-27.289
X127.952 Y58.316 Z-27.261
X127.923 Y58.346 Z-27.24
X127.892 Y58.379 Z-27.226
X127.86 Y58.413 Z-27.219
X127.829 Y58.448
X127.826 Y58.452
X127.796 Y58.487 Z-27.227
X127.767 Y58.521 Z-27.241
X127.74 Y58.554 Z-27.262
X127.717 Y58.584 Z-27.29
X127.697 Y58.611 Z-27.323
X127.682 Y58.634 Z-27.361
X127.67 Y58.652 Z-27.403
X127.664 Y58.666 Z-27.448
X127.662 Y58.674 Z-27.494
X127.666 Y58.677 Z-27.541
X127.815 Z-28.757
X127.886 Z-29.113
X128.234 Z-29.123
X128.698 Z-29.159
X128.806 Z-29.059
X128.906 Z-28.959
X130.68
X130.78 Z-29.059
Z-29.504
X130.842 Z-29.596
X131.592 Z-29.905
X131.607 Z-28.805
X131.603 Y58.734 Z-28.944
X131.6 Y58.79 Z-29.083
X131.603 Y58.96 Z-29.5
X131.605 Y59.017 Z-29.639
X131.606 Y59.13 Z-29.917
X131.083 Z-29.714
X131.046 Y59.134 Z-29.699
X131.01 Y59.144 Z-29.686
X130.977 Y59.161 Z-29.673
X130.946 Y59.183 Z-29.662
X130.92 Y59.211 Z-29.653
X130.898 Y59.244 Z-29.646
X130.882 Y59.28 Z-29.641
X130.872 Y59.318 Z-29.638
X130.868 Y59.357
X130.871 Y59.397 Z-29.641
X130.88 Y59.435 Z-29.646
X130.895 Y59.471 Z-29.653
X130.916 Y59.503 Z-29.662
X130.942 Y59.531 Z-29.673
X130.972 Y59.554 Z-29.686
X131.005 Y59.57 Z-29.699
X131.04 Y59.581 Z-29.714
X131.077 Y59.584 Z-29.728
X131.084 Z-29.73
X131.609 Z-29.927
X131.61 Y59.684 Z-29.827
X131.612 Y59.938
X131.613 Y60.038 Z-29.927
Z-29.943
X131.065 Z-29.733
X131.029 Y60.041 Z-29.719
X130.993 Y60.051 Z-29.705
X130.96 Y60.068 Z-29.693
X130.929 Y60.091 Z-29.681
X130.903 Y60.119 Z-29.672
X130.882 Y60.151 Z-29.664
X130.866 Y60.187 Z-29.659
X130.856 Y60.225 Z-29.656
X130.852 Y60.264 Z-29.655
X130.855 Y60.304 Z-29.657
X130.865 Y60.342 Z-29.662
X130.88 Y60.378 Z-29.669
X130.901 Y60.41 Z-29.678
X130.927 Y60.438 Z-29.688
X130.956 Y60.461 Z-29.7
X130.99 Y60.477 Z-29.714
X131.025 Y60.488 Z-29.728
X131.062 Y60.491 Z-29.742
X131.076 Z-29.748
X131.616 Z-29.959
Y60.591 Z-29.859
X131.618 Y60.845
Y60.945 Z-29.959
Z-29.978
X131.074 Z-29.763
X131.037 Y60.948 Z-29.748
X131.002 Y60.958 Z-29.734
X130.968 Y60.975 Z-29.721
X130.938 Y60.998 Z-29.71
X130.912 Y61.026 Z-29.7
X130.89 Y61.058 Z-29.693
X130.874 Y61.094 Z-29.688
X130.864 Y61.132 Z-29.685
X130.861 Y61.171
X130.863 Y61.211 Z-29.688
X130.872 Y61.249 Z-29.693
X130.887 Y61.285 Z-29.7
X130.908 Y61.317 Z-29.71
X130.933 Y61.345 Z-29.722
X130.963 Y61.368 Z-29.734
X130.996 Y61.385 Z-29.748
X131.031 Y61.395 Z-29.763
X131.068 Y61.398 Z-29.778
X131.079 Z-29.783
X131.629 Z-30.006
X131.637 Y61.625 Z-30.021
X131.644 Y61.852 Z-30.035
X131.089 Z-29.805
X131.053 Y61.855 Z-29.789
X131.018 Y61.865 Z-29.774
X130.985 Y61.882 Z-29.761
X130.955 Y61.905 Z-29.748
X130.929 Y61.933 Z-29.738
X130.907 Y61.965 Z-29.73
X130.891 Y62.001 Z-29.725
X130.882 Y62.039 Z-29.722
X130.878 Y62.079
X130.88 Y62.118 Z-29.725
X130.889 Y62.156 Z-29.731
X130.904 Y62.192 Z-29.739
X130.924 Y62.224 Z-29.749
X130.949 Y62.252 Z-29.761
X130.979 Y62.275 Z-29.774
X131.011 Y62.292 Z-29.789
X131.046 Y62.302 Z-29.805
X131.082 Y62.305 Z-29.821
X131.099 Z-29.828
X131.658 Z-30.07
X131.666 Y62.532 Z-30.089
X131.672 Y62.759 Z-30.108
X131.086 Z-29.844
X131.077 Z-29.839
X131.074 Z-29.837
X131.04 Y62.762 Z-29.818
X131.006 Y62.773 Z-29.799
X130.975 Y62.789 Z-29.782
X130.946 Y62.812 Z-29.766
X130.921 Y62.84 Z-29.754
X130.901 Y62.872 Z-29.744
X130.885 Y62.908 Z-29.737
X130.875 Y62.946 Z-29.734
X130.871 Y62.986
X130.873 Y63.025 Z-29.737
X130.881 Y63.063 Z-29.744
X130.895 Y63.099 Z-29.754
X130.914 Y63.131 Z-29.767
X130.937 Y63.159 Z-29.782
X130.965 Y63.182 Z-29.799
X130.995 Y63.199 Z-29.818
X131.028 Y63.209 Z-29.837
X131.062 Y63.212 Z-29.857
X131.073 Z-29.862
X131.291 Z-29.957
X131.686 Z-30.145
X131.689 Y63.312 Z-30.045
X131.697 Y63.566
X131.7 Y63.666 Z-30.145
Z-30.183
X131.047 Z-29.867
X130.991 Z-29.777
X130.987 Y63.893 Z-29.55
X130.984 Y64.12 Z-29.777
Z-29.787
X131.041 Z-29.877
X131.713 Z-30.204
X131.716 Y64.22 Z-30.104
X131.723 Y64.473
X131.726 Y64.573 Z-30.204
Z-30.219
X131.016 Z-29.89
X130.958 Z-29.799
X130.954 Y64.8 Z-29.572
X130.95 Y65.027 Z-29.799
Z-29.817
X130.978 Z-29.886
X131.012 Z-29.922
X131.738 Z-30.25
X131.74 Y65.127 Z-30.15
X131.747 Y65.38
X131.75 Y65.48 Z-30.25
Z-30.299
X131.059 Z-29.981
X130.968 Z-29.882
X130.943 Y65.484 Z-29.851
X130.919 Y65.494 Z-29.821
X130.897 Y65.511 Z-29.793
X130.877 Y65.533 Z-29.768
X130.859 Y65.561 Z-29.746
X130.845 Y65.594 Z-29.728
X130.835 Y65.629 Z-29.715
X130.829 Y65.668 Z-29.707
X130.828 Y65.707 Z-29.704
X130.83 Y65.746 Z-29.706
X130.837 Y65.785 Z-29.714
X130.848 Y65.82 Z-29.726
X130.862 Y65.853 Z-29.744
X130.88 Y65.881 Z-29.765
X130.901 Y65.903 Z-29.79
X130.923 Y65.92 Z-29.818
X130.948 Y65.93 Z-29.848
X130.972 Y65.934 Z-29.878
X130.986 Z-29.895
X131.122 Z-30.063
X131.761 Z-30.348
X131.766 Y66.161 Z-30.375
X131.77 Y66.387 Z-30.402
X131.195 Z-30.152
X131.148 Z-30.117
X130.974 Z-29.895
X130.972 Z-29.893
X130.948 Y66.391 Z-29.862
X130.924 Y66.401 Z-29.832
X130.901 Y66.418 Z-29.805
X130.881 Y66.44 Z-29.779
X130.863 Y66.468 Z-29.758
X130.849 Y66.501 Z-29.74
X130.838 Y66.537 Z-29.727
X130.831 Y66.575 Z-29.72
X130.829 Y66.614 Z-29.717
X130.83 Y66.654 Z-29.721
X130.836 Y66.692 Z-29.729
X130.846 Y66.728 Z-29.743
X130.86 Y66.76 Z-29.761
X130.877 Y66.788 Z-29.783
X130.896 Y66.811 Z-29.809
X130.918 Y66.827 Z-29.837
X130.942 Y66.837 Z-29.867
X130.966 Y66.841 Z-29.898
X130.977 Z-29.91
X131.177 Z-30.182
X131.78 Z-30.421
Z5.
X131.802 Y67.294
Z-24.141
Z-30.454 F200.
X131.204 Z-30.237 F280.
X131.063 Z-30.013
X130.978 Z-29.914
X130.954 Y67.298 Z-29.883
X130.93 Y67.308 Z-29.853
X130.908 Y67.325 Z-29.825
X130.889 Y67.348 Z-29.799
X130.871 Y67.375 Z-29.777
X130.858 Y67.408 Z-29.759
X130.847 Y67.444 Z-29.746
X130.841 Y67.482 Z-29.738
X130.839 Y67.521 Z-29.735
X130.841 Y67.561 Z-29.738
X130.847 Y67.599 Z-29.746
X130.857 Y67.635 Z-29.759
X130.871 Y67.667 Z-29.778
X130.888 Y67.695 Z-29.8
X130.907 Y67.718 Z-29.825
X130.929 Y67.734 Z-29.854
X130.952 Y67.745 Z-29.884
X130.977 Y67.748 Z-29.915
X130.987 Z-29.929
X131.101 Z-30.077
X131.238 Z-30.349
X131.559 Z-30.454
X131.824 Z-30.497
X131.836 Y67.975 Z-30.499
X131.843 Y68.202 Z-30.502
X131.494 Z-30.498
X131.25 Z-30.423
X131.145 Z-30.176
X131.005 Z-29.956
X130.984 Y68.205 Z-29.922
X130.963 Y68.215 Z-29.89
X130.944 Y68.232 Z-29.86
X130.926 Y68.255 Z-29.833
X130.911 Y68.283 Z-29.809
X130.899 Y68.315 Z-29.79
X130.89 Y68.351 Z-29.776
X130.884 Y68.389 Z-29.767
X130.882 Y68.428 Z-29.764
X130.884 Y68.468 Z-29.767
X130.89 Y68.506 Z-29.776
X130.899 Y68.542 Z-29.79
X130.911 Y68.574 Z-29.809
X130.926 Y68.602 Z-29.833
X130.943 Y68.625 Z-29.86
X130.962 Y68.641 Z-29.891
X130.983 Y68.652 Z-29.923
X131.004 Y68.655 Z-29.956
X131.014 Z-29.971
X131.133 Z-30.156
X131.234 Z-30.375
X131.283 Z-30.557
X131.857 Z-30.498
X131.87 Y69.109 Z-30.495
X131.277 Z-30.561
X131.221 Z-30.346
X131.05 Z-30.018
X131.027 Z-29.987
X131.004 Y69.112 Z-29.954
X130.982 Y69.122 Z-29.923
X130.962 Y69.139 Z-29.894
X130.943 Y69.162 Z-29.868
X130.927 Y69.19 Z-29.845
X130.914 Y69.222 Z-29.826
X130.904 Y69.258 Z-29.813
X130.899 Y69.296 Z-29.804
X130.897 Y69.335 Z-29.801
X130.899 Y69.375 Z-29.804
X130.905 Y69.413 Z-29.812
X130.915 Y69.449 Z-29.826
X130.928 Y69.481 Z-29.844
X130.944 Y69.509 Z-29.867
X130.963 Y69.532 Z-29.893
X130.984 Y69.549 Z-29.922
X131.006 Y69.559 Z-29.954
X131.029 Y69.562 Z-29.986
X131.036 Z-29.996
X131.048 Z-30.013
X131.197 Z-30.304
X131.279 Z-30.56
X131.879 Z-30.493
X131.887 Y70.016 Z-30.491
X131.278 Z-30.559
X131.158 Z-30.213
X131.042 Z-30.003
X131.024 Y70.019 Z-29.968
X131.005 Y70.029 Z-29.935
X130.988 Y70.046 Z-29.903
X130.972 Y70.069 Z-29.875
X130.959 Y70.097 Z-29.851
X130.948 Y70.129 Z-29.831
X130.94 Y70.165 Z-29.816
X130.935 Y70.203 Z-29.807
X130.933 Y70.243 Z-29.804
X130.935 Y70.282 Z-29.807
X130.94 Y70.32 Z-29.816
X130.948 Y70.356 Z-29.831
X130.959 Y70.388 Z-29.851
X130.972 Y70.416 Z-29.875
X130.988 Y70.439 Z-29.903
X131.005 Y70.456 Z-29.935
X131.024 Y70.466 Z-29.968
X131.042 Y70.469 Z-30.003
X131.045 Z-30.008
X131.153 Z-30.205
X131.273 Z-30.553
X131.895 Z-30.491
X131.901 Y70.923
X131.276 Z-30.559
X131.149 Z-30.199
X131.053 Z-30.023
X131.035 Z-29.99
X131.016 Y70.926 Z-29.956
X130.998 Y70.937 Z-29.922
X130.981 Y70.953 Z-29.891
X130.965 Y70.976 Z-29.863
X130.951 Y71.004 Z-29.838
X130.94 Y71.036 Z-29.819
X130.931 Y71.072 Z-29.804
X130.926 Y71.11 Z-29.796
X130.924 Y71.15 Z-29.793
X130.925 Y71.189 Z-29.796
X130.929 Y71.227 Z-29.805
X130.937 Y71.263 Z-29.82
X130.947 Y71.295 Z-29.841
X130.96 Y71.323 Z-29.865
X130.975 Y71.346 Z-29.894
X130.992 Y71.363 Z-29.926
X131.01 Y71.373 Z-29.959
X131.029 Y71.376 Z-29.994
X131.145 Z-30.193
X131.279 Z-30.559
X131.89 Z-30.495
X131.742 Y71.83 Z-30.512
X131.283 Z-30.553
X131.161 Z-30.221
X131.027 Z-29.999
X130.823 Z-29.773
X130.797 Z-29.706
Z-29.49
X130.642 Y72.057 Z-29.216
X130.487 Y72.284 Z-29.49
X130.531 Z-29.573
X130.793 Z-29.75
X131.002 Z-29.963
X131.159 Z-30.204
X131.267 Z-30.472
Z-29.723
X131.193 Y72.35 Z-29.623
X130.836 Y72.67
X130.761 Y72.737 Z-29.723
X130.479 Z-29.543
X130.165 Z-29.414
X130.114 Z-29.397
X129.977 Z-29.351
X129.94 Y72.741 Z-29.339
X129.904 Y72.751 Z-29.327
X129.87 Y72.768 Z-29.315
X129.839 Y72.79 Z-29.305
X129.812 Y72.818 Z-29.297
X129.791 Y72.851 Z-29.29
X129.775 Y72.886 Z-29.286
X129.765 Y72.925 Z-29.283
X129.761 Y72.964
X129.764 Y73.003 Z-29.284
X129.774 Y73.041 Z-29.288
X129.789 Y73.077 Z-29.294
X129.811 Y73.11 Z-29.302
X129.837 Y73.138 Z-29.311
X129.868 Y73.16 Z-29.322
X129.902 Y73.177 Z-29.333
X129.938 Y73.187 Z-29.346
X129.975 Y73.191 Z-29.358
X130.277 Z-29.449
X130.169 Y73.304 Z-29.387
X130.061 Y73.417 Z-29.326
X129.845 Y73.644
X129.491 Z-29.283
X129.403 Z-29.184
X129.401 Y73.744 Z-29.084
X129.396 Y73.998
X129.394 Y74.098 Z-29.184
Z-29.278
X129.062 Z-29.299
X128.948 Z-29.318
X128.716 Z-29.12
Z5.
X126.75 Y77.726
Z-23.971
Z-26.138 F200.
X126.696 Z-26.275 F280.
X126.595 Z-26.383
X126.403 Z-26.403
X126.292 Z-26.304
X126.244 Y77.953 Z-26.072
X126.197 Y78.18 Z-26.304
Z-26.48
X126.171 Z-26.546
X125.922 Z-26.824
X125.773 Z-27.098
X125.163 Z-26.986
X124.999 Z-26.789
Z5.
X124.129 Y74.551
Z-25.024
Z-27.959 F200.
X123.846 Z-28.141 F280.
X123.648 Z-28.051
X123.25 Z-27.907
X122.747 Z-27.801
X122.535 Z-27.609
X122.25 Z-27.411
X122.207 Z-27.329
X122.107 Z-27.229
X121.275
X121.175 Z-27.329
Z-27.348
X121.14 Z-27.423
X121.064 Z-27.489
X120.927 Z-27.488
X120.828 Z-27.388
Z-27.322
X120.791 Y74.778 Z-27.092
X120.753 Y75.005 Z-27.322
X120.736 Z-27.377
X120.674 Z-27.471
X120.605 Z-27.467
X120.567 Z-27.457
X120.561 Z-27.454
X120.517 Z-27.443
X120.439
X120.212 Y75.232
X120.439 Y75.458
X120.483 Z-27.454
X120.521 Z-27.464
X120.592 Z-27.468
X120.644 Z-27.388
X120.645 Z-27.386
X120.664 Y75.462 Z-27.351
X120.684 Y75.472 Z-27.318
X120.703 Y75.489 Z-27.287
X120.722 Y75.512 Z-27.26
X120.74 Y75.539 Z-27.237
X120.756 Y75.572 Z-27.219
X120.769 Y75.608 Z-27.207
X120.78 Y75.646 Z-27.201
X120.788 Y75.685
X120.793 Y75.725 Z-27.208
X120.794 Y75.763 Z-27.22
X120.791 Y75.799 Z-27.238
X120.786 Y75.831 Z-27.261
X120.777 Y75.859 Z-27.289
X120.765 Y75.882 Z-27.32
X120.75 Y75.898 Z-27.353
X120.734 Y75.909 Z-27.388
X120.716 Y75.912 Z-27.424
X120.679 Z-27.493
X120.576 Z-27.487
X120.537 Y75.915 Z-27.482
X120.499 Y75.926 Z-27.478
X120.463 Y75.942 Z-27.474
X120.431 Y75.965 Z-27.471
X120.403 Y75.993 Z-27.468
X120.38 Y76.025 Z-27.467
X120.363 Y76.061
X120.353 Y76.099
X120.349 Y76.139 Z-27.469
X120.352 Y76.178 Z-27.471
X120.362 Y76.216 Z-27.474
X120.379 Y76.252 Z-27.478
X120.401 Y76.285 Z-27.482
X120.429 Y76.313 Z-27.487
X120.461 Y76.335 Z-27.493
X120.496 Y76.352 Z-27.498
X120.534 Y76.362 Z-27.503
X120.573 Y76.366 Z-27.509
X120.842 Z-27.544
X120.977 Z-27.561
X121.036 Z-27.452
X121.048 Z-27.405
X121.107 Y76.592 Z-27.17
X121.166 Y76.819 Z-27.405
Z-27.538
X121.245 Z-27.635
X121.593 Z-27.712
X121.727 Z-27.513
X121.744 Z-27.457
X121.673 Y77.046 Z-27.219
X121.602 Y77.273 Z-27.457
Z-27.603
X121.692 Z-27.703
X122.144 Z-27.749
X122.386 Z-27.415
X122.622 Z-27.191
X122.933 Z-26.973
X122.975 Z-26.891
X122.882 Y77.309 Z-26.791
X121.918 Y77.69
X121.825 Y77.726 Z-26.891
Z-27.528
X121.806 Z-27.587
X121.725 Z-27.699
X121.545 Z-27.683
X121.454 Z-27.583
Z-27.483
X121.437 Y77.953 Z-27.256
X121.421 Y78.18 Z-27.483
X121.401 Z-27.543
X121.319 Z-27.653
X121.181 Z-27.636
X121.094 Z-27.537
Z-27.437
X121.065 Y78.407 Z-27.208
X121.035 Y78.633 Z-27.437
X121.018 Z-27.493
X120.951 Z-27.592
X120.809 Z-27.576
X120.721 Z-27.476
Z-27.343
X120.689 Y78.86 Z-27.114
X120.656 Y79.087 Z-27.343
X120.636 Z-27.404
X120.549 Z-27.518
X120.407 Z-27.503
X120.317 Z-27.403
Z-27.298
X120.235 Y79.314 Z-27.057
X120.153 Y79.54 Z-27.298
X120.123 Z-27.37
X120.034 Z-27.457
X119.495 Z-27.417
X119.31 Z-27.217
Z5.
X116.176 Y78.633
Z-20.022
Z-22.733 F200.
X116.011 Z-22.93 F280.
X115.788 Z-22.802
X115.726 Z-22.634
X115.713 Z-22.565
Z5.
X112.509 Y82.262
Z-19.961
Z-23.191 F200.
X112.489 Z-23.277 F280.
X112.391 Z-23.482
X112.362 Z-23.676
X112.351 Z-23.746
X112.341 Z-28.154
X111.996 Z-28.237
X111.031 Z-28.527
X110.223 Z-28.808
X109.799 Z-28.292
X109.776 Z-28.229
Z-24.97
X109.764 Y82.035 Z-24.743
X109.753 Y81.808 Z-24.97
X109.739 Z-25.02
X109.639 Z-25.193
X109.493 Z-25.291
X109.337 Z-25.208
X109.432 Y81.841 Z-25.108
X111.893 Y82.683
X111.987 Y82.715 Z-25.208
Z-27.975
X112.1 Z-28.075
X112.445 Z-28.031
X113.34 Z-27.935
X113.996 Z-27.895
Z-22.999
X114.012 Z-22.926
X114.059 Z-22.825
X114.077 Z-22.74
Z5.
X108.775 Y91.333
Z-23.813
Z-26.077 F200.
X108.726 Z-26.209 F280.
X108.616 Z-26.334
X108.408 Z-26.347
X108.195 Z-26.148
Z5.
X105.171 Y89.972
Z-23.802
Z-25.984 F200.
X105.069 Z-26.158 F280.
X104.762 Z-26.33
X104.663 Z-26.371
X104.565 Z-26.361
X104.311 Z-26.251
X104.095 Z-26.166
X104.032 Z-26.073
Z-25.409
X103.961 Y90.043 Z-25.309
X103.189 Y90.809
X103.118 Y90.879 Z-25.409
X103.021 Z-25.509
X102.96 Z-25.51
X102.91 Z-25.47
X102.835 Z-25.314
Z5.
X101.171 Y89.065
Z-23.268
Z-25.62 F200.
X101.051 Z-25.804 F280.
X100.794 Z-25.916
X100.648 Z-26.012
X100.436 Z-25.879
X100.013 Z-25.531
X99.906 Z-25.438
X99.871 Z-25.363
Z-24.923
X99.785 Y89.115 Z-24.823
X99.166 Y89.469
X99.08 Y89.519 Z-24.923
X99.1 Z-24.983
X99.32 Z-25.275
X99.603 Z-25.75
X99.756 Z-25.713
X99.961 Z-25.681
X100.434 Z-25.761
X100.687 Z-25.843
X100.968 Z-25.733
X101.032 Z-25.64
Z-24.841
X100.935 Y89.545 Z-24.741
X99.431 Y89.946
X99.334 Y89.972 Z-24.841
X99.262 Z-24.937
X98.917 Z-25.035
X98.738 Z-24.753
X98.707 Z-24.646
Z5.
X95.067 Y87.705
Z-12.216
Z-22.542 F200.
X94.915 Z-22.736 F280.
X94.69 Z-22.635
X94.567 Z-22.4
Z5.
X97.443 Y97.683
Z-13.977
Z-18.654 F200.
X97.444 Z-18.673 F280.
X97.455 Z-18.787
X97.48 Z-18.839
X97.705 Z-18.947
X97.86 Z-18.752
Z5.
X97.671 Y101.311
Z-13.422
Z-21.968 F200.
X97.555 Z-22.149 F280.
X97.342 Z-22.12
X97.033 Z-21.859
X97.032 Z-16.471
X96.827 Y101.531 Z-16.171
X96.814 Y101.545
X96.61 Y101.765 Z-16.471
Z-21.607
X96.447 Z-21.684
X96.321 Z-21.581
X96.346 Y101.779 Z-21.511
X96.372 Y101.794 Z-21.44
X96.226 Z-20.325
X96.2 Y101.779 Z-20.254
X96.175 Y101.765 Z-20.183
X96.094 Z-20.017
X96.058 Z-19.852
Z-19.278
X96.025
X95.857 Z-19.186
X95.802 Z-19.101
X95.004 Y102.218 Z-17.935
X94.772 Z-17.409
X94.756 Z-17.381
Z-16.301
X94.673 Y102.274 Z-16.201
X94.16 Y102.616
X94.077 Y102.672 Z-16.301
X93.905 Z-16.37
X93.772 Z-16.233
X92.985 Y103.125 Z-15.715
X92.862 Z-15.548
X92.115 Y103.579 Z-14.916
X92.006 Z-14.788
Z-14.321
X91.941 Y103.655 Z-14.221
X91.686 Y103.956
X91.621 Y104.033 Z-14.321
X91.45 Z-14.391
X91.214 Z-14.154
Z-13.779
X91.159 Y104.116 Z-13.679
X90.97 Y104.403
X90.914 Y104.486 Z-13.779
X90.75 Z-13.856
X90.498 Z-13.645
X90.49 Z-13.399
Z-13.396
Z-13.246
X90.355 Y104.713 Z-12.982
X90.219 Y104.94 Z-13.246
X90.063 Z-13.329
X89.842 Z-13.179
X89.827 Z-12.972
Z-12.964
Z-12.86
X89.732 Y105.166 Z-12.614
X89.637 Y105.393 Z-12.86
X89.487 Z-12.947
X89.212 Z-12.789
X89.204 Z-12.627
Z-12.622
Z-12.49
X89.111 Y105.62 Z-12.245
X89.017 Y105.847 Z-12.49
X88.881 Z-12.584
X88.677 Z-12.505
X88.649 Z-12.333
X88.648 Z-12.317
Z-12.238
X88.592 Y106.074 Z-12.005
X88.536 Y106.3 Z-12.238
X88.405 Z-12.333
X88.248 Z-12.282
X88.178 Z-12.099
X88.171 Z-12.064
Z-12.046
X88.145 Y106.527 Z-11.817
X88.118 Y106.754 Z-12.046
X87.982 Z-12.139
X87.884 Z-12.102
X87.774 Z-11.913
X87.76 Z-11.862
Z-11.725
X87.724 Y106.847 Z-11.625
X87.443 Y107.568
X87.407 Y107.661 Z-11.725
X87.279 Z-11.822
X87.233 Z-11.808
X87.203 Z-11.757
X87.177 Z-11.658
Z5.
X90.784 Y105.393
Z-10.493
Z-14.862 F200.
X90.786 Z-14.886 F280.
X90.792 Z-14.934
X90.829 Z-14.974
X91.002 Z-14.905
Z-14.668
X90.8 Y105.616 Z-14.368
X90.793 Y105.624
X90.591 Y105.847 Z-14.668
X90.427 Z-14.745
X90.349 Z-14.68
Z-14.613
Z-14.436
X90.279 Y106.074 Z-14.198
X90.209 Y106.3 Z-14.436
X90.046 Z-14.513
X89.966 Z-14.447
Z-14.24
X89.944 Y106.398 Z-14.14
X89.888 Y106.656
X89.866 Y106.754 Z-14.24
X89.709 Z-14.322
X89.623 Z-14.261
Z-14.092
X89.609 Y106.853 Z-13.992
X89.574 Y107.108
X89.56 Y107.207 Z-14.092
X89.399 Z-14.171
X89.306 Z-14.098
X89.297 Z-14.002
Z-13.993
Z-13.929
X89.274 Y107.434 Z-13.702
X89.251 Y107.661 Z-13.929
X89.095 Z-14.012
X89.005 Z-13.952
X88.992 Z-13.843
X88.99 Z-13.818
Z5.
X93.205 Y112.65
Z-15.544
Z-23.614 F200.
X93.269 Z-23.76 F280.
X93.481 Z-23.957
X93.786 Z-24.323
X93.963 Z-24.64
X94.121 Z-24.998
X94.153 Z-25.012
X94.562 Z-25.231
X94.608 Y112.739 Z-25.131
X94.75 Y113.015
X94.796 Y113.104 Z-25.231
Z-25.617
X94.814 Z-25.675
X95.015 Z-25.956
X95.213 Z-26.264
X95.347 Z-26.635
X95.4 Z-26.959
X95.412 Z-28.003
X95.54 Z-28.335
X95.735 Z-28.624
X95.828 Z-28.79
X95.903 Z-28.954
Z-20.453
X95.916 Z-20.367
X95.956 Z-20.258
X96.059 Z-20.137
X96.083 Z-20.072
X95.985 Y113.123 Z-19.972
X93.906 Y113.538
X93.808 Y113.557 Z-20.072
Z-24.777
X93.667 Z-24.869
X93.604 Z-24.84
X93.586 Z-24.772
X93.583 Z-24.747
Z-24.72
X93.562 Y113.784 Z-24.492
X93.541 Y114.011 Z-24.72
X93.411 Z-24.815
X93.344 Z-24.794
X93.327 Z-24.72
X93.324 Z-24.698
Z-24.554
X93.285 Y114.103 Z-24.454
X92.784 Y115.28
X92.744 Y115.371 Z-24.554
X92.593 Z-24.639
X92.534 Z-24.603
X92.506 Z-24.445
X92.504 Z-24.428
Z-20.326
X92.473 Y115.598 Z-20.097
X92.443 Y115.825 Z-20.326
X92.444 Z-20.344
X92.479 Z-20.532
X92.487 Z-24.695
X92.637 Z-24.816
X92.938 Z-25.094
X93.219 Z-25.435
X93.396 Z-25.371
Z-17.468
X93.296 Z-17.368
X92.149
X92.049 Z-17.468
X91.86 Z-17.513
X91.773 Z-17.344
X91.751 Z-17.253
Z5.
X92.203 Y123.536
Z-11.41
Z-13.944 F200.
X92.236 Z-14.053 F280.
X92.251 Z-14.076
X92.352 Z-14.08
X92.558 Z-13.88
Z5.
X91.554 Y126.257
Z-13.155
Z-15.5 F200.
X91.491 Z-15.646 F280.
X91.395 Z-15.736
X91.221 Z-15.744
X91.146 Z-15.657
X91.116 Y126.26 Z-15.625
X91.084 Y126.271 Z-15.596
X91.052 Y126.287 Z-15.571
X91.02 Y126.31 Z-15.551
X90.989 Y126.338 Z-15.536
X90.96 Y126.37 Z-15.528
X90.935 Y126.406 Z-15.525
X90.913 Y126.444 Z-15.529
X90.896 Y126.484 Z-15.539
X90.883 Y126.523 Z-15.554
X90.877 Y126.561 Z-15.575
X90.875 Y126.597 Z-15.601
X90.88 Y126.629 Z-15.63
X90.889 Y126.657 Z-15.663
X90.904 Y126.68 Z-15.698
X90.924 Y126.697 Z-15.734
X90.948 Y126.707 Z-15.769
X90.976 Y126.71 Z-15.804
X91.142 Z-15.998
X91.256 Z-16.113
X91.378 Z-16.011
X91.411 Y126.713 Z-15.985
X91.445 Y126.722 Z-15.963
X91.48 Y126.735 Z-15.945
X91.514 Y126.754 Z-15.931
X91.547 Y126.777 Z-15.921
X91.578 Y126.804 Z-15.916
X91.606 Y126.834
X91.631 Y126.867 Z-15.92
X91.651 Y126.902 Z-15.93
X91.667 Y126.937 Z-15.944
X91.678 Y126.973 Z-15.962
X91.684 Y127.007 Z-15.984
X91.685 Y127.04 Z-16.009
X91.68 Y127.07 Z-16.037
X91.67 Y127.098 Z-16.067
X91.654 Y127.121 Z-16.098
X91.634 Y127.139 Z-16.129
X91.61 Y127.153 Z-16.16
X91.583 Y127.161 Z-16.189
X91.552 Y127.164 Z-16.217
X91.301 Z-16.429
X91.175 Z-16.523
X91.074 Z-16.433
X91.067 Z-16.426
X91.033 Y127.166 Z-16.394
X90.996 Y127.173 Z-16.366
X90.956 Y127.184 Z-16.343
X90.915 Y127.199 Z-16.327
X90.873 Y127.218 Z-16.317
X90.831 Y127.24 Z-16.313
X90.791 Y127.264 Z-16.317
X90.754 Y127.291 Z-16.327
X90.72 Y127.319 Z-16.343
X90.69 Y127.348 Z-16.366
X90.608 Y127.434 Z-16.44
X90.584 Y127.462 Z-16.468
X90.564 Y127.49 Z-16.501
X90.551 Y127.517 Z-16.537
X90.545 Y127.542 Z-16.577
X90.544 Y127.564 Z-16.618
X90.551 Y127.582 Z-16.661
X90.564 Y127.597 Z-16.704
X90.583 Y127.609 Z-16.745
X90.607 Y127.615 Z-16.785
X90.637 Y127.618 Z-16.822
X90.907 Z-17.116
X90.919 Z-17.128
X90.985 Z-17.179
X91.065 Z-17.089
X91.091 Z-17.022
X91.186 Y127.648 Z-16.922
X92.422 Y128.041
X92.517 Y128.071 Z-17.022
Z-17.655
X92.579 Z-17.747
X92.912 Z-17.886
X93.058 Z-17.98
X93.262 Z-18.203
X93.342 Z-18.313
X93.351 Z-25.681
X93.471 Z-25.764
X93.675 Z-25.946
X93.777 Z-26.112
X93.828 Z-26.261
X93.866 Z-26.481
X93.867 Z-27.314
X94.32 Z-27.488
X94.328 Z-19.315
X94.428 Z-18.96
X94.557 Z-18.657
X94.573 Z-18.579
Z5.
X97.67 Y126.71
Z-14.464
Z-17.726 F200.
X97.72 Z-17.858 F280.
X97.76 Z-17.904
X97.832 Z-17.885
X97.907 Z-17.788
X98.007 Z-17.688
X99.394
X99.494 Z-17.788
Z-21.244
X99.521 Z-21.206
X99.853 Z-20.815
X99.901 Z-20.686
Z5.
X101.818 Y126.257
Z-16.295
Z-28.719 F200.
X102.135 Z-28.596 F280.
X102.145 Z-22.584
X102.217 Z-22.429
X102.3 Z-22.353
X102.322 Z-22.278
X102.388 Z-22.198
X102.466 Z-22.162
X102.533 Z-22.077
X102.649 Z-22.015
X102.754 Z-22.062
X102.781 Z-22.096
X102.821 Z-22.213
Z-28.379
X103.656 Z-28.219
X103.662 Z-24.479
X103.678 Z-23.883
X103.725 Z-23.618
X103.753 Z-23.31
X103.806 Z-23.1
X103.809 Z-23.075
Z-21.146
X103.987 Y126.03 Z-20.858
X104.164 Y125.803 Z-21.146
X104.209 Z-21.23
X104.259 Z-21.262
X104.303 Z-21.229
X104.343 Z-21.149
X104.365 Y125.901 Z-21.049
X104.522 Y126.613
X104.543 Y126.71 Z-21.149
Z-28.257
X104.075 Z-28.245
X104.001 Z-28.209
X103.963 Z-28.181
X103.916 Z-28.174
X103.236 Z-28.231
X102.433 Z-28.298
X101.841 Z-28.399
X101.466 Z-28.499
X100.96 Z-28.684
Z-28.204
X101.025 Y126.786 Z-28.104
X101.29 Y127.089
X101.356 Y127.164 Z-28.204
X101.273 Z-28.302
X100.825 Z-28.382
X100.294 Z-28.537
X99.749 Z-28.741
X99.381 Z-28.926
X99.069 Z-29.176
X99.038 Z-29.205
X98.601 Z-29.195
Z-28.372
X98.685 Y127.219 Z-28.272
X99.207 Y127.563
X99.291 Y127.618 Z-28.372
X99.233 Z-28.463
X99.022 Z-28.559
X98.553 Z-28.771
X98.312 Z-28.931
X98.084 Z-29.171
X98.073 Z-29.181
X96.832 Z-29.167
Z-19.234
X96.744 Y127.665 Z-19.134
X96.071 Y128.024
X95.983 Y128.071 Z-19.234
Z-29.142
X97.206 Z-29.162
X97.464 Z-28.873
X97.623 Z-28.727
X98.072 Z-28.467
X98.351 Z-28.375
X98.42 Z-28.28
X98.325 Y128.101 Z-28.18
X97.062 Y128.495
X96.967 Y128.525 Z-28.28
Z-28.548
X96.94 Z-28.617
X96.638 Z-28.937
X96.511 Z-29.141
X94.808 Z-29.128
X94.696 Z-28.93
X94.683 Z-28.881
X94.643 Y128.751 Z-28.65
X94.603 Y128.978 Z-28.881
Z-29.021
X94.501 Z-29.121
X94.156 Z-29.113
X94.03 Z-28.91
X94.115 Z-28.757
X95.43
X95.53 Z-28.857
Z-29.022
X95.629 Z-29.122
X95.93 Z-29.125
X95.974 Z-29.041
X96.227 Z-28.68
X96.245 Z-28.622
X95.991 Y129.138 Z-28.322
X95.777 Y129.272
X95.523 Y129.432 Z-28.622
Z-28.946
X95.51 Z-28.995
X95.447 Z-29.108
X95.285 Z-29.107
X94.835 Z-29.108
X94.554 Z-29.105
X94.519
X94.238 Z-29.101
X94.203 Z-29.1
X94.063 Z-29.095
X94.027 Z-29.094
X93.84 Z-29.084
X93.479 Z-29.051
X93.389 Z-28.874
X93.378 Z-28.828
X93.335 Y129.659 Z-28.598
X93.292 Y129.885 Z-28.828
Z-28.851
X93.17 Z-28.948
X92.972 Z-28.904
X92.882 Z-28.743
X92.969 Z-28.594
X94.576
X94.676 Z-28.694
Z-28.991
X94.775 Z-29.091
X94.95 Z-29.092
X95.04 Z-28.958
X95.063 Y129.888 Z-28.918
X95.082 Y129.895 Z-28.875
X95.096 Y129.908 Z-28.832
X95.103 Y129.925 Z-28.789
X95.105 Y129.946 Z-28.747
X95.1 Y129.971 Z-28.707
X95.09 Y129.999 Z-28.67
X95.074 Y130.029 Z-28.638
X95.052 Y130.06 Z-28.61
X95.026 Y130.093 Z-28.589
X94.993 Y130.131 Z-28.566
X94.963 Y130.164 Z-28.551
X94.929 Y130.195 Z-28.541
X94.893 Y130.226 Z-28.539
X94.855 Y130.253 Z-28.543
X94.817 Y130.278 Z-28.554
X94.778 Y130.299 Z-28.572
X94.741 Y130.316 Z-28.595
X94.706 Y130.329 Z-28.624
X94.674 Y130.336 Z-28.658
X94.646 Y130.339 Z-28.696
X94.474 Z-28.953
X94.393 Z-29.065
X93.984 Z-29.027
X93.915 Z-29.016
X93.745 Z-28.819
Z5.
X92.801 Y135.328
Z-24.93
Z-27.101 F200.
X92.703 Z-27.273 F280.
X92.573 Z-27.35
X92.418 Z-27.206
X92.386 Z-27.132
X92.22 Y135.555 Z-26.851
X92.054 Y135.782 Z-27.132
Z-27.536
X92.057 Z-27.559
X92.108 Z-27.774
X92.112 Z-28.723
X92.261 Z-28.721
X92.263 Z-28.449
X92.289 Z-28.254
X92.37 Z-27.978
X92.543 Z-27.666
X92.692 Z-27.46
X92.711 Z-27.401
X92.662 Y136.008 Z-27.169
X92.612 Y136.235 Z-27.401
Z-28.616
X92.531 Z-28.699
X92.381 Z-28.701
X92.367
X91.528 Z-28.714
X91.413 Z-28.716
Z5.
X90.851 Y136.689
Z-24.619
Z-28.51 F200.
X90.653 Z-28.71 F280.
X90.28 Z-28.714
Z-28.577
X90.253 Y136.785 Z-28.477
X89.044 Y141.128
X89.017 Y141.224 Z-28.577
X88.916 Z-28.677
X88.702 Z-28.676
Z5.
X92.64 Y144.853
Z-24.866
Z-27.034 F200.
X92.901 Z-27.224 F280.
X93.05 Z-27.177
X93.355 Z-27.09
X93.499 Z-26.898
Z5.
X82.419 Y137.596
Z-10.726
Z-14.288 F200.
X82.378 Z-14.408 F280.
X82.086 Z-14.796
X81.99 Z-14.881
X81.824 Z-14.806
Z-12.546
X81.761 Y137.518 Z-12.446
X81.159 Y136.767
X81.096 Y136.689 Z-12.546
X81.063 Z-12.62
X80.863 Z-12.803
X80.858 Z-12.613
Z-12.611
X80.817 Y136.78 Z-12.511
X80.49 Y137.505
X80.449 Y137.596 Z-12.611
Z-16.412
X80.641 Z-16.453
X80.725 Z-16.262
X80.786 Z-16.096
X80.939 Z-15.858
X81.134 Z-15.664
X81.164 Z-15.593
Z-15.055
X81.261 Y137.62 Z-14.955
X82.904 Y138.025
X83.001 Y138.049 Z-15.055
X83.166 Z-15.131
X83.323 Z-14.997
X83.393 Z-14.845
Z5.
X78.726 Y135.328
Z-8.305
Z-10.98 F200.
X78.66 Z-11.129 F280.
X78.425 Z-11.342
X78.324 Z-11.289
X78.21 Z-11.279
X78.027 Z-11.08
Z5.
X69.024 Y129.885
Z-8.819
Z-12.747 F200.
Z-12.755 F280.
X69.019 Z-12.876
X68.918 Z-13.082
X68.693 Z-13.189
X68.538 Z-12.994
Z5.
X65.349 Y130.339
Z-9.682
Z-16.729 F200.
X65.18 Z-16.927 F280.
X64.962 Z-16.961
X64.922 Z-16.883
X64.817 Z-16.811
X64.806 Z-16.808
Z-11.495
X64.313 Y129.528
X64.142 Y129.432
X64.081 Z-11.486
X63.993 Z-11.457
Z-11.386
Z5.
X62.973 Y129.885
Z-8.07
Z-11.56 F200.
X62.794 Z-11.759 F280.
X62.685 Z-11.77
Z5.
X61.693 Y130.339
Z-8.322
Z-12.885 F200.
X61.976 Z-13.067 F280.
X62.161 Z-12.982
X62.62 Z-12.855
X63.03 Z-12.812
X63.245 Z-12.806
X63.563 Z-12.854
X63.827 Z-12.92
X63.951 Z-12.823
X64.066 Y130.566 Z-12.569
X64.18 Y130.792 Z-12.823
Z-17.317
X64.1 Z-17.415
X63.792 Z-17.477
X63.589 Z-17.547
X63.581 Z-13.823
Z5.
X59.84 Y129.432
Z-7.299
Z-13.416 F200.
Z-13.434 F280.
X59.833 Z-13.512
X59.718 Z-13.634
X59.545 Z-13.566
Z-9.292
X59.54 Y129.332 Z-9.192
X59.476 Y128.171
X59.471 Y128.071 Z-9.292
X59.437 Z-9.367
X59.278 Z-9.507
X59.112 Z-9.432
X59.015 Y128.045 Z-9.332
X57.537 Y127.644
X57.441 Y127.618 Z-9.432
Z-11.282
X57.437 Z-11.31
X57.4 Z-11.435
X57.313 Z-11.539
X57.136 Z-11.475
Z-10.762
X57.229 Y127.654 Z-10.662
X58.189 Y128.034
X58.282 Y128.071 Z-10.762
X58.446 Z-10.839
X58.524 Z-10.774
X58.528 Z-10.664
Z-10.66
Z-10.106
X58.622 Y128.106 Z-10.006
X59.64 Y128.489
X59.733 Y128.525 Z-10.106
X59.889 Z-10.19
X60.012 Z-10.107
X60.102 Z-9.941
Z5.
X63.948 Y125.35
Z-6.133
Z-8.517 F200.
X64.049 Z-8.691 F280.
X64.265 Z-8.814
X64.563 Z-8.64
Z5.
X68.267 Y116.732
Z-4.575
Z-6.832 F200.
X68.449 Z-7.032 F280.
X68.515 Z-7.038
X68.562 Z-6.962
X68.582 Y116.736 Z-6.927
X68.601 Y116.746 Z-6.894
X68.618 Y116.763 Z-6.863
X68.634 Y116.785 Z-6.834
X68.647 Y116.813 Z-6.81
X68.658 Y116.846 Z-6.79
X68.666 Y116.881 Z-6.775
X68.671 Y116.92 Z-6.766
X68.672 Y116.959 Z-6.763
X68.67 Y116.998 Z-6.766
X68.664 Y117.037 Z-6.774
X68.655 Y117.072 Z-6.789
X68.644 Y117.105 Z-6.808
X68.63 Y117.133 Z-6.832
X68.613 Y117.155 Z-6.86
X68.596 Y117.172 Z-6.891
X68.577 Y117.182 Z-6.924
X68.557 Y117.186 Z-6.959
X68.475 Z-7.104
X68.412 Z-7.213
X68.305 Z-7.203
X68.179 Z-7.189
X68.137 Y117.189 Z-7.186
X68.095 Y117.199
X68.056 Y117.216 Z-7.189
X68.02 Y117.239 Z-7.194
X67.989 Y117.267 Z-7.202
X67.963 Y117.299 Z-7.213
X67.943 Y117.335 Z-7.226
X67.931 Y117.373 Z-7.24
X67.925 Y117.412 Z-7.256
X67.927 Y117.452 Z-7.273
X67.936 Y117.49 Z-7.29
X67.953 Y117.526 Z-7.306
X67.976 Y117.558 Z-7.322
X68.005 Y117.586 Z-7.337
X68.038 Y117.609 Z-7.35
X68.076 Y117.626 Z-7.361
X68.117 Y117.636 Z-7.37
X68.159 Y117.639 Z-7.376
X68.27 Z-7.387
X68.334 Z-7.265
X68.352 Y117.643 Z-7.23
X68.369 Y117.653 Z-7.196
X68.384 Y117.67 Z-7.163
X68.397 Y117.692 Z-7.133
X68.408 Y117.72 Z-7.107
X68.415 Y117.753 Z-7.085
X68.42 Y117.788 Z-7.068
X68.421 Y117.827 Z-7.057
X68.419 Y117.866 Z-7.052
X68.414 Y117.905 Z-7.053
X68.405 Y117.944 Z-7.06
X68.394 Y117.979 Z-7.074
X68.38 Y118.012 Z-7.092
X68.365 Y118.04 Z-7.116
X68.347 Y118.062 Z-7.143
X68.329 Y118.079 Z-7.174
X68.31 Y118.089 Z-7.208
X68.291 Y118.093 Z-7.243
X68.198 Z-7.421
X68.125 Z-7.56
X68.004 Z-7.547
X67.877 Z-7.533
X67.835 Y118.096 Z-7.53
X67.793 Y118.107
X67.753 Y118.123 Z-7.532
X67.717 Y118.146 Z-7.538
X67.686 Y118.174 Z-7.547
X67.66 Y118.206 Z-7.558
X67.64 Y118.242 Z-7.571
X67.627 Y118.28 Z-7.586
X67.622 Y118.32 Z-7.602
X67.624 Y118.359 Z-7.619
X67.633 Y118.397 Z-7.636
X67.65 Y118.433 Z-7.653
X67.673 Y118.465 Z-7.669
X67.701 Y118.493 Z-7.684
X67.735 Y118.516 Z-7.698
X67.773 Y118.533 Z-7.709
X67.814 Y118.543 Z-7.718
X67.856 Y118.546 Z-7.724
X68.003 Z-7.737
X68.072 Z-7.574
X68.084 Y118.55 Z-7.536
X68.095 Y118.56 Z-7.499
X68.105 Y118.577 Z-7.464
X68.112 Y118.599 Z-7.432
X68.118 Y118.627 Z-7.405
X68.122 Y118.66 Z-7.382
X68.123 Y118.696 Z-7.365
X68.122 Y118.734 Z-7.353
X68.119 Y118.773 Z-7.349
X68.114 Y118.813 Z-7.351
X68.107 Y118.851 Z-7.359
X68.098 Y118.887 Z-7.374
X68.087 Y118.919 Z-7.395
X68.075 Y118.947 Z-7.42
X68.063 Y118.97 Z-7.451
X68.05 Y118.986 Z-7.484
X68.037 Y118.997 Z-7.52
X68.024 Y119. Z-7.558
X67.958 Z-7.761
X67.904 Z-7.925
X67.743 Z-7.911
X67.708 Z-7.901
X67.664 Z-7.891
X67.56
X67.517 Y119.003 Z-7.892
X67.475 Y119.014 Z-7.897
X67.436 Y119.03 Z-7.904
X67.401 Y119.053 Z-7.914
X67.37 Y119.081 Z-7.926
X67.346 Y119.113 Z-7.94
X67.327 Y119.149 Z-7.956
X67.316 Y119.187 Z-7.973
X67.312 Y119.227 Z-7.99
X67.316 Y119.266 Z-8.008
X67.327 Y119.304 Z-8.024
X67.346 Y119.34 Z-8.04
X67.37 Y119.372 Z-8.054
X67.401 Y119.4 Z-8.067
X67.436 Y119.423 Z-8.077
X67.475 Y119.44 Z-8.084
X67.517 Y119.45 Z-8.088
X67.56 Y119.454 Z-8.09
X67.604 Z-8.1
X67.642 Z-8.11
X67.821 Z-8.121
X67.859 Z-7.99
X67.87 Y119.457 Z-7.952
X67.88 Y119.467 Z-7.915
X67.891 Y119.484 Z-7.881
X67.9 Y119.507 Z-7.85
X67.909 Y119.535 Z-7.823
X67.916 Y119.567 Z-7.801
X67.922 Y119.603 Z-7.786
X67.926 Y119.641 Z-7.776
X67.928 Y119.68 Z-7.773
Y119.72 Z-7.777
X67.927 Y119.758 Z-7.787
X67.923 Y119.794 Z-7.804
X67.918 Y119.826 Z-7.826
X67.912 Y119.854 Z-7.853
X67.904 Y119.877 Z-7.884
X67.894 Y119.893 Z-7.919
X67.884 Y119.904 Z-7.956
X67.874 Y119.907 Z-7.994
X67.823 Z-8.176
X67.78 Z-8.327
X67.623 Z-8.32
X67.584 Z-8.31
X67.54 Z-8.299
X67.473
X67.429 Y119.911 Z-8.301
X67.387 Y119.921 Z-8.306
X67.348 Y119.937 Z-8.313
X67.312 Y119.96 Z-8.324
X67.281 Y119.988 Z-8.337
X67.256 Y120.02 Z-8.352
X67.238 Y120.056 Z-8.369
X67.226 Y120.094 Z-8.386
X67.223 Y120.134 Z-8.405
X67.226 Y120.173 Z-8.423
X67.238 Y120.211 Z-8.44
X67.256 Y120.247 Z-8.457
X67.281 Y120.28 Z-8.472
X67.312 Y120.308 Z-8.485
X67.348 Y120.33 Z-8.496
X67.387 Y120.347 Z-8.503
X67.429 Y120.357 Z-8.508
X67.473 Y120.361 Z-8.51
X67.517 Z-8.52
X67.553 Z-8.53
X67.691 Z-8.54
X67.747 Z-8.381
X67.759 Y120.364 Z-8.343
X67.769 Y120.374 Z-8.306
X67.779 Y120.391 Z-8.272
X67.788 Y120.414 Z-8.241
X67.794 Y120.442 Z-8.213
X67.799 Y120.474 Z-8.191
X67.802 Y120.51 Z-8.174
X67.803 Y120.548 Z-8.164
X67.802 Y120.587 Z-8.16
X67.799 Y120.627 Z-8.163
X67.793 Y120.665 Z-8.172
X67.786 Y120.701 Z-8.187
X67.778 Y120.733 Z-8.208
X67.768 Y120.761 Z-8.234
X67.757 Y120.784 Z-8.265
X67.745 Y120.8 Z-8.299
X67.733 Y120.811 Z-8.335
X67.721 Y120.814 Z-8.373
X67.651 Z-8.598
X67.598 Z-8.766
X67.445 Z-8.765
X67.402 Z-8.755
X67.358 Z-8.745
X67.25
X67.206 Y120.818 Z-8.747
X67.162 Y120.828 Z-8.752
X67.122 Y120.845 Z-8.761
X67.085 Y120.867 Z-8.773
X67.053 Y120.895 Z-8.788
X67.027 Y120.928 Z-8.806
X67.008 Y120.963 Z-8.825
X66.997 Y121.002 Z-8.846
X66.993 Y121.041 Z-8.867
X66.997 Y121.08 Z-8.888
X67.008 Y121.119 Z-8.909
X67.027 Y121.154 Z-8.928
X67.053 Y121.187 Z-8.946
X67.085 Y121.215 Z-8.961
X67.122 Y121.237 Z-8.973
X67.162 Y121.254 Z-8.982
X67.206 Y121.264 Z-8.988
X67.25 Y121.268 Z-8.989
X67.295 Z-9.
X67.338 Z-9.01
X67.489
X67.546 Z-8.844
X67.559 Y121.271 Z-8.807
X67.57 Y121.281 Z-8.77
X67.581 Y121.298 Z-8.736
X67.591 Y121.321 Z-8.705
X67.599 Y121.349 Z-8.678
X67.605 Y121.381 Z-8.656
X67.609 Y121.417 Z-8.64
X67.61 Y121.455 Z-8.63
Y121.495 Z-8.626
X67.607 Y121.534 Z-8.629
X67.602 Y121.572 Z-8.638
X67.595 Y121.608 Z-8.653
X67.586 Y121.64 Z-8.674
X67.576 Y121.668 Z-8.7
X67.564 Y121.691 Z-8.73
X67.552 Y121.708 Z-8.764
X67.539 Y121.718 Z-8.8
X67.526 Y121.721 Z-8.837
X67.439 Z-9.095
X67.382 Z-9.242
X67.246 Z-9.251
X67.14 Z-9.152
X67.137 Y121.948 Z-8.925
X67.135 Y122.175 Z-9.152
Z-9.34
X67.259 Z-9.437
X67.374 Z-9.408
X67.397 Z-9.331
X67.301 Z-9.203
X66.099
X65.999 Z-9.303
Z-9.547
X65.908 Z-9.647
X65.681 Z-9.666
X65.55 Z-9.622
X65.481 Z-9.528
Z-9.273
X65.579 Y122.199 Z-9.173
X67.235 Y122.605
X67.332 Y122.628 Z-9.273
X67.438 Z-9.373
X67.521 Z-9.368
X67.573 Z-9.273
X67.598 Z-9.176
Z5.
X74.101 Y120.814
Z-5.495
Z-7.576 F200.
X74.201 Z-7.749 F280.
X74.264 Z-7.786
X74.431 Z-7.772
X74.523 Z-7.673
X74.587 Y121.041 Z-7.437
X74.652 Y121.268 Z-7.673
Z-7.774
X74.698 Z-7.858
X74.876 Z-7.972
X75.169 Z-7.913
X75.249 Z-7.815
X75.243 Y121.495 Z-7.588
X75.237 Y121.721 Z-7.815
Z-7.997
X75.278 Z-8.077
X75.451 Z-8.205
X75.686 Z-8.165
X75.769 Z-8.066
X75.822 Y121.948 Z-7.833
X75.875 Y122.175 Z-8.066
Z-8.316
X75.92 Z-8.4
X76.158 Z-8.556
X76.374 Z-8.58
X76.534 Z-8.481
X76.582 Z-8.395
X76.517 Y122.402 Z-8.16
X76.452 Y122.628 Z-8.395
Z-8.473
X76.492 Z-8.553
X76.711 Z-8.716
X76.96 Z-8.546
X77.004 Z-8.464
X76.916 Y122.855 Z-8.221
X76.828 Y123.082 Z-8.464
Z-8.555
X76.866 Z-8.633
X77.298 Z-8.976
X77.414 Z-8.945
X77.746 Z-8.869
X77.823 Z-8.771
X77.689 Y123.309 Z-8.508
X77.554 Y123.536 Z-8.771
Z-8.907
X77.597 Z-8.989
X77.845 Z-9.161
X78.093 Z-9.356
X78.25 Z-9.292
X78.313 Z-9.199
X78.351 Y123.762 Z-8.969
X78.39 Y123.989 Z-9.199
Z-9.339
X78.42 Z-9.41
X78.589 Z-9.575
X78.864 Z-9.494
X78.936 Z-9.398
X78.855 Y124.216 Z-9.158
X78.775 Y124.443 Z-9.398
Z-9.555
X78.807 Z-9.629
X79.013 Z-9.818
X79.232 Z-9.737
X79.298 Z-9.644
X79.254 Y124.669 Z-9.413
X79.211 Y124.896 Z-9.644
Z-9.87
X79.247 Z-9.947
X79.379 Z-10.057
X79.467 Z-10.019
X79.527 Z-9.927
X79.536 Y125.123 Z-9.7
X79.545 Y125.35 Z-9.927
Z-10.133
X79.587 Z-10.215
X79.767 Z-10.344
X79.901 Z-10.298
X79.969 Z-10.203
X79.976 Y125.577 Z-9.976
X79.984 Y125.803 Z-10.203
Z-10.445
X80.015 Z-10.518
X80.136 Z-10.63
X80.29 Z-10.588
X80.364 Z-10.491
X80.443 Y126.03 Z-10.251
X80.522 Y126.257 Z-10.491
Z-10.648
X80.46 Z-10.74
X80.334 Z-10.792
X80.225 Z-10.661
X80.202 Y126.26 Z-10.628
X80.181 Y126.271 Z-10.596
X80.161 Y126.287 Z-10.565
X80.145 Y126.31 Z-10.537
X80.132 Y126.338 Z-10.512
X80.122 Y126.37 Z-10.49
X80.116 Y126.406 Z-10.474
X80.114 Y126.444 Z-10.462
X80.117 Y126.484 Z-10.456
X80.123 Y126.523
X80.133 Y126.561 Z-10.462
X80.147 Y126.597 Z-10.472
X80.164 Y126.629 Z-10.488
X80.183 Y126.657 Z-10.509
X80.205 Y126.68 Z-10.534
X80.228 Y126.697 Z-10.562
X80.252 Y126.707 Z-10.592
X80.275 Y126.71 Z-10.624
X80.398 Z-10.796
X80.598 Z-11.076
X80.804 Z-10.995
X80.868 Z-10.902
X80.967 Y126.937 Z-10.654
X81.067 Y127.164 Z-10.902
Z-11.28
X80.991 Z-11.377
X80.824 Z-11.42
X80.712 Z-11.239
X80.693 Y127.167 Z-11.204
X80.674 Y127.178 Z-11.17
X80.654 Y127.194 Z-11.14
X80.636 Y127.217 Z-11.112
X80.619 Y127.245 Z-11.089
X80.604 Y127.277 Z-11.071
X80.591 Y127.313 Z-11.059
X80.58 Y127.351 Z-11.053
X80.573 Y127.391 Z-11.052
X80.569 Y127.43 Z-11.059
X80.568 Y127.468 Z-11.071
X80.571 Y127.504 Z-11.088
X80.577 Y127.537 Z-11.111
X80.586 Y127.564 Z-11.138
X80.598 Y127.587 Z-11.169
X80.612 Y127.604 Z-11.203
X80.628 Y127.614 Z-11.238
X80.646 Y127.618 Z-11.273
X80.745 Z-11.462
X80.908 Z-11.775
X81.199 Z-11.684
X81.27 Z-11.589
X81.402 Y127.844 Z-11.326
X81.534 Y128.071 Z-11.589
Z-11.96
X81.443 Z-12.059
X81.225 Z-12.08
X81.205 Z-12.079
X81.056 Z-11.755
X81.032 Z-11.717
X81.017 Z-11.665
X81.14 Y128.298 Z-11.407
X81.262 Y128.525 Z-11.665
Z-12.091
X81.264 Z-12.108
X81.306 Z-12.355
X81.354 Z-12.506
X81.379 Z-12.509
X81.612 Z-12.518
X81.82 Z-12.318
Z5.
X78.458 Y125.35
Z-6.979
Z-9.302 F200.
X78.222 Z-9.422 F280.
X78.004 Z-9.264
X77.927 Z-9.159
X77.889 Z-9.041
Z5.
X72.518 Y121.721
Z-5.501
Z-7.657 F200.
X72.41 Z-7.835 F280.
X72.286 Z-7.899
X72.124 Z-7.836
X72.061 Z-7.742
X71.995 Y121.948 Z-7.506
X71.93 Y122.175 Z-7.742
Z-7.788
X71.955 Z-7.855
X72.053 Z-7.963
X72.135 Z-8.025
X72.28 Z-7.95
X72.315 Y122.178 Z-7.93
X72.348 Y122.189 Z-7.911
X72.379 Y122.205 Z-7.894
X72.407 Y122.228 Z-7.878
X72.432 Y122.256 Z-7.865
X72.452 Y122.288 Z-7.854
X72.467 Y122.324 Z-7.846
X72.476 Y122.362 Z-7.842
X72.479 Y122.402 Z-7.841
X72.477 Y122.441 Z-7.844
X72.469 Y122.479 Z-7.85
X72.455 Y122.515 Z-7.859
X72.435 Y122.547 Z-7.871
X72.412 Y122.575 Z-7.885
X72.384 Y122.598 Z-7.902
X72.353 Y122.615 Z-7.921
X72.32 Y122.625 Z-7.94
X72.286 Y122.628 Z-7.96
X72.155 Z-8.036
X72.021 Z-8.114
X71.914 Z-8.022
X71.88 Z-7.946
X71.796 Y122.855 Z-7.704
X71.711 Y123.082 Z-7.946
Z-8.09
X71.76 Z-8.176
X71.871 Z-8.241
X71.97 Z-8.174
X72.001 Y123.085 Z-8.149
X72.031 Y123.096 Z-8.126
X72.059 Y123.112 Z-8.103
X72.084 Y123.135 Z-8.084
X72.107 Y123.163 Z-8.067
X72.125 Y123.195 Z-8.053
X72.139 Y123.231 Z-8.044
X72.147 Y123.269 Z-8.038
X72.151 Y123.309 Z-8.037
X72.149 Y123.348 Z-8.04
X72.142 Y123.386 Z-8.047
X72.129 Y123.422 Z-8.059
X72.112 Y123.455 Z-8.074
X72.091 Y123.482 Z-8.092
X72.067 Y123.505 Z-8.113
X72.039 Y123.522 Z-8.136
X72.01 Y123.532 Z-8.16
X71.979 Y123.536 Z-8.185
X71.882 Z-8.264
X71.759 Z-8.363
X71.619 Z-8.275
X71.566 Z-8.238
X71.532 Y123.539 Z-8.215
X71.499 Y123.549 Z-8.195
X71.466 Y123.566 Z-8.177
X71.435 Y123.589 Z-8.163
X71.407 Y123.617 Z-8.152
X71.383 Y123.649 Z-8.146
X71.363 Y123.685 Z-8.143
X71.348 Y123.723 Z-8.146
X71.339 Y123.762 Z-8.152
X71.336 Y123.802 Z-8.163
X71.339 Y123.84 Z-8.178
X71.347 Y123.876 Z-8.195
X71.362 Y123.908 Z-8.216
X71.381 Y123.936 Z-8.239
X71.405 Y123.959 Z-8.263
X71.432 Y123.975 Z-8.288
X71.463 Y123.986 Z-8.313
X71.496 Y123.989 Z-8.338
X71.657 Z-8.452
X71.778 Z-8.336
X71.785 Z-8.328
X71.791 Z-8.321
X71.817 Y123.993 Z-8.292
X71.843 Y124.003 Z-8.263
X71.868 Y124.019 Z-8.237
X71.891 Y124.042 Z-8.214
X71.912 Y124.07 Z-8.194
X71.929 Y124.102 Z-8.18
X71.943 Y124.138 Z-8.169
X71.953 Y124.176 Z-8.164
X71.959 Y124.216 Z-8.165
X71.96 Y124.255 Z-8.17
X71.957 Y124.293 Z-8.181
X71.949 Y124.329 Z-8.196
X71.937 Y124.362 Z-8.216
X71.921 Y124.39 Z-8.239
X71.902 Y124.412 Z-8.266
X71.88 Y124.429 Z-8.295
X71.856 Y124.439 Z-8.324
X71.83 Y124.443 Z-8.355
X71.823 Z-8.362
X71.632 Z-8.545
X71.434 Z-8.401
X71.393 Z-8.32
X71.451 Y124.669 Z-8.086
X71.509 Y124.896 Z-8.32
Z-8.531
X71.542 Z-8.606
X71.715 Z-8.762
X71.862 Z-8.603
X71.889 Z-8.535
X71.949 Y125.123 Z-8.301
X72.009 Y125.35 Z-8.535
Z-8.831
X71.963 Z-8.915
X71.779 Z-9.035
X71.638 Z-8.898
X71.608 Z-8.826
Z-8.503
X71.908 Z-8.203
X71.952
X72.252 Z-8.503
X72.422 Z-8.575
X72.631 Z-8.372
X72.661 Z-8.3
X72.405 Y125.505 Z-8.
X72.168 Y125.648
X71.911 Y125.803 Z-8.3
Z-9.046
X71.868 Z-9.129
X71.72 Z-9.231
X71.515 Z-9.102
X71.468 Z-9.017
X71.343 Y126.03 Z-8.758
X71.217 Y126.257 Z-9.017
Z-9.196
X71.222 Z-9.226
X71.252 Z-9.323
X71.325 Z-9.345
X71.651 Z-9.45
X71.775 Z-9.343
X71.809 Z-9.268
X71.758 Y126.484 Z-9.035
X71.706 Y126.71 Z-9.268
Z-9.543
X71.683 Z-9.607
X71.563 Z-9.752
X71.393 Z-9.628
X71.352 Z-9.547
X71.424 Y126.937 Z-9.309
X71.497 Y127.164 Z-9.547
Z-9.79
X71.546 Z-9.876
X71.735 Z-9.986
X71.879 Z-9.876
X71.926 Z-9.775
X71.935 Z-9.733
X71.916 Y127.391 Z-9.505
X71.897 Y127.618 Z-9.733
Z-10.037
X71.863 Z-10.112
X71.778 Z-10.187
X71.702 Z-10.148
X71.663 Y127.621 Z-10.13
X71.624 Y127.631 Z-10.115
X71.586 Y127.648 Z-10.104
X71.551 Y127.671 Z-10.096
X71.518 Y127.699 Z-10.093
X71.49 Y127.731 Z-10.094
X71.467 Y127.767 Z-10.099
X71.45 Y127.805 Z-10.108
X71.439 Y127.844 Z-10.122
X71.435 Y127.884 Z-10.138
X71.438 Y127.922 Z-10.157
X71.447 Y127.958 Z-10.179
X71.463 Y127.99 Z-10.202
X71.485 Y128.018 Z-10.226
X71.512 Y128.041 Z-10.251
X71.543 Y128.057 Z-10.274
X71.578 Y128.068 Z-10.297
X71.616 Y128.071 Z-10.318
X71.722 Z-10.372
X71.812 Z-10.417
X71.907 Z-10.321
X71.936 Y128.075 Z-10.291
X71.967 Y128.085 Z-10.263
X71.998 Y128.101 Z-10.239
X72.029 Y128.124 Z-10.22
X72.058 Y128.152 Z-10.205
X72.084 Y128.184 Z-10.196
X72.107 Y128.22 Z-10.192
X72.126 Y128.258 Z-10.195
X72.141 Y128.298 Z-10.203
X72.15 Y128.337 Z-10.217
X72.154 Y128.375 Z-10.235
X72.153 Y128.411 Z-10.259
X72.147 Y128.444 Z-10.286
X72.135 Y128.472 Z-10.316
X72.118 Y128.494 Z-10.348
X72.097 Y128.511 Z-10.381
X72.072 Y128.521 Z-10.415
X72.045 Y128.525 Z-10.447
X71.948 Z-10.554
X71.83 Z-10.683
X71.707 Z-10.613
X71.656 Z-10.526
X71.648 Y128.751 Z-10.299
X71.641 Y128.978 Z-10.526
Z-10.784
X71.682 Z-10.865
X71.883 Z-11.01
X72.014 Z-10.797
X72.039 Y128.982 Z-10.759
X72.067 Y128.992 Z-10.725
X72.096 Y129.009 Z-10.695
X72.127 Y129.031 Z-10.67
X72.157 Y129.059 Z-10.651
X72.186 Y129.092 Z-10.638
X72.213 Y129.127 Z-10.632
X72.237 Y129.166 Z-10.634
X72.258 Y129.205 Z-10.642
X72.275 Y129.244 Z-10.657
X72.287 Y129.283 Z-10.678
X72.294 Y129.318 Z-10.705
X72.296 Y129.351 Z-10.736
X72.292 Y129.379 Z-10.772
X72.284 Y129.401 Z-10.81
X72.27 Y129.418 Z-10.85
X72.252 Y129.428 Z-10.89
X72.23 Y129.432 Z-10.93
X72.107 Z-11.13
X71.93 Z-11.369
X71.696 Z-11.184
X71.658 Z-11.105
X71.696 Y129.659 Z-10.875
X71.735 Y129.885 Z-11.105
Z-11.433
X71.782 Z-11.518
X71.997 Z-11.651
X72.122 Z-11.496
X72.144 Z-11.433
X72.154 Y130.112 Z-11.206
X72.164 Y130.339 Z-11.433
Z-11.793
X72.152 Z-11.841
X72.027 Z-12.072
X71.869 Z-11.948
X71.793 Z-11.791
Z5.
X69.944
Z-8.747
Z-11.646 F200.
X69.921 Z-11.738 F280.
X69.893 Z-11.792
X69.783 Z-11.894
X69.567 Z-11.93
X69.447 Z-11.747
Z5.
X71.671 Y130.792
Z-9.23
Z-12.122 F200.
X71.775 Z-12.298 F280.
X72.115 Z-12.484
X72.25 Z-12.144
X72.266 Y130.796 Z-12.104
X72.285 Y130.806 Z-12.065
X72.305 Y130.823 Z-12.031
X72.328 Y130.845 Z-12.
X72.351 Y130.873 Z-11.975
X72.374 Y130.906 Z-11.957
X72.396 Y130.942 Z-11.945
X72.417 Y130.98 Z-11.941
X72.437 Y131.019 Z-11.943
X72.453 Y131.059 Z-11.953
X72.467 Y131.097 Z-11.97
X72.477 Y131.133 Z-11.993
X72.483 Y131.165 Z-12.022
X72.486 Y131.193 Z-12.056
X72.484 Y131.216 Z-12.094
X72.478 Y131.232 Z-12.134
X72.469 Y131.243 Z-12.175
X72.456 Y131.246 Z-12.217
X72.4 Z-12.374
X72.328 Z-12.58
X72.286 Z-12.829
X71.902 Z-12.535
X71.87 Y131.249 Z-12.511
X71.837 Y131.26 Z-12.489
X71.806 Y131.276 Z-12.469
X71.776 Y131.299 Z-12.453
X71.75 Y131.327 Z-12.44
X71.727 Y131.359 Z-12.432
X71.708 Y131.395 Z-12.428
X71.694 Y131.433 Z-12.429
X71.685 Y131.473 Z-12.434
X71.682 Y131.512 Z-12.444
X71.685 Y131.55 Z-12.457
X71.693 Y131.586 Z-12.475
X71.707 Y131.619 Z-12.495
X71.725 Y131.646 Z-12.518
X71.748 Y131.669 Z-12.543
X71.775 Y131.686 Z-12.569
X71.804 Y131.696 Z-12.595
X71.836 Y131.7 Z-12.62
X71.999 Z-12.748
X72.18 Z-12.89
X72.341 Z-13.03
X72.494 Z-13.177
X72.499 Z-12.867
X72.572 Z-12.556
X72.574 Z-12.533
X72.751 Y131.926 Z-12.246
X72.928 Y132.153 Z-12.533
Z-12.891
Z-12.892
X72.92 Z-13.72
X72.69 Z-13.453
X72.42 Z-13.191
X72.197 Z-13.007
X72.167 Y132.157 Z-12.981
X72.138 Y132.167 Z-12.956
X72.111 Y132.183 Z-12.933
X72.085 Y132.206 Z-12.913
X72.063 Y132.234 Z-12.896
X72.044 Y132.266 Z-12.882
X72.03 Y132.302 Z-12.873
X72.02 Y132.34 Z-12.869
X72.015 Y132.38
X72.016 Y132.419 Z-12.874
X72.021 Y132.457 Z-12.883
X72.032 Y132.493 Z-12.896
X72.047 Y132.526 Z-12.913
X72.067 Y132.554 Z-12.933
X72.09 Y132.576 Z-12.956
X72.116 Y132.593 Z-12.981
X72.144 Y132.603 Z-13.007
X72.173 Y132.607 Z-13.034
X72.552 Z-13.371
X73.012 Z-13.78
X73.233 Z-14.084
X73.238 Z-13.502
X73.276 Z-13.131
X73.281 Y132.609 Z-13.089
X73.289 Y132.618 Z-13.048
X73.301 Y132.631 Z-13.009
X73.316 Y132.65 Z-12.974
X73.333 Y132.673 Z-12.943
X73.353 Y132.7 Z-12.916
X73.374 Y132.73 Z-12.895
X73.397 Y132.763 Z-12.88
X73.42 Y132.798 Z-12.872
X73.444 Y132.833 Z-12.87
X73.467 Y132.869 Z-12.875
X73.489 Y132.904 Z-12.887
X73.51 Y132.936 Z-12.904
X73.529 Y132.967 Z-12.928
X73.545 Y132.994 Z-12.957
X73.558 Y133.017 Z-12.99
X73.568 Y133.035 Z-13.027
X73.574 Y133.049 Z-13.067
X73.577 Y133.057 Z-13.109
X73.576 Y133.06 Z-13.151
X73.555 Z-13.466
X73.537 Z-13.734
X73.536 Z-14.349
X73.268 Z-14.03
X72.858 Z-13.69
X72.827 Y133.064 Z-13.665
X72.797 Y133.074 Z-13.641
X72.768 Y133.091 Z-13.62
X72.742 Y133.113 Z-13.6
X72.718 Y133.141 Z-13.585
X72.699 Y133.174 Z-13.572
X72.684 Y133.209 Z-13.564
X72.674 Y133.248 Z-13.56
X72.669 Y133.287 Z-13.561
Y133.326 Z-13.566
X72.675 Y133.365 Z-13.575
X72.685 Y133.4 Z-13.589
X72.701 Y133.433 Z-13.606
X72.721 Y133.461 Z-13.625
X72.745 Y133.483 Z-13.648
X72.771 Y133.5 Z-13.672
X72.8 Y133.51 Z-13.697
X72.83 Y133.514 Z-13.723
X73.21 Z-14.037
X73.42 Z-14.197
X73.856 Z-14.619
X73.869 Z-13.766
X73.912 Y133.573 Z-13.922
X73.956 Y133.631 Z-14.077
X74.047 Y133.745 Z-14.389
X74.093 Y133.802 Z-14.544
X74.141 Y133.858 Z-14.7
X74.238 Y133.967 Z-15.011
X74.116 Z-14.866
X73.964 Z-14.73
X73.657 Z-14.431
X73.649 Z-14.425
X73.619 Y133.971 Z-14.399
X73.589 Y133.981 Z-14.375
X73.56 Y133.998 Z-14.353
X73.533 Y134.02 Z-14.334
X73.509 Y134.048 Z-14.318
X73.489 Y134.081 Z-14.307
X73.472 Y134.117 Z-14.3
X73.461 Y134.155 Z-14.297
X73.454 Y134.194 Z-14.299
X73.453 Y134.233 Z-14.306
X73.457 Y134.272 Z-14.317
X73.466 Y134.307 Z-14.333
X73.48 Y134.34 Z-14.352
X73.498 Y134.368 Z-14.373
X73.52 Y134.391 Z-14.398
X73.546 Y134.407 Z-14.424
X73.574 Y134.417 Z-14.45
X73.603 Y134.421 Z-14.477
X74.031 Z-14.853
X74.196 Z-14.998
X74.637 Z-15.476
X74.735 Y134.532
X74.83 Y134.646
X75.019 Y134.874 Z-16.13
X74.831 Z-15.785
X74.663 Z-15.587
X74.407 Z-15.368
X74.372 Z-15.292
X74.566 Y135.101 Z-14.994
X74.76 Y135.328 Z-15.292
Z-15.973
X74.769 Z-16.014
X74.906 Z-16.314
X74.976 Z-16.677
X74.985 Z-27.595
X75.213 Z-27.705
X75.44 Z-27.75
Z-27.65
X75.45 Y135.427 Z-27.55
X75.479 Y135.682
X75.489 Y135.782 Z-27.65
X75.586 Z-27.75
X76.599 Z-27.789
X76.64 Y135.873 Z-27.689
X76.76 Y136.144
X76.8 Y136.235 Z-27.789
Z-27.792
X76.896 Z-27.892
X77.319 Z-27.912
X77.344 Y136.332 Z-27.812
X77.411 Y136.592
X77.436 Y136.689 Z-27.912
Z-28.074
X77.524 Z-28.174
X77.909 Z-28.218
X77.821 Y136.736 Z-28.118
X77.162 Y137.095
X77.074 Y137.142 Z-28.218
Z-28.265
X77.149 Z-28.362
X77.804 Z-28.529
X78.057 Z-28.645
X79.614 Z-28.654
X79.744 Y137.229 Z-28.504
X79.832 Y137.355 Z-28.354
X79.919 Y137.48 Z-28.204
X80.017 Y137.596 Z-28.055
X80.014 Z-28.653
X78.894
X78.629 Z-28.513
X78.267 Z-28.388
X78.2 Z-28.294
X78.293 Y137.631 Z-28.194
X79.3 Y138.014
X79.393 Y138.049 Z-28.294
Z-28.449
X79.447 Z-28.538
X79.662 Z-28.65
X79.929 Z-28.648
X80.828 Z-28.549
X80.837 Z-27.849
Z-27.847
Z-27.453
X80.973 Z-27.318
X81.109 Z-27.453
X81.201 Z-27.553
X81.458 Z-27.574
X81.568 Z-27.652
X81.602 Z-27.72
X81.608 Z-28.491
X82.053 Z-28.517
X82.054 Z-17.603
X82.067 Z-17.35
X82.142 Z-16.951
X82.25 Z-16.656
X82.306 Z-16.54
X82.515 Z-16.191
X82.627 Z-16.03
X82.72 Z-15.887
X82.746 Z-15.729
X82.851 Z-15.51
X83.074 Z-15.23
X83.096 Z-15.168
X83.046 Y138.136 Z-15.068
X82.887 Y138.416
X82.838 Y138.503 Z-15.168
Z-28.664
X82.362 Z-28.655
X82.224 Z-28.63
X82.169 Z-28.601
X82.142 Z-28.546
X82.107 Z-28.483
X82.038 Z-28.46
X80.994 Z-28.516
X80.977 Z-28.517
X80.936 Z-28.52
X80.927
X80.312 Z-28.553
X80.054 Z-28.462
X79.987 Z-28.368
X80.086 Y138.519 Z-28.268
X82.7 Y138.941
X82.799 Y138.956 Z-28.368
Z-28.578
X82.9 Z-28.678
X83.431 Z-28.672
Z-28.57
X83.406 Y139.053 Z-28.47
X83.341 Y139.313
X83.317 Y139.41 Z-28.57
X83.418 Z-28.67
X83.865 Z-28.663
Z-28.564
X83.827 Y139.503 Z-28.464
X83.717 Y139.771
X83.679 Y139.864 Z-28.564
X83.779 Z-28.664
X84.178 Z-28.661
X84.318 Y140.09
X84.457 Y140.317 Z-28.66
X84.069 Z-28.659
X84.025 Z-28.649
X84.012 Z-28.643
X83.968 Z-28.633
X83.742 Y140.544
X83.968 Y140.771
X84.235
X84.279 Z-28.643
X84.322 Z-28.653
X84.69 Z-28.654
Z-28.652
X84.729 Y140.863 Z-28.552
X84.845 Y141.132
X84.884 Y141.224 Z-28.652
X84.534 Z-28.65
X84.49 Z-28.639
X84.479 Z-28.634
X84.435 Z-28.624
X84.208 Y141.451
X84.435 Y141.678
X84.622
X84.666 Z-28.634
X84.707 Z-28.644
X85.063 Z-28.653
X85.095 Y141.773 Z-28.553
X85.184 Y142.037
X85.216 Y142.131 Z-28.653
Z-28.661
X84.852 Z-28.652
X84.842
X84.803 Y142.135 Z-28.647
X84.765 Y142.145 Z-28.642
X84.729 Y142.162 Z-28.637
X84.697 Y142.184 Z-28.633
X84.669 Y142.212 Z-28.63
X84.647 Y142.245 Z-28.627
X84.63 Y142.281 Z-28.625
X84.62 Y142.319 Z-28.624
X84.617 Y142.358
X84.62 Y142.398
X84.63 Y142.436 Z-28.626
X84.647 Y142.472 Z-28.628
X84.669 Y142.504 Z-28.631
X84.697 Y142.532 Z-28.634
X84.729 Y142.555 Z-28.639
X84.764 Y142.571 Z-28.643
X84.802 Y142.581 Z-28.648
X84.841 Y142.585 Z-28.653
X84.963 Z-28.669
X84.973
X85.351 Z-28.68
X85.413 Y142.812 Z-28.689
X85.476 Y143.038 Z-28.698
X85.011 Z-28.691
X84.912 Z-28.591
X84.886 Y143.265 Z-28.363
X84.861 Y143.492 Z-28.591
Z-28.598
X84.905 Z-28.681
X84.939 Z-28.704
X85.59 Z-28.71
X85.65 Y143.724 Z-28.683
X85.743 Y143.946 Z-28.656
X85.092 Z-28.652
X85.074 Z-28.648
X84.995 Z-28.55
Z-28.373
X85.188 Y144.172 Z-28.076
X85.381 Y144.399 Z-28.373
X85.48 Z-28.473
X85.991 Z-28.479
Z5.
X76.918 Y138.956
Z-26.309
Z-28.472 F200.
X76.798 Z-28.656 F280.
X76.685 Z-28.705
X76.545 Z-28.629
X76.492 Z-28.541
X76.579 Y139.005 Z-28.441
X77.213 Y139.361
X77.301 Y139.41 Z-28.541
Z-28.671
X77.402 Z-28.771
X77.524 Z-28.769
X77.571 Z-28.738
X78.248 Y139.864 Z-28.737
X78.379 Z-28.733
X78.448 Z-28.692
X78.546 Z-28.52
Z5.
X65.622 Y136.689
Z-22.921
Z-24.836 F200.
X65.448 Z-25.035 F280.
X65.27 Z-25.059
X65.166 Z-25.03
X65.092 Z-24.933
X65.182 Y136.733 Z-24.833
X65.915 Y137.098
X66.005 Y137.142 Z-24.933
Z-24.973
X66.062 Z-25.063
X66.298 Z-25.177
