(06_T1_CONTOUR_TRIM_PERIMETER)
(T1  Spiral O 3.175*42mm  Makera    D=3.175 CR=0. - ZMIN=-45.3 - flat end mill)
( =================================================== )
(   Z Origin Set To   : Stock Top )
(   Stock Height                    : 40. mm )
(   Toolpath Z Maximum from Stock Top: 15. mm )
(   Toolpath Z Min from Stock Top: -45.3 mm )
(  )
( =================================================== )

( The following values are based on the part position info used in fusion and can be used to roughly align the machine offset from anchor 1 if you use that feature. )
(   X Offset   : -75. mm )
(   Y Offset   : -75. mm )

( =================================================== )

G90 G94
G17
G21
(When using Fusion for Personal Use, the feedrate of rapid)
(moves is reduced to match the feedrate of cutting moves,)
(which can increase machining time. Unrestricted rapid moves)
(are available with a Fusion Subscription.)

(06_ANCHOR1_CONTOUR_ADAPTIVE_3175x42_FROM_Z-35_TO_Z-40.3)
M6 T1 
(5)
M400
M851 S100
S10000 M3
G54
G0 X-2.849 Y-2.315
Z15.
G1 Z5. F1000.
Z-34.765
Z-35.083
X-2.573 Y-2.156 Z-35.4
G3 X-1.162 Y-1.128 I-4.039 J7.028
G1 X-1.11 Y-1.078
X-1.313 Y-0.539
X-1.402 Y0.029
X-1.427 Y0.604
X-1.431 Y1.179
X-1.432 Y4.056
Y48.929
Y98.981
Y149.033
Y149.608
X-1.379 Y149.891
X-1.174 Y150.428
X-0.8 Y150.866
X-0.313 Y151.171
X0.236 Y151.343
X0.808 Y151.412
X1.383 Y151.429
X1.958 Y151.431
X47.407 Y151.432
X97.459
X147.511
X149.812
X150.359 Y151.254
X150.813 Y150.9
X151.137 Y150.425
X151.326 Y149.882
X151.407 Y149.312
X151.428 Y148.737
X151.431 Y148.162
X151.432 Y139.532
Y104.439
Y54.387
Y4.335
Y0.308
X151.364 Y0.029
X151.132 Y-0.498
X150.738 Y-0.918
X150.239 Y-1.203
X149.685 Y-1.358
X149.112 Y-1.416
X148.537 Y-1.429
X147.962 Y-1.431
X105.965 Y-1.432
X55.913
X5.861
X0.684
X0.398 Y-1.4
X-0.154 Y-1.237
X-0.618 Y-0.897
X-0.957 Y-0.432
X-1.164 Y0.105
X-1.258 Y0.672
X-1.286 Y1.247
X-1.291 Y1.822
X-1.292 Y2.973
Y42.669
Y92.721
Y142.773
Y149.101
X-1.235 Y149.673
X-1.013 Y150.204
X-0.641 Y150.643
X-0.162 Y150.962
X0.378 Y151.16
X0.946 Y151.253
X1.52 Y151.284
X2.095 Y151.29
X2.671 Y151.291
X41.216 Y151.292
X91.268
X141.32
X149.374
X149.935 Y151.163
X150.428 Y150.867
X150.813 Y150.439
X151.074 Y149.927
X151.216 Y149.369
X151.274 Y148.797
X151.289 Y148.222
X151.291 Y147.646
X151.292 Y110.251
Y60.2
Y10.148
Y0.943
X151.246 Y0.37
X151.035 Y-0.165
X150.673 Y-0.613
X150.201 Y-0.942
X149.664 Y-1.149
X149.098 Y-1.248
X148.523 Y-1.283
X147.948 Y-1.29
X147.373 Y-1.291
X111.704 Y-1.292
X61.652
X11.6
X1.245
X0.67 Y-1.269
X0.12 Y-1.101
X-0.355 Y-0.776
X-0.718 Y-0.33
X-0.96 Y0.193
X-1.086 Y0.754
X-1.136 Y1.327
X-1.149 Y1.902
X-1.151 Y2.477
X-1.152 Y36.996
Y87.047
Y137.099
Y148.605
X-1.134 Y149.18
X-0.99 Y149.737
X-0.693 Y150.229
X-0.271 Y150.621
X0.236 Y150.892
X0.789 Y151.051
X1.36 Y151.124
X1.935 Y151.146
X2.51 Y151.151
X3.661 Y151.152
X35.878
X85.93
X135.981
X148.638
X149.213 Y151.139
X149.768 Y150.987
X150.256 Y150.682
X150.64 Y150.253
X150.906 Y149.743
X151.059 Y149.189
X151.126 Y148.617
X151.146 Y148.042
X151.151 Y147.467
X151.152 Y146.316
Y115.25
Y65.198
Y15.146
Y1.339
X151.132 Y0.764
X150.97 Y0.212
X150.658 Y-0.271
X150.226 Y-0.652
X149.713 Y-0.912
X149.157 Y-1.06
X148.586 Y-1.127
X148.011 Y-1.147
X147.435 Y-1.151
X145.709 Y-1.152
X116.369
X66.317
X16.265
X1.883
X1.307 Y-1.15
X0.735 Y-1.093
X0.2 Y-0.882
X-0.255 Y-0.529
X-0.598 Y-0.067
X-0.824 Y0.462
X-0.947 Y1.024
X-0.995 Y1.597
X-1.008 Y2.172
X-1.011 Y2.747
X-1.012 Y6.775
Y32.663
Y82.715
Y132.767
Y148.3
X-1.002 Y148.875
X-0.884 Y149.438
X-0.616 Y149.947
X-0.22 Y150.365
X0.266 Y150.672
X0.809 Y150.863
X1.376 Y150.961
X1.95 Y150.999
X2.525 Y151.009
X3.1 Y151.011
X31.866 Y151.012
X81.917
X131.969
X148.078
X148.653 Y151.01
X149.225 Y150.949
X149.761 Y150.74
X150.218 Y150.391
X150.568 Y149.934
X150.803 Y149.409
X150.935 Y148.849
X150.99 Y148.277
X151.007 Y147.701
X151.011 Y147.126
X151.012 Y145.976
Y118.936
Y68.884
Y18.833
Y1.574
X150.99 Y0.999
X150.837 Y0.444
X150.538 Y-0.047
X150.119 Y-0.442
X149.617 Y-0.723
X149.067 Y-0.892
X148.497 Y-0.973
X147.923 Y-1.003
X147.348 Y-1.01
X146.772 Y-1.011
X119.733 Y-1.012
X69.681
X19.63
X1.795 Y-1.011
X1.22 Y-0.992
X0.661 Y-0.859
X0.157 Y-0.58
X-0.252 Y-0.175
X-0.547 Y0.318
X-0.732 Y0.863
X-0.826 Y1.431
X-0.861 Y2.005
X-0.869 Y2.58
X-0.871 Y3.156
X-0.872 Y29.62
Y79.671
Y129.723
Y148.133
X-0.856 Y148.708
X-0.73 Y149.269
X-0.46 Y149.777
X-0.067 Y150.197
X0.417 Y150.508
X0.957 Y150.708
X1.523 Y150.812
X2.096 Y150.855
X2.672 Y150.868
X3.247 Y150.871
X5.548 Y150.872
X29.136
X79.187
X129.239
X147.649
X148.224 Y150.871
X148.799 Y150.846
X149.355 Y150.698
X149.853 Y150.41
X150.256 Y150.
X150.547 Y149.504
X150.73 Y148.958
X150.824 Y148.39
X150.86 Y147.816
X150.869 Y147.241
X150.871 Y146.666
X150.872 Y135.16
Y121.352
Y71.301
Y21.249
Y1.688
X150.831 Y1.115
X150.659 Y0.566
X150.348 Y0.082
X149.922 Y-0.305
X149.417 Y-0.581
X148.867 Y-0.749
X148.297 Y-0.83
X147.723 Y-0.861
X147.148 Y-0.869
X146.572 Y-0.871
X121.834 Y-0.872
X71.783
X21.731
X2.17 Y-0.871
X1.595 Y-0.863
X1.027 Y-0.772
X0.499 Y-0.543
X0.051 Y-0.182
X-0.29 Y0.281
X-0.519 Y0.809
X-0.649 Y1.369
X-0.707 Y1.941
X-0.726 Y2.516
X-0.731 Y3.092
X-0.732 Y4.242
Y27.83
Y77.882
Y127.933
Y147.494
X-0.731 Y148.069
X-0.696 Y148.643
X-0.54 Y149.197
X-0.247 Y149.692
X0.163 Y150.095
X0.657 Y150.39
X1.201 Y150.579
X1.768 Y150.676
X2.342 Y150.715
X2.917 Y150.728
X3.492 Y150.731
X5.218 Y150.732
X27.655
X77.707
X127.758
X147.894 Y150.731
X148.469 Y150.718
X149.033 Y150.605
X149.552 Y150.355
X149.987 Y149.979
X150.315 Y149.506
X150.532 Y148.974
X150.654 Y148.411
X150.709 Y147.839
X150.726 Y147.264
X150.731 Y146.688
X150.732 Y145.538
Y122.525
Y72.474
Y22.422
Y2.286
X150.726 Y1.711
X150.654 Y1.14
X150.443 Y0.605
X150.101 Y0.142
X149.655 Y-0.221
X149.138 Y-0.474
X148.583 Y-0.626
X148.012 Y-0.696
X147.438 Y-0.722
X146.862 Y-0.73
X146.287 Y-0.731
X122.7 Y-0.732
X72.648
X22.596
X2.46
X1.885 Y-0.727
X1.314 Y-0.656
X0.775 Y-0.457
X0.306 Y-0.122
X-0.064 Y0.318
X-0.321 Y0.833
X-0.476 Y1.387
X-0.553 Y1.957
X-0.582 Y2.531
X-0.59 Y3.107
X-0.591 Y3.682
X-0.592 Y27.27
Y77.321
Y127.373
Y147.509
X-0.584 Y148.084
X-0.517 Y148.655
X-0.315 Y149.194
X0.017 Y149.664
X0.455 Y150.037
X0.965 Y150.303
X1.517 Y150.467
X2.086 Y150.548
X2.661 Y150.579
X3.236 Y150.589
X3.811 Y150.591
X6.112 Y150.592
X27.399
X77.45
X127.502
X147.638 Y150.591
X148.213 Y150.583
X148.78 Y150.486
X149.308 Y150.258
X149.759 Y149.901
X150.11 Y149.445
X150.349 Y148.922
X150.49 Y148.364
X150.558 Y147.793
X150.583 Y147.218
X150.59 Y146.643
X150.591 Y146.067
X150.592 Y122.48
Y72.428
Y22.376
Y2.816
X150.59 Y2.241
X150.567 Y1.666
X150.443 Y1.104
X150.183 Y0.591
X149.801 Y0.16
X149.328 Y-0.166
X148.796 Y-0.386
X148.235 Y-0.511
X147.662 Y-0.566
X147.087 Y-0.585
X146.512 Y-0.59
X145.936 Y-0.591
X122.349 Y-0.592
X72.297
X22.245
X2.685
X2.11 Y-0.588
X1.538 Y-0.525
X0.994 Y-0.338
X0.515 Y-0.018
X0.132 Y0.41
X-0.143 Y0.916
X-0.313 Y1.465
X-0.401 Y2.034
X-0.437 Y2.608
X-0.448 Y3.183
X-0.451 Y3.759
X-0.452 Y6.06
Y27.921
Y77.973
Y128.025
Y147.01
X-0.45 Y147.585
X-0.425 Y148.16
X-0.301 Y148.722
X-0.044 Y149.237
X0.333 Y149.671
X0.803 Y150.003
X1.332 Y150.229
X1.892 Y150.361
X2.464 Y150.422
X3.039 Y150.443
X3.614 Y150.45
X4.189 Y150.451
X16.846 Y150.452
X28.352
X78.404
X128.455
X147.441 Y150.451
X148.016 Y150.445
X148.584 Y150.351
X149.115 Y150.131
X149.573 Y149.783
X149.933 Y149.334
X150.184 Y148.816
X150.334 Y148.261
X150.41 Y147.691
X150.44 Y147.116
X150.449 Y146.541
X150.451 Y145.966
X150.452 Y141.363
Y121.227
Y71.176
Y21.124
X150.451 Y2.714
X150.444 Y2.139
X150.384 Y1.567
X150.195 Y1.023
X149.877 Y0.544
X149.451 Y0.157
X148.949 Y-0.124
X148.402 Y-0.302
X147.835 Y-0.397
X147.261 Y-0.436
X146.685 Y-0.447
X146.11 Y-0.451
X144.959 Y-0.452
X120.797
X70.745
X20.693
X2.859
X2.283 Y-0.449
X1.712 Y-0.384
X1.167 Y-0.199
X0.686 Y0.117
X0.298 Y0.542
X0.016 Y1.043
X-0.16 Y1.591
X-0.254 Y2.158
X-0.294 Y2.732
X-0.307 Y3.307
X-0.311 Y3.883
X-0.312 Y5.033
Y29.771
Y79.823
Y129.875
Y146.559
X-0.311 Y147.134
X-0.302 Y147.709
X-0.237 Y148.281
X-0.046 Y148.824
X0.272 Y149.303
X0.697 Y149.691
X1.198 Y149.973
X1.744 Y150.155
X2.311 Y150.253
X2.885 Y150.294
X3.46 Y150.307
X4.035 Y150.31
X5.186 Y150.312
X30.499
X80.551
X130.603
X147.287
X147.862 Y150.301
X148.429 Y150.205
X148.96 Y149.983
X149.418 Y149.635
X149.779 Y149.188
X150.034 Y148.672
X150.188 Y148.118
X150.266 Y147.548
X150.298 Y146.973
X150.308 Y146.398
X150.311 Y145.823
X150.312 Y144.097
Y118.783
Y68.732
Y18.68
Y3.147
X150.309 Y2.571
X150.281 Y1.997
X150.154 Y1.436
X149.897 Y0.921
X149.521 Y0.486
X149.053 Y0.151
X148.525 Y-0.078
X147.966 Y-0.214
X147.394 Y-0.279
X146.819 Y-0.303
X146.244 Y-0.309
X145.669 Y-0.311
X139.341 Y-0.312
X118.054
X68.003
X17.951
X2.993
X2.418 Y-0.307
X1.847 Y-0.235
X1.304 Y-0.044
X0.826 Y0.276
X0.44 Y0.703
X0.159 Y1.205
X-0.017 Y1.753
X-0.111 Y2.32
X-0.152 Y2.894
X-0.166 Y3.469
X-0.17 Y4.044
X-0.172 Y5.195
Y32.81
Y82.861
Y132.913
X-0.171 Y146.72
X-0.168 Y147.296
X-0.136 Y147.87
X-0.002 Y148.43
X0.26 Y148.942
X0.639 Y149.374
X1.109 Y149.707
X1.637 Y149.935
X2.196 Y150.071
X2.768 Y150.138
X3.342 Y150.162
X3.918 Y150.169
X4.493 Y150.171
X9.095 Y150.172
X33.834
X83.885
X133.937
X147.169
X147.744 Y150.155
X148.31 Y150.05
X148.836 Y149.819
X149.29 Y149.465
X149.646 Y149.013
X149.898 Y148.496
X150.048 Y147.94
X150.125 Y147.37
X150.157 Y146.796
X150.168 Y146.221
X150.171 Y145.645
X150.172 Y144.495
Y115.154
Y65.102
Y15.051
Y3.545
X150.17 Y2.969
X150.158 Y2.394
X150.079 Y1.824
X149.876 Y1.286
X149.548 Y0.813
X149.116 Y0.433
X148.995 Y0.367
X148.948 Y0.341
X148.902 Y0.312
X148.857 Y0.282
X148.805 Y0.246
X148.709 Y0.183
X148.575 Y0.115
X148.447 Y0.058
X148.316 Y0.014
X148.222 Y-0.015
X148.055 Y-0.054
X147.924 Y-0.071
X147.885 Y-0.074
X147.314 Y-0.141
X146.739 Y-0.162
X146.163 Y-0.169
X145.588 Y-0.171
X142.712 Y-0.172
X97.838
X47.786
X3.487
X2.912 Y-0.171
X2.337 Y-0.145
X2.055 Y-0.086
X2.019 Y-0.079
X1.982 Y-0.074
X1.945 Y-0.07
X1.814 Y-0.047
X1.683 Y-0.018
X1.553 Y0.019
X1.422 Y0.069
X1.317 Y0.115
X1.161 Y0.196
X1.081 Y0.246
X1.03 Y0.279
X0.899 Y0.377
X0.769 Y0.492
X0.753 Y0.507
X0.638 Y0.626
X0.627 Y0.638
X0.533 Y0.769
X0.442 Y0.899
X0.377 Y1.004
X0.298 Y1.161
X0.246 Y1.294
X0.205 Y1.422
X0.171 Y1.553
X0.146 Y1.683
X0.143 Y1.723
X0.129 Y1.842
X0.036 Y2.41
X-0.008 Y2.983
X-0.025 Y3.559
X-0.03 Y4.134
X-0.031 Y4.709
X-0.032 Y51.884
Y101.936
Y117.139
Y117.188
X-0.035 Y117.236
X-0.039 Y117.285
X-0.044 Y117.343
X-0.054 Y117.474
X-0.049 Y117.866
X-0.042 Y118.258
X-0.037 Y118.781
X-0.057 Y119.356
X-0.045 Y119.66
X-0.033 Y120.235
X-0.032 Y120.525
X-0.033 Y120.58
X-0.036 Y120.635
X-0.041 Y120.689
X-0.4 Y120.958 Z-35.2
X-0.609 Y120.835
X-0.673 Y120.644
X-0.671 Y118.796
X-0.588 Y118.582
X-0.369 Y118.479
X-0.037 Y118.781 Z-35.4
X-0.033 Y119.042
X-0.029 Y119.173
X0.018 Y119.565
X0.022 Y119.587
X0.028 Y119.62
X0.032 Y119.643
X0.047 Y119.768
X0.051 Y119.806
X0.06 Y119.988
X0.049 Y120.17
X0.018 Y120.349
X-0.37 Y120.574 Z-35.2
X-0.563 Y120.427
X-0.606 Y120.262
X-0.596 Y119.703
X-0.545 Y119.535
X-0.345 Y119.398
X0.032 Y119.643 Z-35.4
X0.087 Y119.957
X0.092 Y119.993
X0.097 Y120.022
Y120.055
X0.094 Y120.088
X0.018 Y120.349
X-0.015 Y120.495
X-0.032 Y120.61
X-0.061 Y120.872
X-0.071 Y121.003
X-0.082 Y121.264
X-0.083 Y121.395
X-0.057 Y121.787
X-0.041 Y122.179
X-0.042 Y122.309
X-0.05 Y122.571
X-0.046 Y122.701
X-0.037 Y122.982
X-0.032 Y123.558
Y125.722
Y125.757
X-0.033 Y125.792
X-0.035 Y125.827
X-0.384 Y126.109 Z-35.2
X-0.597 Y125.994
X-0.669 Y125.794
X-0.678 Y122.746
Y122.745
X-0.613 Y122.553
X-0.404 Y122.431
X-0.046 Y122.701 Z-35.4
X-0.015 Y122.992
X-0.006 Y123.094
X0.022 Y123.486
X0.025 Y123.616
X0.032 Y124.4
X0.019 Y124.792
X0.013 Y124.923
X-0.009 Y125.315
X-0.027 Y125.707
X-0.055 Y126.099
X-0.06 Y126.23
X-0.062 Y126.491
Y126.622
X-0.053 Y127.014
X-0.048 Y127.406
X-0.044 Y127.537
X-0.05 Y128.112
X-0.037 Y128.57
X-0.032 Y129.145
Y132.597
Y146.404
X-0.029 Y146.98
X-0.011 Y147.555
X0.092 Y148.121
X0.318 Y148.65
X0.665 Y149.109
X1.11 Y149.472
X1.624 Y149.731
X2.176 Y149.894
X2.745 Y149.98
X3.319 Y150.016
X3.894 Y150.028
X4.47 Y150.031
X5.62 Y150.032
X29.208
X79.259
X110.529
X110.623 Y150.034
X110.716 Y150.041
X110.809 Y150.054
X110.939 Y150.074
X111.07 Y150.083
X111.201 Y150.085
X111.332 Y150.08
X111.371 Y150.075
X111.491 Y150.065
X111.711 Y150.053
X112.082 Y150.04
X112.657 Y150.033
X113.808 Y150.032
X146.6
X147.176 Y150.029
X147.75 Y149.992
X148.308 Y149.854
X148.817 Y149.586
X149.246 Y149.202
X149.575 Y148.73
X149.8 Y148.201
X149.933 Y147.641
X149.995 Y147.069
X150.02 Y146.494
X150.029 Y145.919
X150.031 Y145.344
X150.032 Y143.042
Y137.289
Y87.238
Y54.294
X150.033 Y54.224
X150.038 Y54.153
X150.047 Y54.083
X150.064 Y53.959
X150.078 Y53.828
X150.086 Y53.436
X150.084 Y53.044
X150.067 Y52.652
X150.063 Y52.63
X150.048 Y52.511
X150.035 Y52.001
X150.032 Y51.426
Y51.212
X150.033 Y51.167
X150.035 Y51.122
X150.038 Y51.078
X150.392 Y50.802 Z-35.2
X150.603 Y50.921
X150.67 Y51.113
X150.691 Y52.558
X150.64 Y52.735
X150.441 Y52.873
X150.063 Y52.63 Z-35.4
X150.044 Y52.521
X149.993 Y52.287
X149.987 Y52.26
X149.982 Y52.238
X149.961 Y52.12
X149.947 Y52.001
X149.941 Y51.945
X149.935 Y51.793
X149.944 Y51.642
X149.968 Y51.492
X150.353 Y51.262 Z-35.2
X150.548 Y51.406
X150.594 Y51.563
X150.606 Y52.149
X150.563 Y52.315
X150.371 Y52.462
X149.982 Y52.238 Z-35.4
X149.957 Y52.129
X149.91 Y51.933
X149.903 Y51.901
X149.9 Y51.868
X149.901 Y51.803
X149.914 Y51.737
X149.944 Y51.607
X150.015 Y51.273
X150.026 Y51.215
X150.049 Y50.953
X150.059 Y50.823
X150.057 Y50.692
X150.054 Y50.652
X150.04 Y50.077
X150.033 Y49.502
X150.032 Y48.351
X150.031 Y3.477
X150.028 Y2.902
X149.996 Y2.328
X149.872 Y1.766
X149.692 Y1.399
X149.675 Y1.362
X149.658 Y1.325
X149.643 Y1.287
X149.593 Y1.161
X149.528 Y1.03
X149.493 Y0.96
X149.454 Y0.899
X149.367 Y0.769
X149.231 Y0.603
X149.135 Y0.507
X148.993 Y0.377
X148.857 Y0.282
X148.82 Y0.249
X148.751 Y0.184
X148.652 Y0.126
X148.636 Y0.12
X148.136 Y-0.062
X148.022 Y-0.081
X147.927 Y-0.075
X147.885 Y-0.074
X147.794 Y-0.08
X147.532 Y-0.086
X147.402 Y-0.087
X2.598
X2.206 Y-0.086
X2.076 Y-0.081
X1.945 Y-0.07
X1.895 Y-0.071 Z-35.38
X1.448 Y-0.054 Z-35.2
X1.342 Y-0.031
X1.218 Y0.031
X1.195 Y0.052
X0.266 Y0.979
X0.249 Y0.998
X0.183 Y1.126
X0.161 Y1.227
X0.142 Y1.679 Z-35.382
X0.143 Y1.723 Z-35.4
X0.137 Y1.814
X0.124 Y2.076
Y2.206
X0.127 Y2.337
X0.109 Y2.912
X0.115 Y3.487
X0.111 Y4.063
X0.109 Y4.638
X0.108 Y8.665
Y12.24
X0.106 Y12.292
G3 X-0.475 Y12.438 I-0.316 J-0.028
G1 X-0.65 Y12.173 Z-35.083
Z5.
X-0.275 Y1.318
Z-34.765
Z-35.083
X-0.108 Y1.588 Z-35.4
G3 X0.127 Y2.337 I-1.345 J0.834
G1 X0.138 Y2.99
X0.142 Y4.036
X0.143 Y5.343
Y5.735
X0.142 Y5.996
X0.136 Y6.65
X0.132 Y7.303
X0.115 Y8.632
X0.126 Y9.394
X0.127 Y9.525
X0.124 Y9.917
Y10.309
X0.121 Y10.57
X0.119 Y10.832
X0.117 Y11.354
X0.116 Y11.877
X0.115 Y12.111
X0.114 Y12.139
X0.094 Y12.531
X0.09 Y12.661
X0.086 Y12.923
X0.084 Y13.053
X0.082 Y13.446
X0.083 Y13.838
X0.094 Y14.36
X0.101 Y14.883
X0.102 Y15.014
X0.08 Y15.589
X0.093 Y15.863
X0.106 Y16.396
X0.107 Y16.831
Y16.843
X-0.23 Y17.14 Z-35.2
X-0.447 Y17.034
X-0.528 Y16.824
X-0.532 Y15.028
X-0.448 Y14.814
X-0.229 Y14.711
X0.102 Y15.014 Z-35.4
X0.104 Y15.144
X0.115 Y15.588
X0.116 Y16.059
X0.12 Y16.451
X0.115 Y16.605
X0.107 Y16.843
X0.106 Y16.974
X0.108 Y17.046
X0.091 Y17.621
X0.104 Y18.095
X0.108 Y18.671
Y26.15
Y41.722
Y41.738
X0.098 Y42.066
X0.095 Y42.197
X0.094 Y42.589
X0.088 Y42.981
X0.089 Y43.112
X0.095 Y43.504
X0.098 Y43.635
X0.082 Y44.21
X0.095 Y44.51
X0.107 Y45.085
X0.108 Y45.455
X-0.225 Y45.757 Z-35.2
X-0.444 Y45.654
X-0.527 Y45.441
X-0.536 Y43.655
X-0.455 Y43.441
X-0.237 Y43.336
X0.098 Y43.635 Z-35.4
X0.104 Y43.896
X0.112 Y44.549
X0.114 Y44.68
Y44.811
X0.111 Y45.203
X0.106 Y45.595
X0.096 Y46.118
X0.091 Y46.51
X0.073 Y47.294
X0.071 Y47.425
X0.065 Y48.078
X0.063 Y48.209
X0.068 Y48.47
X0.074 Y48.862
X0.078 Y49.124
X0.09 Y49.516
X0.089 Y49.646
X0.082 Y50.038
X0.076 Y50.3
X0.074 Y50.43
X0.083 Y50.823
X0.093 Y51.215
X0.078 Y51.79
X0.09 Y52.041
X0.103 Y52.498
X0.108 Y53.073
Y56.525
Y72.314
X0.103 Y73.04
X0.105 Y73.17
X0.083 Y73.745
X0.096 Y74.057
X0.107 Y74.632
X0.108 Y75.207
Y78.71
X-0.222 Y79.013 Z-35.2
X-0.442 Y78.912
X-0.526 Y78.696
X-0.53 Y73.185
X-0.446 Y72.971
X-0.227 Y72.868
X0.105 Y73.17 Z-35.4
X0.11 Y73.562
X0.115 Y73.858
X0.116 Y73.954
X0.118 Y74.869
Y75.392
X0.115 Y76.539
X0.123 Y76.96
Y77.352
X0.121 Y77.483
X0.114 Y77.744
X0.111 Y77.875
X0.109 Y78.267
Y78.659
X0.105 Y79.051
X0.104 Y79.182
X0.109 Y79.574
X0.111 Y79.966
X0.107 Y80.881
X0.102 Y81.273
X0.094 Y81.665
X0.091 Y81.796
X0.078 Y82.188
X0.072 Y82.58
X0.073 Y82.711
X0.077 Y82.972
X0.081 Y83.103
X0.086 Y83.233
X0.092 Y83.364
X0.094 Y83.404
X0.09 Y83.979
X0.103 Y84.433
X0.105 Y84.705
X0.104 Y84.753
X-0.236 Y85.046 Z-35.2
X-0.452 Y84.937
X-0.53 Y84.732
X-0.54 Y83.431
X-0.464 Y83.222
X-0.248 Y83.112
X0.094 Y83.404 Z-35.4
X0.098 Y83.495
X0.118 Y83.887
X0.12 Y84.018
Y84.279
X0.118 Y84.41
X0.102 Y84.802
X0.09 Y85.194
X0.089 Y85.324
Y86.109
X0.081 Y86.501
X0.077 Y86.893
Y87.023
X0.08 Y87.285
X0.082 Y87.415
X0.087 Y87.546
X0.081 Y88.121
X0.094 Y88.411
X0.107 Y88.986
X0.108 Y89.561
Y114.275
X0.107 Y114.337
X0.101 Y114.468
X0.077 Y114.86
X0.05 Y115.252
X0.046 Y115.383
X0.041 Y115.644
X0.04 Y115.906
X0.039 Y116.036
X0.037 Y116.167
X0.025 Y116.559
X0.015 Y116.69
X-0.015 Y117.047
X-0.039 Y117.285
G3 X-0.627 Y117.405 I-0.315 J-0.042
G1 X-0.789 Y117.132 Z-35.083
Z5.
X-0.338 Y86.536
Z-34.765
Z-35.083
X-0.165 Y86.802 Z-35.4
G3 X0.087 Y87.546 I-1.326 J0.863
G1 X0.098 Y87.808
X0.116 Y88.2
X0.12 Y88.33
X0.125 Y88.722
X0.123 Y89.376
Y90.029
X0.127 Y90.552
X0.132 Y90.944
X0.139 Y91.336
X0.143 Y91.728
Y92.643
X0.14 Y93.166
X0.138 Y93.558
X0.134 Y93.95
X0.126 Y94.342
X0.122 Y94.734
Y94.995
X0.123 Y95.257
X0.118 Y95.649
X0.117 Y96.041
X0.119 Y96.302
X0.121 Y96.564
X0.118 Y98.001
Y98.263
X0.123 Y98.785
X0.125 Y99.177
X0.123 Y100.092
X0.115 Y101.032
X0.114 Y101.268
X0.116 Y101.399
X0.124 Y101.661
X0.128 Y101.791
X0.13 Y102.183
X0.129 Y102.706
X0.126 Y103.229
Y103.49
X0.131 Y104.536
X0.133 Y106.365
X0.134 Y106.757
X0.136 Y107.411
X0.133 Y107.934
Y108.326
X0.137 Y108.718
X0.128 Y109.633
X0.122 Y110.025
X0.112 Y110.417
Y110.547
X0.12 Y111.332
X0.122 Y112.116
Y112.9
X0.121 Y113.423
Y113.553
X0.112 Y114.076
X0.108 Y114.275
X0.003 Y114.494 Z-35.3
X-0.18 Y114.663 Z-35.2
X-0.358 Y114.836
G2 X-2.193 Y117.559 I6.176 J6.142
G1 X-2.218 Y117.68
X-2.291 Y124.093
X-2.268 Y124.215
G2 X-0.505 Y126.969 I8.087 J-3.236
G1 X-0.332 Y127.146
X-0.143 Y127.329 Z-35.305
X-0.044 Y127.537 Z-35.4
X-0.033 Y127.798
X-0.018 Y127.929
X0.023 Y128.19
X0.041 Y128.321
X0.065 Y128.582
X0.077 Y128.713
X0.082 Y128.844
X0.091 Y129.105
X0.095 Y129.236
X0.098 Y129.628
X0.096 Y130.02
X0.098 Y130.412
X0.101 Y130.543
X0.091 Y131.118
X0.104 Y131.589
X0.108 Y132.164
Y138.492
Y143.816
X0.096 Y144.396
X0.087 Y144.788
Y144.919
X0.091 Y145.049
X0.08 Y145.624
X0.093 Y145.906
X0.107 Y146.481
X0.115 Y147.057
X0.16 Y147.63
X0.31 Y148.186
X0.586 Y148.69
X0.976 Y149.114
X1.451 Y149.438
X1.982 Y149.66
X2.542 Y149.793
X3.113 Y149.858
X3.688 Y149.882
X4.263 Y149.889
X4.839 Y149.891
X8.291 Y149.892
X46.836
X96.888
X110.011
X110.186 Y149.902
X110.358 Y149.932
X110.526 Y149.983
X110.547 Y149.991
X110.637 Y150.015
X110.678 Y150.026
X110.809 Y150.054
X110.856 Y150.069
X110.91 Y150.089
X110.995 Y150.105
X111.18 Y150.112
X111.266 Y150.103
X111.322 Y150.087
X111.371 Y150.075
X111.593 Y150.046
X111.724 Y150.028
X111.772 Y150.015
X111.889 Y149.991
X112.008 Y149.97
X112.126 Y149.953
X112.246 Y149.941
X112.388 Y149.929
X112.59 Y149.917
X112.907 Y149.904
X113.483 Y149.893
X114.058 Y149.892
X146.275
X146.85 Y149.89
X147.425 Y149.87
X147.991 Y149.764
X148.519 Y149.535
X148.975 Y149.185
X149.337 Y148.737
X149.594 Y148.223
X149.754 Y147.67
X149.838 Y147.101
X149.874 Y146.527
X149.887 Y145.952
X149.89 Y145.376
X149.892 Y144.226
Y136.747
Y86.695
Y55.043
X149.896 Y54.933
X149.908 Y54.823
X149.928 Y54.715
X149.951 Y54.613
X150.015 Y54.293
X150.027 Y54.22
X150.047 Y54.083
X150.059 Y54.034 Z-35.38
X150.187 Y53.608 Z-35.202
X150.188 Y53.605 Z-35.2
X150.196 Y53.532
X150.197 Y53.357
X150.203 Y51.379
Y51.223
Y51.222
X150.194 Y51.147
X150.191 Y51.131
X150.07 Y50.72 Z-35.372
X150.054 Y50.652 Z-35.4
X150.048 Y50.561
X150.032 Y50.43
X149.987 Y50.196
X149.958 Y49.989
X149.944 Y49.869
X149.933 Y49.742
X149.921 Y49.565
X149.908 Y49.3
X149.895 Y48.806
X149.892 Y48.231
Y22.917
Y3.932
X149.89 Y3.357
X149.877 Y2.782
X149.811 Y2.21
X149.786 Y2.119
X149.77 Y2.025
X149.762 Y1.93
X149.758 Y1.814
X149.754 Y1.738
X149.745 Y1.683
X149.721 Y1.553
X149.686 Y1.422
X149.643 Y1.287
G3 X150.112 Y0.914 I0.299 J-0.105
G1 X150.38 Y1.083 Z-35.083
Z5.
X150.555 Y51.133
Z-34.765
Z-35.083
X150.345 Y50.895 Z-35.4
G3 X149.987 Y50.196 I1.186 J-1.048
G1 X149.955 Y50.038
X149.913 Y49.908
X149.882 Y49.792
X149.856 Y49.675
X149.836 Y49.556
X149.82 Y49.437
X149.806 Y49.309
X149.794 Y49.167
X149.781 Y48.966
X149.767 Y48.665
X149.754 Y48.103
X149.752 Y47.6
X150.082 Y47.296 Z-35.2
X150.302 Y47.397
X150.386 Y47.593
X150.528 Y49.779
X150.498 Y49.935
X150.319 Y50.098
X150.212 Y50.117 Z-35.244
X150.211
X149.913 Y49.908 Z-35.4
X149.87 Y49.777
X149.827 Y49.646
X149.811 Y49.61
X149.798 Y49.581
X149.784 Y49.548
X149.775 Y49.507
X149.765 Y49.45
X149.943 Y49.242
X150.198 Y49.4
X150.06 Y49.666
X149.784 Y49.548
X149.775 Y49.516
X149.765 Y49.45
Y49.385
X149.768 Y49.124
X149.759 Y48.732
X149.756 Y48.601
X149.75 Y48.209
X149.752 Y47.686
X149.753 Y47.425
Y47.163
X149.75 Y46.771
X149.747 Y46.51
X149.753 Y45.987
X149.759 Y45.595
X149.76 Y45.203
X149.756 Y44.942
X149.755 Y44.811
X149.758 Y44.288
X149.755 Y43.504
X149.76 Y42.197
X149.764 Y41.805
X149.765 Y41.674
X149.758 Y41.282
X149.755 Y40.367
X149.758 Y39.583
X149.766 Y38.668
X149.765 Y38.276
X149.766 Y38.146
X149.771 Y37.884
X149.772 Y37.754
X149.764 Y37.362
X149.756 Y36.447
X149.755 Y36.185
X149.757 Y35.532
X149.756 Y35.14
X149.749 Y34.356
X149.75 Y34.094
X149.754 Y33.441
Y32.657
X149.755 Y32.526
X149.77 Y31.742
X149.772 Y31.481
X149.774 Y30.827
X149.78 Y30.304
X149.785 Y29.912
X149.787 Y29.52
X149.779 Y29.128
X149.767 Y28.736
X149.764 Y28.605
X149.76 Y28.213
Y27.821
X149.762 Y27.691
X149.77 Y27.299
X149.774 Y26.906
X149.771 Y26.514
Y26.384
X149.775 Y26.122
Y25.992
X149.769 Y25.6
X149.765 Y25.208
Y24.815
X149.768 Y24.554
X149.77 Y24.293
X149.769 Y23.77
Y23.509
X149.77 Y23.378
X149.777 Y22.986
X149.788 Y22.594
X149.806 Y22.071
X149.823 Y21.679
X149.829 Y21.287
X149.837 Y21.025
X149.841 Y20.895
X149.843 Y20.764
X149.837 Y20.372
X149.851 Y19.98
X149.849 Y19.849
X149.84 Y19.588
X149.839 Y19.457
X149.857 Y18.934
X149.865 Y18.673
X149.866 Y18.542
X149.865 Y18.281
X149.863 Y18.15
X149.856 Y17.889
X149.849 Y17.758
X149.822 Y17.497
X149.808 Y17.366
X149.804 Y17.344
X149.799 Y17.311
X149.785 Y17.192
X149.773 Y16.967
X149.765 Y16.729
X149.764 Y16.689
Y16.649
X149.766 Y16.608
X150.108 Y16.318 Z-35.2
X150.323 Y16.428
X150.399 Y16.62
X150.427 Y17.233
X150.374 Y17.424
X150.173 Y17.559
X149.799 Y17.311 Z-35.4
X149.754 Y17.046
X149.743 Y16.974
X149.742 Y16.941
X149.745 Y16.909
X149.754 Y16.826
X149.761 Y16.713
X149.773 Y16.451
X149.768 Y15.929
X149.763 Y15.537
X149.761 Y15.144
X149.762 Y14.752
X149.76 Y14.36
X149.756 Y13.968
X149.755 Y13.838
X149.762 Y13.446
X149.76 Y13.184
X149.759 Y12.923
X149.76 Y12.4
Y12.139
X149.767 Y11.485
X149.77 Y11.224
X149.772 Y10.832
X149.769 Y10.44
Y10.309
X149.773 Y9.917
X149.774 Y9.525
X149.767 Y9.002
X149.764 Y8.61
X149.763 Y8.218
X149.764 Y7.695
X149.761 Y5.996
X149.763 Y5.604
Y5.212
X149.762 Y5.081
X149.756 Y4.689
X149.755 Y4.428
X149.757 Y3.905
X149.756 Y3.644
X149.755 Y3.513
X149.754 Y3.382
X149.751 Y2.99
X149.754 Y2.525
X149.765 Y2.206
X149.767 Y2.076
X149.762 Y1.93
X150.049 Y1.614
X150.08 Y1.613 Z-35.398
X150.231 Y1.651 Z-35.337
X150.329 Y1.733 Z-35.083
Z5.
X-0.297 Y16.028
Z-34.765
Z-35.083
X-0.129 Y16.297 Z-35.4
G3 X0.108 Y17.046 I-1.343 J0.837
G1 X0.114 Y17.366
X0.116 Y17.758
X0.122 Y18.281
X0.124 Y18.934
X0.127 Y19.588
Y21.418
X0.122 Y23.77
X0.119 Y24.685
X0.111 Y25.6
X0.121 Y26.514
Y26.906
X0.118 Y27.299
X0.119 Y27.429
X0.122 Y27.691
Y27.821
X0.12 Y28.475
X0.118 Y29.259
Y29.52
X0.122 Y29.912
Y30.043
X0.119 Y30.304
X0.118 Y30.435
X0.12 Y30.827
X0.127 Y31.219
X0.129 Y31.481
X0.13 Y32.265
X0.131 Y32.526
X0.13 Y33.441
X0.133 Y34.356
X0.131 Y34.878
X0.124 Y36.055
X0.127 Y36.577
X0.133 Y37.362
X0.14 Y38.799
X0.141 Y39.583
X0.138 Y40.367
X0.132 Y40.89
X0.127 Y41.282
X0.109 Y41.71
X0.108 Y41.738
X-0.041 Y41.986 Z-35.28
X-0.207 Y42.095 Z-35.2
X-0.409 Y42.239
G2 X-1.91 Y43.997 I3.187 J4.241
G1 X-1.947 Y44.145
X-1.954 Y48.801
X-1.918 Y48.948
G2 X-0.422 Y50.712 I4.695 J-2.468
G1 X-0.22 Y50.857
X-0.055 Y50.965 Z-35.279
X0.093 Y51.215 Z-35.4
X0.108 Y51.868
X0.121 Y52.521
X0.124 Y52.783
X0.13 Y53.567
X0.136 Y54.351
X0.14 Y54.743
X0.141 Y55.135
Y55.266
X0.135 Y55.658
X0.136 Y56.181
X0.139 Y56.834
X0.138 Y57.096
X0.133 Y58.664
X0.131 Y60.232
Y60.886
X0.126 Y61.931
X0.123 Y63.107
X0.125 Y64.153
Y64.806
X0.117 Y65.59
X0.115 Y66.113
X0.119 Y67.42
X0.116 Y68.204
X0.117 Y68.727
X0.123 Y69.511
X0.124 Y70.034
X0.119 Y70.949
X0.108 Y72.314
G3 X-0.466 Y72.487 I-0.317 J-0.013
G1 X-0.652 Y72.23 Z-35.083
Z5.
X-0.316 Y129.529
Z-34.765
Z-35.083
X-0.145 Y129.797 Z-35.4
G3 X0.101 Y130.543 I-1.333 J0.853
G1 X0.113 Y130.935
X0.119 Y131.327
X0.139 Y132.111
X0.141 Y132.242
Y134.856
X0.139 Y135.248
X0.134 Y135.509
X0.13 Y135.64
X0.129 Y135.77
X0.134 Y136.162
X0.135 Y136.685
Y137.077
X0.137 Y137.469
X0.126 Y137.861
X0.125 Y137.992
X0.127 Y138.776
X0.126 Y139.168
X0.127 Y139.56
X0.129 Y139.691
X0.135 Y140.083
X0.139 Y140.475
Y140.998
X0.137 Y141.39
X0.133 Y141.913
X0.131 Y142.305
X0.121 Y143.089
X0.108 Y143.816
X0.102 Y143.865
X0.059 Y144.117
X0.057 Y144.152
X0.055 Y144.267
X0.049 Y144.724
X0.051 Y144.759
X0.087 Y145.012
X0.091 Y145.049
X0.095 Y145.18
X0.107 Y145.311
X0.129 Y145.441
X0.134 Y145.463
X0.159 Y145.581
X0.176 Y145.699
X0.19 Y145.824
X0.205 Y145.983
X0.219 Y146.185
X0.249 Y146.759
X0.28 Y147.334
X0.403 Y147.896
X0.647 Y148.417
X1.008 Y148.864
X1.463 Y149.216
X1.982 Y149.465
X2.536 Y149.62
X3.106 Y149.702
X3.68 Y149.736
X4.255 Y149.748
X4.83 Y149.751
X5.981 Y149.752
X47.403
X97.455
X109.536
X109.652 Y149.753
X109.823 Y149.765
X109.991 Y149.796
X110.155 Y149.847
X110.526 Y149.983
X110.57 Y150.005
X110.66 Y150.054
X110.79 Y150.086
X111.005 Y150.093
X111.491 Y150.107
X111.623 Y150.082
X111.715 Y150.039
X111.772 Y150.015
X111.854 Y149.994
X111.985 Y149.951
X112.007 Y149.942
X112.12 Y149.904
X112.236 Y149.873
X112.354 Y149.85
X112.473 Y149.832
X112.592 Y149.817
X112.735 Y149.803
X112.931 Y149.788
X113.151 Y149.775
X113.517 Y149.762
X114.092 Y149.753
X114.667 Y149.752
X146.309 Y149.751
X146.884 Y149.746
X147.458 Y149.704
X148.015 Y149.561
X148.523 Y149.29
X148.951 Y148.906
X149.281 Y148.434
X149.508 Y147.906
X149.646 Y147.347
X149.712 Y146.776
X149.739 Y146.201
X149.748 Y145.626
X149.749 Y145.489
X149.751 Y145.42
X149.756 Y145.351
X149.764 Y145.282
X149.768 Y145.245
X149.78 Y144.919
X149.781 Y144.788
X149.772 Y144.396
X149.752 Y143.089
Y142.697
X149.751 Y142.566
X149.777 Y141.991
X149.764 Y141.68
X149.753 Y141.105
X149.752 Y140.473
X149.754 Y140.44
X150.106 Y140.161 Z-35.2
X150.317 Y140.278
X150.387 Y140.477
X150.386 Y142.554
X150.301 Y142.77
X150.081 Y142.871
X149.751 Y142.566 Z-35.4
X149.749 Y142.174
Y141.782
X149.745 Y141.39
X149.744 Y140.998
X149.745 Y140.867
X149.751 Y140.475
X149.754 Y140.44
X149.758 Y140.344
X149.765 Y140.083
Y139.822
Y139.691
X149.766 Y139.56
X149.775 Y139.168
X149.777 Y138.776
X149.776 Y138.384
X149.773 Y138.123
X149.764 Y137.469
X149.762 Y137.077
X149.758 Y136.816
X149.754 Y136.578
X149.762 Y136.162
X149.759 Y136.032
X149.77 Y135.457
X149.757 Y135.003
X149.752 Y134.428
Y131.551
Y126.602
G3 X150.329 Y126.437 I0.317 J0.017
G1 X150.511 Y126.697 Z-35.083
Z5.
X150.174 Y137.046
Z-34.765
Z-35.083
X150.004 Y136.778 Z-35.4
G3 X149.759 Y136.032 I1.334 J-0.851
G1 X149.754 Y135.884
X149.749 Y135.77
X149.746 Y135.64
X149.739 Y135.248
X149.736 Y134.725
X149.73 Y133.418
X149.728 Y131.98
X149.73 Y130.281
Y129.628
X149.739 Y129.236
X149.74 Y129.105
X149.746 Y127.798
X149.744 Y127.014
X149.756 Y126.361
X149.762 Y125.969
X149.766 Y125.707
X149.768 Y125.315
X149.766 Y125.054
X149.764 Y124.792
X149.767 Y124.4
Y124.008
X149.763 Y123.094
X149.783 Y121.787
X149.784 Y121.264
X149.781 Y120.218
X149.778 Y119.173
X149.771 Y118.65
X149.761 Y118.127
X149.755 Y117.866
X149.751 Y117.474
X149.748 Y116.559
X149.757 Y114.468
X149.759 Y114.337
X149.775 Y113.423
X149.786 Y112.9
X149.791 Y112.638
X149.776 Y112.246
X149.772 Y111.985
X149.768 Y111.724
X149.764 Y110.939
X149.767 Y110.417
X149.772 Y110.025
X149.764 Y108.718
X149.763 Y108.064
X149.762 Y107.803
X149.758 Y107.411
X149.768 Y106.836
X149.755 Y106.327
X149.752 Y105.751
Y104.917
Y104.901
X150.09 Y104.605 Z-35.2
X150.307 Y104.712
X150.387 Y104.922
X150.392 Y107.389
X150.313 Y107.599
X150.096 Y107.706
X149.758 Y107.411 Z-35.4
X149.745 Y107.019
X149.744 Y106.757
X149.741 Y106.365
X149.735 Y105.712
X149.736 Y105.581
X149.74 Y105.32
X149.743 Y105.189
X149.756 Y104.797
X149.765 Y104.405
X149.766 Y104.144
X149.768 Y103.752
X149.77 Y103.49
X149.775 Y103.098
X149.773 Y102.837
X149.772 Y102.706
X149.771 Y102.575
X149.772 Y102.183
X149.764 Y101.791
X149.776 Y101.216
X149.763 Y100.885
X149.753 Y100.31
X149.752 Y99.735
Y98.222
X149.753 Y98.179
X150.094 Y97.887 Z-35.2
X150.31 Y97.997
X150.387 Y98.203
X150.398 Y101.77
X150.319 Y101.981
X150.101 Y102.088
X149.764 Y101.791 Z-35.4
X149.752 Y101.399
X149.749 Y101.268
X149.744 Y100.746
X149.742 Y100.354
X149.741 Y99.831
Y99.57
X149.746 Y99.177
Y98.655
X149.749 Y98.263
X149.755 Y98.132
X149.764 Y97.871
Y97.74
X149.761 Y97.348
X149.762 Y96.433
X149.761 Y96.172
X149.762 Y96.041
X149.766 Y95.649
X149.772 Y95.257
X149.769 Y94.342
X149.771 Y93.95
X149.769 Y93.427
X149.768 Y93.035
X149.763 Y92.382
X149.761 Y92.251
Y92.12
X149.763 Y91.597
X149.765 Y91.336
X149.763 Y90.813
X149.758 Y90.291
X149.751 Y89.245
Y88.984
X149.752 Y88.2
X149.755 Y87.808
X149.764 Y87.023
X149.765 Y86.762
X149.764 Y85.194
X149.763 Y84.802
X149.764 Y84.41
X149.768 Y84.148
X149.772 Y83.887
X149.773 Y83.495
X149.772 Y83.103
X149.775 Y82.58
X149.773 Y82.188
X149.776 Y81.796
X149.78 Y81.534
X149.783 Y81.404
X149.784 Y81.273
X149.776 Y80.881
X149.774 Y80.489
X149.766 Y79.966
X149.755 Y78.79
X149.748 Y78.137
X149.746 Y77.744
X149.744 Y76.96
X149.748 Y76.307
X149.752 Y75.653
X149.749 Y74.347
X149.751 Y73.693
X149.752 Y73.301
Y72.909
X149.746 Y71.602
X149.744 Y70.295
Y69.119
X149.748 Y68.204
X149.752 Y67.681
X149.761 Y66.897
X149.762 Y66.505
X149.761 Y66.113
X149.767 Y65.068
X149.768 Y64.676
X149.771 Y64.153
X149.772 Y63.891
X149.766 Y63.369
X149.753 Y62.585
X149.754 Y62.124
X149.762 Y61.278
X149.771 Y60.886
X149.77 Y60.755
X149.766 Y60.363
X149.765 Y59.971
X149.775 Y59.448
X149.782 Y59.187
X149.783 Y59.056
X149.781 Y58.664
X149.788 Y58.272
X149.79 Y57.88
Y57.749
X149.788 Y57.357
X149.794 Y56.965
X149.797 Y56.573
X149.799 Y56.442
X149.806 Y56.05
X149.81 Y55.658
X149.809 Y55.397
X149.811 Y55.266
X149.82 Y55.135
X149.922 Y54.743
X149.928 Y54.715
G3 X150.526 Y54.669 I0.307 J0.08
G1 X150.653 Y54.959 Z-35.083
Z5.
X111.194 Y150.677
Z-34.765
Z-35.083
X111.388 Y150.426 Z-35.4
G3 X112.007 Y149.942 I1.253 J0.966
G1 X112.116 Y149.899
X112.197 Y149.859
X112.307 Y149.811
X112.421 Y149.774
X112.537 Y149.745
X112.655 Y149.722
X112.774 Y149.703
X112.893 Y149.688
X113.031 Y149.673
X113.193 Y149.658
X113.433 Y149.642
X113.734 Y149.628
X114.275 Y149.615
X114.85 Y149.612
X144.191
X145.917
X146.492 Y149.609
X147.067 Y149.588
X147.634 Y149.493
X148.167 Y149.275
X148.632 Y148.937
X149.006 Y148.499
X149.277 Y147.992
X149.452 Y147.444
X149.548 Y146.876
X149.59 Y146.303
X149.596 Y146.095
X149.606 Y145.961
X149.627 Y145.828
X149.661 Y145.698
X149.699 Y145.572
X149.76 Y145.311
X149.764 Y145.282
G3 X150.357 Y145.189 I0.312 J0.056
G1 X150.506 Y145.469 Z-35.083
Z5.
X111.448 Y150.659
Z-34.765
Z-35.083
X111.62 Y150.392 Z-35.4
G3 X112.197 Y149.859 I1.329 J0.859
G1 X112.246 Y149.834
X112.377 Y149.762
X112.482 Y149.704
X112.595 Y149.664
X112.711 Y149.633
X112.828 Y149.607
X112.946 Y149.585
X113.065 Y149.567
X113.2 Y149.55
X113.34 Y149.535
X113.539 Y149.518
X113.792 Y149.501
X114.113 Y149.487
X114.688 Y149.474
X115.263 Y149.472
X145.755
X146.33 Y149.47
X146.905 Y149.45
X147.472 Y149.353
X148.006 Y149.14
X148.474 Y148.805
X148.852 Y148.372
X149.128 Y147.866
X149.304 Y147.319
X149.402 Y146.752
X149.427 Y146.442
X149.453 Y146.262
X149.501 Y146.086
X149.57 Y145.917
X149.609 Y145.833
X149.623 Y145.801
X149.661 Y145.698
G3 X150.261 Y145.696 I0.3 J0.103
G1 X150.365 Y145.996 Z-35.083
Z5.
X111.714 Y150.634
Z-34.765
Z-35.083
X111.858 Y150.351 Z-35.4
G3 X112.377 Y149.762 I1.41 J0.719
G1 X112.508 Y149.676
X112.608 Y149.61
X112.719 Y149.564
X112.834 Y149.528
X112.95 Y149.498
X113.067 Y149.473
X113.185 Y149.452
X113.304 Y149.434
X113.433 Y149.417
X113.596 Y149.399
X113.777 Y149.383
X114.058 Y149.364
X114.358 Y149.35
X114.901 Y149.335
X115.476 Y149.332
X118.353
X145.392
X145.967 Y149.331
X146.543 Y149.321
X147.115 Y149.263
X147.664 Y149.092
X148.161 Y148.801
X148.575 Y148.402
X148.889 Y147.92
X149.103 Y147.386
X149.23 Y146.825
X149.249 Y146.697
X149.257 Y146.649
X149.303 Y146.457
X149.373 Y146.272
X149.467 Y146.099
G3 X150.046 Y146.256 I0.262 J0.179
G1 X150.068 Y146.572 Z-35.083
Z5.
X111.904 Y150.59
Z-34.765
Z-35.083
X112.029 Y150.298 Z-35.4
G3 X112.508 Y149.676 I1.455 J0.624
G1 X112.638 Y149.58
X112.735 Y149.51
X112.845 Y149.46
X112.958 Y149.42
X113.073 Y149.387
X113.19 Y149.359
X113.307 Y149.335
X113.425 Y149.314
X113.554 Y149.295
X113.695 Y149.277
X113.865 Y149.259
X114.067 Y149.241
X114.358 Y149.222
X114.685 Y149.208
X115.261 Y149.195
X115.836 Y149.192
X121.014
X145.177
X145.752 Y149.191
X146.327 Y149.184
X146.9 Y149.132
X147.454 Y148.976
X147.959 Y148.701
X148.385 Y148.314
X148.712 Y147.841
X148.938 Y147.312
X149.072 Y146.806
X149.139 Y146.622
X149.229 Y146.448
X149.341 Y146.287
G3 X149.899 Y146.507 I0.241 J0.207
G1 X149.886 Y146.824 Z-35.083
Z5.
X112.128 Y150.55
Z-34.765
Z-35.083
X112.224 Y150.247 Z-35.4
G3 X112.638 Y149.58 I1.509 J0.476
G1 X112.737 Y149.493
X112.829 Y149.417
X112.936 Y149.362
X113.048 Y149.318
X113.162 Y149.281
X113.278 Y149.249
X113.395 Y149.222
X113.512 Y149.199
X113.631 Y149.178
X113.767 Y149.158
X113.914 Y149.139
X114.106 Y149.119
X114.302 Y149.102
X114.611 Y149.082
X114.954 Y149.068
X115.529 Y149.055
X116.104 Y149.052
X120.131
X145.445 Y149.051
X146.02 Y149.048
X146.595 Y149.016
X147.156 Y148.891
X147.678 Y148.648
X148.128 Y148.29
X148.484 Y147.839
X148.742 Y147.324
X148.846 Y147.029
X148.873 Y146.958
X148.965 Y146.759
X149.085 Y146.576
X149.231 Y146.413
G3 X149.768 Y146.681 I0.222 J0.227
G1 X149.727 Y146.996 Z-35.083
Z5.
X112.235 Y150.467
Z-34.765
Z-35.083
X112.327 Y150.163 Z-35.4
G3 X112.737 Y149.493 I1.513 J0.463
G1 X112.769 Y149.463
X112.825 Y149.408
X112.914 Y149.327
X113.018 Y149.267
X113.127 Y149.217
X113.24 Y149.176
X113.355 Y149.141
X113.471 Y149.111
X113.588 Y149.085
X113.706 Y149.062
X113.824 Y149.042
X113.96 Y149.022
X114.121 Y149.001
X114.313 Y148.981
X114.526 Y148.963
X114.832 Y148.943
X115.2 Y148.927
X115.776 Y148.915
X116.351 Y148.912
X119.227
X145.116 Y148.911
X145.691 Y148.909
X146.266 Y148.892
X146.835 Y148.801
X147.372 Y148.596
X147.848 Y148.273
X148.237 Y147.849
X148.534 Y147.357
X148.639 Y147.129
X148.671 Y147.063
X148.766 Y146.899
X148.882 Y146.75
X149.018 Y146.618
X149.231 Y146.413
X149.658 Y146.416
X149.744 Y146.547 Z-35.358
X149.761 Y146.649 Z-35.262
Z-35.261
X149.756 Y146.704 Z-35.083
Z5.
X112.369 Y150.404
Z-34.765
Z-35.083
X112.448 Y150.096 Z-35.4
G3 X112.825 Y149.408 I1.533 J0.392
G1 X112.871 Y149.362
X112.9 Y149.328
X112.982 Y149.24
X113.082 Y149.174
X113.19 Y149.121
X113.301 Y149.075
X113.414 Y149.037
X113.53 Y149.003
X113.646 Y148.974
X113.763 Y148.948
X113.881 Y148.926
X114.009 Y148.904
X114.147 Y148.884
X114.319 Y148.862
X114.514 Y148.842
X114.746 Y148.823
X115.06 Y148.803
X115.45 Y148.787
X116.025 Y148.775
X116.601 Y148.772
X119.477
X144.791
X145.366 Y148.77
X145.941 Y148.76
X146.513 Y148.701
X147.063 Y148.532
X147.562 Y148.245
X147.982 Y147.852
X148.32 Y147.386
X148.417 Y147.22
X148.538 Y147.048
X148.679 Y146.893
X148.839 Y146.756
X148.97 Y146.658
X149.018 Y146.618
X149.444 Y146.647
X149.521 Y146.784 Z-35.358
X149.532 Y146.867 Z-35.288
Z-35.287
X149.523 Y146.941 Z-35.083
Z5.
X112.528 Y150.358
Z-34.765
Z-35.083
X112.581 Y150.045 Z-35.4
G3 X112.9 Y149.328 I1.561 J0.263
G1 X112.981 Y149.231
X112.996 Y149.211
X113.072 Y149.118
X113.174 Y149.056
X113.282 Y149.003
X113.393 Y148.957
X113.507 Y148.918
X113.621 Y148.883
X113.738 Y148.853
X113.854 Y148.826
X113.972 Y148.802
X114.09 Y148.781
X114.232 Y148.758
X114.389 Y148.737
X114.576 Y148.715
X114.808 Y148.693
X115.059 Y148.675
X115.441 Y148.655
X115.91 Y148.64
X116.485 Y148.633
X117.061 Y148.632
X144.675
X145.251 Y148.631
X145.826 Y148.62
X146.397 Y148.552
X146.946 Y148.379
X147.444 Y148.09
X147.866 Y147.7
X148.232 Y147.232
X148.352 Y147.099
X148.488 Y146.98
X148.637 Y146.879
X148.839 Y146.756
G3 X149.288 Y147.154 I0.155 J0.277
G1 X149.167 Y147.448 Z-35.083
Z5.
X112.701 Y150.266
Z-34.765
Z-35.083
X112.73 Y149.95 Z-35.4
G3 X112.996 Y149.211 I1.576 J0.149
G1 X113.03 Y149.164
X113.074 Y149.101
X113.141 Y149.001
X113.245 Y148.941
X113.353 Y148.888
X113.463 Y148.842
X113.576 Y148.802
X113.691 Y148.766
X113.807 Y148.734
X113.923 Y148.706
X114.041 Y148.681
X114.159 Y148.658
X114.299 Y148.635
X114.455 Y148.611
X114.623 Y148.59
X114.852 Y148.566
X115.085 Y148.546
X115.409 Y148.525
X115.813 Y148.508
X116.388 Y148.495
X116.963 Y148.492
X118.689
X144.578
X145.153 Y148.491
X145.729 Y148.477
X146.299 Y148.4
X146.845 Y148.221
X147.341 Y147.929
X147.768 Y147.543
X147.932 Y147.359
X147.98 Y147.307
X148.121 Y147.174
X148.277 Y147.061
X148.447 Y146.969
X148.578 Y146.908
X148.637 Y146.879
G3 X149.052 Y147.311 I0.133 J0.288
G1 X148.908 Y147.594 Z-35.083
Z5.
X112.871 Y150.177
Z-34.765
Z-35.083
X112.873 Y149.86 Z-35.4
G3 X113.074 Y149.101 I1.583 J0.012
G1 X113.139 Y148.992
X113.207 Y148.893
X113.309 Y148.83
X113.416 Y148.776
X113.527 Y148.729
X113.639 Y148.687
X113.753 Y148.65
X113.868 Y148.617
X113.985 Y148.587
X114.102 Y148.56
X114.219 Y148.536
X114.355 Y148.512
X114.511 Y148.487
X114.67 Y148.465
X114.876 Y148.441
X115.107 Y148.419
X115.382 Y148.398
X115.776 Y148.376
X116.226 Y148.361
X116.801 Y148.354
X117.376 Y148.352
X130.033
X144.416
X144.991 Y148.351
X145.566 Y148.339
X146.137 Y148.265
X146.685 Y148.09
X147.187 Y147.808
X147.631 Y147.443
X147.719 Y147.361
X147.769 Y147.317
X147.936 Y147.19
X148.12 Y147.089
X148.316 Y147.016
X148.447 Y146.969
X148.546 Y146.953
X148.837 Y147.143
X148.863 Y147.271 Z-35.372
X148.825 Y147.422 Z-35.214
X148.81 Y147.447 Z-35.083
Z5.
X112.936 Y150.069
Z-34.765
Z-35.083
X112.939 Y149.751 Z-35.4
G3 X113.139 Y148.992 I1.583 J0.012
G1 X113.153 Y148.97
X113.193 Y148.895
X113.255 Y148.792
X113.356 Y148.728
X113.462 Y148.671
X113.571 Y148.622
X113.682 Y148.578
X113.796 Y148.538
X113.911 Y148.503
X114.026 Y148.472
X114.143 Y148.443
X114.26 Y148.418
X114.389 Y148.393
X114.538 Y148.367
X114.69 Y148.343
X114.877 Y148.319
X115.096 Y148.295
X115.349 Y148.272
X115.677 Y148.25
X116.048 Y148.232
X116.623 Y148.217
X117.199 Y148.213
X118.349 Y148.212
X144.238
X144.813 Y148.211
X145.389 Y148.202
X145.96 Y148.133
X146.511 Y147.968
X147.021 Y147.702
X147.528 Y147.332
X147.703 Y147.22
X147.893 Y147.134
X148.093 Y147.075
X148.186 Y147.054
X148.316 Y147.016
G3 X148.646 Y147.517 I0.078 J0.308
G1 X148.453 Y147.769 Z-35.083
Z5.
X113.047 Y149.981
Z-34.765
Z-35.083
X113.033 Y149.664 Z-35.4
G3 X113.193 Y148.895 I1.581 J-0.072
G1 X113.223 Y148.839
X113.246 Y148.785
X113.272 Y148.73
X113.366 Y148.656
X113.467 Y148.592
X113.574 Y148.536
X113.683 Y148.487
X113.795 Y148.444
X113.908 Y148.405
X114.023 Y148.37
X114.139 Y148.338
X114.255 Y148.31
X114.374 Y148.284
X114.506 Y148.258
X114.647 Y148.233
X114.817 Y148.207
X115.003 Y148.182
X115.22 Y148.158
X115.489 Y148.134
X115.781 Y148.113
X116.193 Y148.093
X116.768 Y148.077
X117.344 Y148.073
X117.919 Y148.072
X123.143
X123.192
X123.241 Y148.075
X123.29 Y148.079
X123.486 Y148.098
X123.616 Y148.104
X123.878 Y148.107
X124.008 Y148.109
X124.4 Y148.123
X124.792 Y148.153
X124.923 Y148.16
X125.185 Y148.171
X125.315 Y148.168
X125.577 Y148.143
X125.616 Y148.137
X125.832 Y148.116
X125.987 Y148.105
X126.215 Y148.092
X126.605 Y148.079
X127.18 Y148.072
X128.331
X144.44 Y148.071
X145.015 Y148.067
X145.589 Y148.03
X146.152 Y147.913
X146.685 Y147.697
X147.178 Y147.399
X147.286 Y147.329
X147.448 Y147.244
X147.62 Y147.179
X147.797 Y147.135
X147.924 Y147.112
X148.093 Y147.075
G3 X148.389 Y147.596 I0.058 J0.312
G1 X148.18 Y147.835 Z-35.083
Z5.
X124.656 Y148.665
Z-34.765
Z-35.083
X124.903 Y148.465 Z-35.4
G3 X125.616 Y148.137 I0.997 J1.229
G1 X125.707 Y148.123
X125.838 Y148.095
X125.877 Y148.083
X125.993 Y148.053
X126.11 Y148.028
X126.229 Y148.008
X126.348 Y147.993
X126.478 Y147.98
X126.651 Y147.967
X126.87 Y147.955
X127.237 Y147.941
X127.812 Y147.933
X128.387 Y147.932
X143.921
X144.496 Y147.931
X145.071 Y147.919
X145.643 Y147.86
X146.201 Y147.717
X146.727 Y147.484
X146.947 Y147.36
X147.043 Y147.31
X147.24 Y147.223
X147.449 Y147.168
X147.663 Y147.146
G3 X147.875 Y147.707 I0.008 J0.317
G1 X147.631 Y147.91 Z-35.083
Z5.
X125.013 Y148.757
Z-34.765
Z-35.083
X125.224 Y148.52 Z-35.4
G3 X125.877 Y148.083 I1.179 J1.055
G1 X125.969 Y148.054
X126.099 Y148.004
X126.121 Y147.995
X126.233 Y147.951
X126.349 Y147.921
X126.467 Y147.898
X126.585 Y147.879
X126.704 Y147.863
X126.825 Y147.85
X126.988 Y147.836
X127.227 Y147.821
X127.517 Y147.807
X128.081 Y147.794
X128.656 Y147.792
X143.614
X144.19 Y147.791
X144.765 Y147.784
X145.339 Y147.747
X145.904 Y147.637
X146.445 Y147.443
X146.695 Y147.323
X146.763 Y147.292
X146.968 Y147.215
X147.183 Y147.167
X147.402 Y147.15
X147.532 Y147.149
X147.663 Y147.146
G3 X147.855 Y147.714 I-0.003 J0.317
G1 X147.604 Y147.909 Z-35.083
Z5.
X125.339 Y148.762
Z-34.765
Z-35.083
X125.522 Y148.503 Z-35.4
G3 X126.121 Y147.995 I1.291 J0.915
G1 X126.344 Y147.896
X126.456 Y147.852
X126.57 Y147.815
X126.687 Y147.787
X126.805 Y147.764
X126.923 Y147.745
X127.042 Y147.729
X127.174 Y147.715
X127.358 Y147.698
X127.59 Y147.683
X127.877 Y147.669
X128.403 Y147.655
X128.978 Y147.652
X134.156
X143.936 Y147.651
X144.511 Y147.647
X145.086 Y147.621
X145.655 Y147.534
X146.206 Y147.369
X146.449 Y147.271
X146.565 Y147.226
X146.731 Y147.18
X146.901 Y147.153
X147.073 Y147.145
X147.402 Y147.15
G3 X147.569 Y147.726 I-0.016 J0.317
G1 X147.31 Y147.91 Z-35.083
Z5.
X125.562 Y148.663
Z-34.765
Z-35.083
X125.745 Y148.404 Z-35.4
G3 X126.344 Y147.896 I1.291 J0.915
G1 X126.361 Y147.888
X126.491 Y147.818
X126.513 Y147.805
X126.618 Y147.746
X126.731 Y147.707
X126.847 Y147.676
X126.964 Y147.65
X127.082 Y147.628
X127.201 Y147.609
X127.336 Y147.592
X127.474 Y147.577
X127.669 Y147.56
X127.917 Y147.543
X128.228 Y147.529
X128.79 Y147.515
X129.366 Y147.512
X136.269
X143.748 Y147.511
X144.324 Y147.508
X144.899 Y147.488
X145.469 Y147.412
X146.026 Y147.267
X146.155 Y147.223
X146.314 Y147.178
X146.477 Y147.152
X146.641 Y147.143
X147.045 Y147.145
X147.073
G3 X147.242 Y147.721 I-0.016 J0.317
G1 X146.983 Y147.905 Z-35.083
Z5.
X125.844 Y148.673
Z-34.765
Z-35.083
X125.99 Y148.391 Z-35.4
G3 X126.513 Y147.805 I1.405 J0.728
G1 X126.53 Y147.794
X126.622 Y147.73
X126.721 Y147.662
X126.832 Y147.615
X126.946 Y147.577
X127.061 Y147.546
X127.179 Y147.52
X127.296 Y147.498
X127.415 Y147.479
X127.538 Y147.462
X127.697 Y147.444
X127.868 Y147.428
X128.126 Y147.409
X128.413 Y147.394
X128.873 Y147.379
X129.448 Y147.373
X130.598 Y147.372
X143.255
X143.831 Y147.371
X144.406 Y147.363
X144.98 Y147.327
X145.548 Y147.234
X145.72 Y147.189
X145.845 Y147.163
X145.971 Y147.147
X146.098 Y147.142
X146.641 Y147.143
G3 X146.817 Y147.717 I-0.012 J0.317
G1 X146.56 Y147.904 Z-35.083
Z5.
X126.034 Y148.654
Z-34.765
Z-35.083
X126.154 Y148.36 Z-35.4
G3 X126.622 Y147.73 I1.465 J0.598
G1 X126.71 Y147.663
X126.734 Y147.644
X126.83 Y147.572
X126.937 Y147.518
X127.049 Y147.475
X127.164 Y147.44
X127.28 Y147.41
X127.397 Y147.385
X127.515 Y147.363
X127.634 Y147.344
X127.768 Y147.326
X127.926 Y147.307
X128.114 Y147.289
X128.362 Y147.271
X128.659 Y147.255
X129.131 Y147.24
X129.707 Y147.233
X130.282 Y147.232
X136.293
G3 X136.436 Y147.814 I-0.029 J0.316
G1 X136.17 Y147.987 Z-35.083
Z5.
X126.184 Y148.592
Z-34.765
Z-35.083
X126.292 Y148.293 Z-35.4
G3 X126.734 Y147.644 I1.488 J0.538
G1 X126.753 Y147.628
X126.833 Y147.552
X126.923 Y147.473
X127.029 Y147.417
X127.14 Y147.371
X127.254 Y147.332
X127.369 Y147.3
X127.486 Y147.271
X127.603 Y147.247
X127.721 Y147.226
X127.771 Y147.218
X127.824 Y147.211
X127.876 Y147.206
X127.929 Y147.204
X128.25 Y147.518 Z-35.2
X128.16 Y147.743
X128.02 Y147.826
X127.148 Y148.078
X127.063 Y148.091
X126.838 Y148.001
X126.833 Y147.552 Z-35.4
X126.853 Y147.532
X126.934 Y147.45
X126.961 Y147.423
X126.982 Y147.402
X127.07 Y147.32
X127.246 Y147.257
X127.43 Y147.22
X127.617 Y147.207
X127.923 Y147.535 Z-35.2
X127.823 Y147.756
X127.677 Y147.833
X127.29 Y147.923
X127.234 Y147.931
X127.006 Y147.85
X126.901 Y147.615 Z-35.306
Y147.614 Z-35.307
X126.982 Y147.402 Z-35.4
X127.014 Y147.369
X127.066 Y147.318
X127.093 Y147.292
X127.115 Y147.271
X127.17 Y147.238
X127.461 Y147.383
X127.252 Y147.633
X127.058 Y147.372
X127.115 Y147.271
X127.145 Y147.251
X127.178 Y147.234
X127.21 Y147.222
X127.243 Y147.213
X127.276 Y147.208
X127.406 Y147.207
X127.798
X127.929 Y147.204
X128.19 Y147.191
X128.321 Y147.183
X128.713 Y147.15
X128.844
X129.628 Y147.162
X130.02 Y147.166
X130.281 Y147.164
X130.543 Y147.161
X130.935 Y147.154
X132.242 Y147.139
X132.634 Y147.136
X133.104 Y147.14
X133.549 Y147.152
X133.941 Y147.159
X134.333 Y147.164
X134.463
X134.725 Y147.16
X134.856 Y147.156
X134.986 Y147.145
X135.117 Y147.144
X135.248 Y147.146
X135.64 Y147.158
X135.77 Y147.165
X136.162 Y147.224
X136.293 Y147.232
X136.424
X136.463 Y147.23
X137.039 Y147.233
X137.614 Y147.232
X143.367 Y147.231
X143.942 Y147.229
X144.517 Y147.212
X144.901 Y147.177
X144.964 Y147.173
G3 X145.158 Y147.741 I-0.001 J0.317
G1 X144.908 Y147.936 Z-35.083
Z5.
X135.455 Y147.66
Z-34.765
Z-35.083
X135.721 Y147.486 Z-35.4
G3 X136.463 Y147.23 I0.87 J1.322
G1 X136.554 Y147.226
X136.947 Y147.186
X137.077 Y147.178
X137.469 Y147.164
X137.861 Y147.155
X138.253 Y147.149
X138.384 Y147.15
X138.776 Y147.165
X139.168 Y147.175
X139.56 Y147.177
X139.691 Y147.176
X140.475 Y147.155
X140.867 Y147.151
X140.998
X141.782 Y147.159
X142.174
X142.566 Y147.156
X142.697
X143.089 Y147.166
X143.481 Y147.181
X143.612 Y147.185
X144.004 Y147.19
X144.396 Y147.188
X144.919 Y147.175
X145.18 Y147.167
X145.311 Y147.16
X145.441 Y147.149
X145.572 Y147.143
X145.703 Y147.141
X146.098 Y147.142
G3 X146.273 Y147.715 I-0.012 J0.317
G1 X146.016 Y147.903 Z-35.083
Z5.
X113.201 Y149.879
Z-34.765
Z-35.083
X113.157 Y149.565 Z-35.4
G3 X113.246 Y148.785 I1.568 J-0.218
G1 X113.268 Y148.732
X113.32 Y148.624
X113.414 Y148.55
X113.515 Y148.485
X113.62 Y148.428
X113.729 Y148.377
X113.84 Y148.331
X113.953 Y148.291
X114.067 Y148.254
X114.182 Y148.221
X114.299 Y148.191
X114.415 Y148.164
X114.539 Y148.138
X114.684 Y148.111
X114.837 Y148.085
X115.015 Y148.059
X115.226 Y148.033
X115.452 Y148.01
X115.736 Y147.987
X116.124 Y147.963
X116.528 Y147.947
X117.103 Y147.936
X117.679 Y147.933
X118.829 Y147.932
X122.452
X122.612 Y147.94
X122.77 Y147.966
X122.925 Y148.008
G3 X122.911 Y148.608 I-0.111 J0.297
G1 X122.608 Y148.705 Z-35.083
Z5.
X113.223 Y149.827
Z-34.765
Z-35.083
X113.179 Y149.513 Z-35.4
G3 X113.268 Y148.732 I1.568 J-0.218
G1 X113.292 Y148.674
X113.301 Y148.645
X113.321 Y148.588
X113.4 Y148.499
X113.494 Y148.424
X113.595 Y148.359
X113.701 Y148.302
X113.809 Y148.251
X113.92 Y148.205
X114.033 Y148.164
X114.147 Y148.127
X114.262 Y148.093
X114.379 Y148.063
X114.496 Y148.035
X114.619 Y148.009
X114.757 Y147.982
X114.917 Y147.954
X115.089 Y147.928
X115.284 Y147.903
X115.539 Y147.876
X115.803 Y147.852
X116.121 Y147.831
X116.566 Y147.811
X117.141 Y147.797
X117.716 Y147.793
X118.867 Y147.792
X122.059
X122.115 Y147.793
X122.315 Y147.81
X122.51 Y147.855
X122.698 Y147.924
G3 X122.624 Y148.52 I-0.14 J0.285
G1 X122.313 Y148.586 Z-35.083
Z5.
X113.372 Y149.738
Z-34.765
Z-35.083
X113.295 Y149.43 Z-35.4
G3 X113.301 Y148.645 I1.536 J-0.383
G1 X113.321 Y148.578
X113.36 Y148.464
X113.446 Y148.382
X113.542 Y148.309
X113.643 Y148.245
X113.749 Y148.187
X113.857 Y148.135
X113.967 Y148.089
X114.08 Y148.047
X114.194 Y148.009
X114.308 Y147.974
X114.336 Y147.966
X114.504 Y147.931
X114.675 Y147.915
X114.847 Y147.918
X115.127 Y148.269 Z-35.2
X115.01 Y148.481
X114.918 Y148.533
X113.794 Y148.933
X113.735 Y148.954
X113.552 Y148.963
X113.321 Y148.578 Z-35.4
X113.352 Y148.469
X113.391 Y148.356
X113.478 Y148.274
X113.574 Y148.201
X113.675 Y148.136
X113.78 Y148.078
X113.887 Y148.025
X113.908 Y148.016
X114.163 Y147.931
X114.429 Y147.894
X114.697 Y147.905
X114.958 Y148.27 Z-35.2
X114.831 Y148.475
X114.745 Y148.519
X113.825 Y148.825
X113.76 Y148.847
X113.583 Y148.854
X113.352 Y148.469 Z-35.4
X113.388 Y148.343
X113.407 Y148.286
X113.487 Y148.197
X113.578 Y148.118
X113.676 Y148.049
X113.688 Y148.043
X113.977 Y147.921
X114.286 Y147.87
X114.599 Y147.892
X114.86 Y148.257 Z-35.2
X114.732 Y148.463
X114.624 Y148.513
X113.863 Y148.705
X113.774 Y148.727
X113.619 Y148.728
X113.388 Y148.343 Z-35.4
X113.396 Y148.316
X113.404 Y148.282
X113.437 Y148.167
X113.521 Y148.081
X113.737 Y147.956
X113.974 Y147.876
X114.221 Y147.846
X114.47 Y147.868
X114.71 Y148.247 Z-35.2
X114.571 Y148.445
X114.476 Y148.486
X113.896 Y148.627
X113.79 Y148.653
X113.652 Y148.656
X113.404 Y148.282 Z-35.4
X113.423 Y148.203
X113.43 Y148.164
X113.436 Y148.135
X113.506 Y148.037
X113.599 Y147.961
X113.797 Y147.872
X114.009 Y147.824
X114.226 Y147.82
X114.44 Y147.859
X114.791 Y148.19 Z-35.2
X114.829 Y148.434
X114.617 Y148.842
G3 X113.685 Y148.832 I-0.46 J-0.574
G1 X113.525 Y148.644
X113.43 Y148.164 Z-35.4
X113.436 Y148.131
X113.449 Y148.073
X113.513 Y147.971
X113.608 Y147.897
X113.834 Y147.81
X114.075 Y147.784
X114.315 Y147.822
X114.646 Y148.169 Z-35.2
X114.655 Y148.415
X114.508 Y148.681
G3 X113.738 Y148.768 I-0.442 J-0.459
G1 X113.555 Y148.602
X113.436 Y148.131 Z-35.4
X113.449 Y148.055
X113.46 Y147.996
X113.529 Y147.898
X113.741 Y147.794
X113.973 Y147.757
X114.206 Y147.79
X114.495 Y148.162 Z-35.2
X114.442 Y148.401
X114.373 Y148.492
G3 X113.831 Y148.629 I-0.384 J-0.382
G1 X113.618 Y148.506
X113.449 Y148.055 Z-35.4
X113.459 Y147.988
X113.463 Y147.953
X113.467 Y147.924
X113.477 Y147.895
X113.569 Y147.817
X113.74 Y147.751
X113.923 Y147.731
X114.105 Y147.76
X114.32 Y148.159 Z-35.2
X114.197 Y148.34
X114.176 Y148.354
X113.903 Y148.43
X113.67 Y148.353
X113.467 Y147.924 Z-35.4
X113.476 Y147.892
X113.488 Y147.859
X113.505 Y147.826
X113.515 Y147.813
X113.546 Y147.775
X113.581 Y147.741
X113.619 Y147.711
X113.795 Y147.752
X113.779 Y147.932
X113.726 Y147.984
X113.55 Y147.997
X113.505 Y147.826
X113.526 Y147.794
X113.553 Y147.763
X113.586 Y147.734
X113.619 Y147.711
X113.651 Y147.692
X113.684 Y147.678
X113.713 Y147.669
X113.762 Y147.662
X113.788 Y147.66
X113.815
X113.994 Y147.849
X113.82 Y148.078
X113.578 Y147.923
X113.713 Y147.669
X113.741 Y147.663
X113.778 Y147.659
X113.815 Y147.66
X113.845 Y147.663
X113.895 Y147.676
X114.012 Y147.725
X114.076 Y147.751
X114.404 Y147.849
X114.468 Y147.867
X114.599 Y147.892
X114.729 Y147.909
X114.86 Y147.919
X114.991 Y147.92
X115.122 Y147.912
X115.252 Y147.898
X115.514 Y147.861
X115.644 Y147.841
X115.906 Y147.785
X116.133 Y147.748
X116.252 Y147.731
X116.377 Y147.717
X116.55 Y147.7
X116.737 Y147.687
X117.016 Y147.673
X117.484 Y147.658
X118.059 Y147.653
X119.209 Y147.652
X121.511
X121.673
X121.823 Y147.656
X121.875 Y147.658
X122.113 Y147.688
X122.342 Y147.755
X122.558 Y147.858
X122.658 Y148.296 Z-35.2
X122.461 Y148.436
X122.388 Y148.445
X115.982 Y148.41
X115.819 Y148.365
X115.675 Y148.17
X115.906 Y147.785 Z-35.4
X116.036 Y147.757
X116.167 Y147.719
X116.298 Y147.68
X116.414 Y147.651
X116.531 Y147.625
X116.65 Y147.605
X116.769 Y147.588
X116.907 Y147.573
X117.053 Y147.56
X117.25 Y147.546
X117.546 Y147.531
X118.027 Y147.517
X118.602 Y147.512
X119.753
X121.349
X121.469 Y147.514
X121.604 Y147.52
X121.734 Y147.529
X121.971 Y147.572
X122.198 Y147.653
X122.41 Y147.77
X122.484 Y148.212 Z-35.2
X122.279 Y148.341
X122.223 Y148.346
X116.396 Y148.298
X116.257 Y148.265
X116.098 Y148.082
X116.298 Y147.68 Z-35.4
X116.428 Y147.641
X116.559 Y147.594
X116.599 Y147.579
X116.713 Y147.542
X116.829 Y147.511
X116.946 Y147.486
X117.064 Y147.466
X117.183 Y147.45
X117.32 Y147.435
X117.498 Y147.419
X117.692 Y147.405
X118. Y147.39
X118.487 Y147.376
X119.063 Y147.372
X120.789
X121.092
X121.254 Y147.376
X121.374 Y147.382
X121.494 Y147.391
X121.54 Y147.396
X121.792 Y147.443
X122.032 Y147.534
X122.254 Y147.664
X122.313 Y148.108 Z-35.2
X122.104 Y148.23
X122.058 Y148.233
X116.719 Y148.189
X116.601 Y148.165
X116.429 Y147.995
X116.599 Y147.579 Z-35.4
X116.82 Y147.495
X116.86 Y147.477
X116.888 Y147.465
X116.923 Y147.45
X117.035 Y147.407
X117.151 Y147.377
X117.268 Y147.353
X117.315 Y147.345
X117.395 Y147.333
X117.475 Y147.326
X117.556 Y147.324
X117.864 Y147.65 Z-35.2
X117.765 Y147.871
X117.607 Y147.953
X117.121 Y148.047
X116.955 Y148.035
X116.775 Y147.874
X116.923 Y147.45 Z-35.4
X116.951 Y147.437
X117.082 Y147.374
X117.147 Y147.345
X117.18 Y147.335
X117.213 Y147.328
X117.343 Y147.325
X117.735 Y147.323
X117.866 Y147.321
X118.258 Y147.294
X118.291 Y147.287
X118.409 Y147.268
X118.633 Y147.255
X118.991 Y147.242
X119.566 Y147.233
X120.142 Y147.232
X120.717
X120.943 Y147.235
X121.071 Y147.239
X121.191 Y147.246
X121.311 Y147.256
X121.43 Y147.27
X121.442 Y147.271
X121.704 Y147.336
X121.949 Y147.446
X122.171 Y147.598
X122.197 Y148.046 Z-35.2
X121.98 Y148.152
X121.939
X118.345 Y147.912
X118.201 Y147.866
X118.058 Y147.671
X118.291 Y147.287 Z-35.4
X118.65 Y147.211
X118.672 Y147.204
X118.705 Y147.194
X118.728 Y147.186
X118.845 Y147.156
X118.901 Y147.151
X118.958 Y147.148
X119.015
X119.317 Y147.479 Z-35.2
X119.215 Y147.699
X119.039 Y147.78
X118.873 Y147.801
X118.697 Y147.772
X118.535 Y147.592
X118.728 Y147.186 Z-35.4
X118.781 Y147.17
X118.846 Y147.151
X118.879 Y147.147
X118.911
X119.173 Y147.149
X119.565 Y147.161
X119.696 Y147.162
X120.48 Y147.16
X120.872 Y147.163
X121.074 Y147.16
X121.194 Y147.164
X121.503 Y147.215
X121.795 Y147.329
X122.055 Y147.502
X122.082 Y147.951 Z-35.2
X121.864 Y148.057
X121.74 Y148.039
X120.987 Y147.777
X120.879 Y147.713
X120.775 Y147.495
X121.074 Y147.16 Z-35.4
X121.336 Y147.156
X121.368 Y147.155
X121.395
X121.434
X121.554 Y147.16
X121.687 Y147.211
X121.809 Y147.283
X121.918 Y147.375
X121.903 Y147.823 Z-35.2
X121.677 Y147.909
X121.544 Y147.876
X121.304 Y147.756
X121.229 Y147.704
X121.129 Y147.484
X121.434 Y147.155 Z-35.4
X121.561
X121.591
X121.623 Y147.159
X121.697 Y147.181
X121.78 Y147.539
X121.412 Y147.53
X121.512 Y147.176
X121.623 Y147.159
X121.656 Y147.167
X121.689 Y147.177
X121.721 Y147.191
X121.754 Y147.209
X121.787 Y147.233
X121.824 Y147.271
X121.917 Y147.374
X121.945 Y147.402
X122.048 Y147.496
X122.179 Y147.605
X122.253 Y147.663
X122.309 Y147.703
X122.44 Y147.79
X122.571 Y147.866
X122.701 Y147.926
X122.832 Y147.978
X122.963 Y148.021
X123.103 Y148.055
X123.224 Y148.072
X123.29 Y148.079
G3 X123.41 Y148.667 I-0.042 J0.315
G1 X123.137 Y148.828 Z-35.083
Z5.
X-0.496 Y144.566
Z-34.765
Z-35.083
X-0.27 Y144.79 Z-35.4
G3 X0.134 Y145.463 I-1.113 J1.126
G1 X0.163 Y145.572
X0.203 Y145.703
X0.216 Y145.735
X0.256 Y145.848
X0.281 Y145.965
X0.301 Y146.083
X0.319 Y146.206
X0.34 Y146.378
X0.398 Y146.95
X0.477 Y147.52
X0.673 Y148.061
X0.989 Y148.542
X1.409 Y148.935
X1.905 Y149.227
X2.446 Y149.421
X3.011 Y149.533
X3.584 Y149.585
X4.159 Y149.604
X4.734 Y149.61
X5.309 Y149.611
X20.843 Y149.612
X47.882
X97.934
X109.202
X109.349 Y149.615
X109.38 Y149.616
X109.602 Y149.641
X109.818 Y149.696
X110.025 Y149.782
X110.155 Y149.847
X110.321 Y150.125
Y150.126
X110.296 Y150.249
X110.202 Y150.374 Z-35.358
X110.059 Y150.439 Z-35.111
X110.058 Z-35.083
Z5.
X-0.524 Y144.927
Z-34.765
Z-35.083
X-0.272 Y145.119 Z-35.4
G3 X0.216 Y145.735 I-0.958 J1.26
G1 X0.246 Y145.808
X0.291 Y145.905
X0.336 Y146.017
X0.374 Y146.13
X0.403 Y146.247
X0.429 Y146.364
X0.474 Y146.607
X0.569 Y147.175
X0.727 Y147.728
X1.004 Y148.232
X1.39 Y148.659
X1.862 Y148.988
X2.389 Y149.217
X2.947 Y149.357
X3.518 Y149.43
X4.093 Y149.459
X4.668 Y149.468
X5.243 Y149.471
X7.544 Y149.472
X48.391
X98.443
X108.798
X108.931 Y149.473
X109.071 Y149.477
X109.191 Y149.483
X109.227 Y149.486
X109.452 Y149.522
X109.669 Y149.592
X109.873 Y149.694
X110.025 Y149.782
G3 X109.891 Y150.367 I-0.168 J0.269
G1 X109.576 Y150.401 Z-35.083
Z5.
X-0.488 Y145.135
Z-34.765
Z-35.083
X-0.226 Y145.314 Z-35.4
G3 X0.291 Y145.905 I-0.895 J1.305
G1 X0.318 Y145.964
X0.377 Y146.07
X0.392 Y146.095
X0.452 Y146.199
X0.493 Y146.311
X0.528 Y146.426
X0.559 Y146.542
X0.697 Y147.1
X0.882 Y147.645
X1.175 Y148.14
X1.573 Y148.555
X2.052 Y148.875
X2.584 Y149.094
X3.144 Y149.225
X3.715 Y149.292
X4.29 Y149.319
X4.865 Y149.328
X5.44 Y149.331
X7.166 Y149.332
X49.164
X99.215
X108.42
X108.679 Y149.334
X108.799 Y149.337
X108.919 Y149.344
X109.039 Y149.353
X109.158 Y149.366
X109.174 Y149.368
X109.384 Y149.421
X109.582 Y149.508
X109.763 Y149.628
G3 X109.595 Y150.204 I-0.184 J0.259
G1 X109.278 Y150.219 Z-35.083
Z5.
X-0.489 Y145.443
Z-34.765
Z-35.083
X-0.205 Y145.584 Z-35.4
G3 X0.392 Y146.095 I-0.7 J1.419
G1 X0.476 Y146.225
X0.493 Y146.247
X0.562 Y146.346
X0.61 Y146.456
X0.653 Y146.568
X0.847 Y147.11
X1.069 Y147.64
X1.397 Y148.113
X1.82 Y148.503
X2.315 Y148.796
X2.856 Y148.993
X3.42 Y149.105
X3.993 Y149.16
X4.568 Y149.181
X5.143 Y149.189
X5.718 Y149.191
X8.019 Y149.192
X49.441
X99.493
X108.123
X108.397 Y149.193
X108.577 Y149.198
X108.703 Y149.205
X108.822 Y149.213
X108.88 Y149.219
X109.152 Y149.275
X109.409 Y149.381
X109.641 Y149.532
X109.763 Y149.628
G3 X109.547 Y150.187 I-0.205 J0.242
G1 X109.229 Y150.176 Z-35.083
Z5.
X-0.438 Y145.67
Z-34.765
Z-35.083
X-0.142 Y145.786 Z-35.4
G3 X0.493 Y146.247 I-0.582 J1.472
G1 X0.577 Y146.356
X0.596 Y146.377
X0.672 Y146.47
X0.731 Y146.574
X0.795 Y146.702
X1.043 Y147.221
X1.323 Y147.723
X1.701 Y148.157
X2.162 Y148.502
X2.681 Y148.75
X3.234 Y148.908
X3.803 Y148.994
X4.377 Y149.032
X4.952 Y149.045
X5.527 Y149.05
X6.103 Y149.051
X19.91 Y149.052
X49.826
X99.878
X107.932
X108.221 Y149.055
X108.38 Y149.06
X108.499 Y149.066
X108.619 Y149.076
X108.719 Y149.088
X109. Y149.148
X109.264 Y149.26
X109.502 Y149.422
X109.641 Y149.532
G3 X109.425 Y150.091 I-0.205 J0.242
G1 X109.107 Y150.08 Z-35.083
Z5.
X-0.376 Y145.871
Z-34.765
Z-35.083
X-0.073 Y145.965 Z-35.4
G3 X0.596 Y146.377 I-0.469 J1.511
G1 X0.638 Y146.423
X0.701 Y146.487
X0.781 Y146.576
X0.853 Y146.672
X0.919 Y146.773
X1.05 Y146.983
X1.345 Y147.478
X1.713 Y147.92
X2.16 Y148.282
X2.668 Y148.552
X3.215 Y148.731
X3.781 Y148.834
X4.354 Y148.883
X4.929 Y148.903
X5.504 Y148.909
X6.08 Y148.911
X8.956 Y148.912
X49.803
X99.855
X107.869
X108.079 Y148.917
X108.223 Y148.923
X108.343 Y148.93
X108.463 Y148.942
X108.582 Y148.957
X108.701 Y148.975
X108.956 Y149.053
X109.193 Y149.175
X109.404 Y149.338
G3 X109.145 Y149.879 I-0.223 J0.226
G1 X108.83 Y149.844 Z-35.083
Z5.
X-0.295 Y146.029
Z-34.765
Z-35.083
X0.013 Y146.108 Z-35.4
G3 X0.701 Y146.487 I-0.395 J1.533
G1 X0.769 Y146.555
X0.842 Y146.618
X0.932 Y146.696
X1.011 Y146.787
X1.086 Y146.881
X1.427 Y147.344
X1.808 Y147.775
X2.259 Y148.133
X2.767 Y148.401
X3.314 Y148.582
X3.879 Y148.687
X4.452 Y148.74
X5.027 Y148.761
X5.602 Y148.769
X6.178 Y148.771
X7.904 Y148.772
X25.013
X25.078 Y148.773
X25.143 Y148.778
X25.208 Y148.786
X25.6 Y148.818
X25.73 Y148.822
X25.992 Y148.83
X26.122 Y148.823
X26.162 Y148.818
X26.489 Y148.798
X26.79 Y148.785
X27.365 Y148.773
X27.941 Y148.772
X76.266
X107.333
X107.697 Y148.773
X107.9 Y148.778
X108.052 Y148.785
X108.187 Y148.794
X108.306 Y148.804
X108.425 Y148.819
X108.544 Y148.839
X108.56 Y148.842
X108.855 Y148.936
X109.125 Y149.088
X109.358 Y149.293
G3 X109.056 Y149.812 I-0.241 J0.207
G1 X108.744 Y149.751 Z-35.083
Z5.
X25.185 Y149.315
Z-34.765
Z-35.083
X25.438 Y149.123 Z-35.4
G3 X26.162 Y148.818 I0.957 J1.261
G1 X26.253 Y148.808
X26.384 Y148.784
X26.456 Y148.764
X26.573 Y148.738
X26.691 Y148.715
X26.809 Y148.698
X26.929 Y148.685
X27.057 Y148.673
X27.237 Y148.661
X27.506 Y148.648
X28.004 Y148.635
X28.579 Y148.632
X57.344
X76.905
X106.821
X107.396
X107.659 Y148.637
X107.843 Y148.644
X107.973 Y148.652
X108.093 Y148.662
X108.212 Y148.674
X108.331 Y148.692
X108.448 Y148.715
X108.468 Y148.719
X108.753 Y148.814
X109.014 Y148.964
X109.239 Y149.164
X109.358 Y149.293
G3 X109.056 Y149.812 I-0.241 J0.207
G1 X108.744 Y149.751 Z-35.083
Z5.
X25.57 Y149.41
Z-34.765
Z-35.083
X25.789 Y149.18 Z-35.4
G3 X26.456 Y148.764 I1.145 J1.093
G1 X26.514 Y148.748
X26.776 Y148.671
X26.798 Y148.662
X26.911 Y148.624
X27.028 Y148.598
X27.147 Y148.579
X27.266 Y148.563
X27.406 Y148.548
X27.559 Y148.534
X27.759 Y148.521
X28.068 Y148.507
X28.625 Y148.494
X29.201 Y148.492
X76.951
X106.867
X107.297 Y148.493
X107.542 Y148.499
X107.713 Y148.507
X107.841 Y148.516
X107.961 Y148.526
X108.08 Y148.539
X108.199 Y148.557
X108.317 Y148.58
X108.353 Y148.588
X108.635 Y148.684
X108.894 Y148.834
X109.117 Y149.032
X109.239 Y149.164
G3 X108.937 Y149.682 I-0.241 J0.207
G1 X108.625 Y149.622 Z-35.083
Z5.
X25.985 Y149.398
Z-34.765
Z-35.083
X26.179 Y149.146 Z-35.4
G3 X26.798 Y148.662 I1.254 J0.966
G1 X26.906 Y148.619
X26.979 Y148.586
X27.091 Y148.542
X27.205 Y148.506
X27.322 Y148.478
X27.44 Y148.456
X27.559 Y148.438
X27.678 Y148.423
X27.824 Y148.408
X28.036 Y148.391
X28.25 Y148.378
X28.6 Y148.364
X29.175 Y148.353
X29.75 Y148.352
X37.041
X37.174 Y148.358
X37.307 Y148.375
X37.437 Y148.405
X37.492 Y148.42
X37.632 Y148.447
X37.754 Y148.462
X37.884 Y148.464
X38.146 Y148.458
X38.277 Y148.447
X38.317 Y148.44
X38.533 Y148.413
X38.653 Y148.4
X38.792 Y148.388
X38.991 Y148.376
X39.309 Y148.364
X39.885 Y148.353
X40.46 Y148.352
X88.786
X106.62
X107.09 Y148.353
X107.347 Y148.359
X107.54 Y148.367
X107.681 Y148.377
X107.801 Y148.387
X107.92 Y148.4
X108.039 Y148.416
X108.157 Y148.438
X108.28 Y148.466
X108.574 Y148.577
X108.837 Y148.746
X109.06 Y148.967
G3 X108.727 Y149.466 I-0.253 J0.192
G1 X108.42 Y149.387 Z-35.083
Z5.
X37.374 Y148.998
Z-34.765
Z-35.083
X37.614 Y148.791 Z-35.4
G3 X38.317 Y148.44 I1.036 J1.197
G1 X38.538 Y148.401
X38.668 Y148.366
X38.69 Y148.359
X38.806 Y148.326
X38.923 Y148.303
X39.042 Y148.285
X39.161 Y148.271
X39.314 Y148.257
X39.48 Y148.245
X39.722 Y148.232
X40.136 Y148.219
X40.711 Y148.212
X41.862
X89.037
X106.296
X106.871
X107.159 Y148.218
X107.363 Y148.227
X107.519 Y148.237
X107.638 Y148.247
X107.758 Y148.259
X107.877 Y148.275
X107.995 Y148.294
X108.07 Y148.31
X108.33 Y148.39
X108.572 Y148.512
X108.791 Y148.673
X108.979 Y148.868
X109.06 Y148.967
G3 X108.727 Y149.466 I-0.253 J0.192
G1 X108.42 Y149.387 Z-35.083
Z5.
X37.84 Y149.05
Z-34.765
Z-35.083
X38.047 Y148.809 Z-35.4
G3 X38.69 Y148.359 I1.201 J1.031
G1 X38.799 Y148.322
X38.906 Y148.277
X39.019 Y148.236
X39.135 Y148.205
X39.252 Y148.18
X39.371 Y148.161
X39.49 Y148.145
X39.627 Y148.13
X39.777 Y148.117
X39.995 Y148.102
X40.301 Y148.088
X40.839 Y148.075
X41.414 Y148.072
X89.164
X106.424
X106.824 Y148.075
X107.082 Y148.082
X107.264 Y148.091
X107.417 Y148.101
X107.539 Y148.113
X107.659 Y148.126
X107.778 Y148.143
X107.896 Y148.164
X108.013 Y148.19
X108.129 Y148.22
X108.179 Y148.237
X108.467 Y148.368
X108.72 Y148.558
X108.929 Y148.796
X108.979 Y148.868
G3 X108.611 Y149.342 I-0.266 J0.173
G1 X108.311 Y149.24 Z-35.083
Z5.
X38.109 Y149.029
Z-34.765
Z-35.083
X38.298 Y148.774 Z-35.4
G3 X38.906 Y148.277 I1.273 J0.94
G1 X38.93 Y148.267
X39.061 Y148.197
X39.168 Y148.143
X39.282 Y148.106
X39.398 Y148.076
X39.516 Y148.052
X39.634 Y148.032
X39.754 Y148.016
X39.876 Y148.001
X40.041 Y147.986
X40.274 Y147.968
X40.52 Y147.955
X40.941 Y147.94
X41.517 Y147.933
X42.092 Y147.932
X43.004
X43.04
X43.076 Y147.934
X43.112 Y147.938
X43.386 Y148.293 Z-35.2
X43.266 Y148.503
X43.089 Y148.57
X39.244 Y148.785
X39.15 Y148.776
X38.955 Y148.633
X39.061 Y148.197 Z-35.4
X39.227 Y148.103
X39.334 Y148.048
X39.445 Y148.003
X39.56 Y147.969
X39.677 Y147.941
X39.794 Y147.917
X39.913 Y147.898
X40.032 Y147.881
X40.164 Y147.865
X40.351 Y147.847
X40.542 Y147.832
X40.834 Y147.816
X41.243 Y147.801
X41.818 Y147.793
X42.305 Y147.792
X42.446 Y147.8
X42.585 Y147.823
X42.72 Y147.862
X42.923 Y148.262 Z-35.2
X42.766 Y148.446
X42.642 Y148.481
X39.416 Y148.689
X39.323 Y148.681
X39.126 Y148.54
X39.078 Y148.373 Z-35.271
Y148.372
X39.227 Y148.103 Z-35.4
X39.309 Y148.055
X39.322 Y148.046
X39.344 Y148.029
X39.441 Y147.958
X39.55 Y147.908
X39.663 Y147.868
X39.779 Y147.836
X39.895 Y147.808
X40.013 Y147.785
X40.132 Y147.765
X40.262 Y147.747
X40.4 Y147.73
X40.584 Y147.712
X40.795 Y147.695
X41.081 Y147.678
X41.49 Y147.663
X41.838 Y147.657
X41.907 Y147.658
X42.089 Y147.669
X42.268 Y147.703
X42.441 Y147.759
X42.608 Y148.176 Z-35.2
X42.435 Y148.345
X42.341 Y148.367
X39.576 Y148.585
X39.528
X39.311 Y148.476
X39.344 Y148.029 Z-35.4
X39.472 Y147.924
X39.565 Y147.848
X39.674 Y147.797
X39.786 Y147.756
X39.901 Y147.721
X40.017 Y147.692
X40.135 Y147.666
X40.253 Y147.645
X40.371 Y147.626
X40.517 Y147.606
X40.666 Y147.589
X40.878 Y147.568
X41.115 Y147.551
X41.158 Y147.55
X41.202 Y147.549
X41.245 Y147.55
X41.54 Y147.889 Z-35.2
X41.433 Y148.106
X41.281 Y148.179
X39.755 Y148.46
X39.698 Y148.466
X39.474 Y148.373
X39.472 Y147.924 Z-35.4
X39.565 Y147.838
X39.583 Y147.82
X39.609 Y147.794
X39.696 Y147.711
X39.807 Y147.666
X39.92 Y147.627
X40.036 Y147.594
X40.105 Y147.576
X40.228 Y147.551
X40.352 Y147.536
X40.478 Y147.532
X40.782 Y147.862 Z-35.2
X40.68 Y148.081
X40.542 Y148.157
X39.923 Y148.313
X39.862 Y148.322
X39.634 Y148.242
X39.609 Y147.794 Z-35.4
X39.696 Y147.702
X39.714 Y147.683
X39.731 Y147.663
X39.804 Y147.604
X39.886 Y147.564
X39.975 Y147.542
X40.289 Y147.86 Z-35.2
X40.191 Y148.081
X40.03 Y148.161
X39.845 Y148.135
X39.795 Y148.106
X39.731 Y147.663 Z-35.4
X39.759 Y147.632
X39.788 Y147.607
X39.816 Y147.588
X39.845 Y147.573
X39.877 Y147.56
X39.91 Y147.551
X39.975 Y147.542
X40.106 Y147.536
X40.25 Y147.532
X40.367 Y147.531
X40.552 Y147.532
X40.759 Y147.535
X40.89 Y147.538
X41.282 Y147.551
X41.674 Y147.567
X41.779 Y147.566
X41.805
X41.845 Y147.564
X41.965 Y147.565
X41.974 Y147.567
X42.27 Y147.93 Z-35.2
X42.271 Y147.968
X42.213 Y148.167
G3 X41.505 Y148.108 I-0.339 J-0.207
G1 X41.488 Y147.864
X41.845 Y147.564 Z-35.4
X41.936 Y147.561
X41.968 Y147.565
X42.001 Y147.573
X42.066 Y147.598
X42.206 Y147.663
X42.328 Y147.715
X42.589 Y147.816
X42.72 Y147.862
X42.851 Y147.898
X42.994 Y147.924
X43.112 Y147.938
X43.373 Y147.952
X43.504
X43.543 Y147.948
X43.749 Y147.941
X44.325 Y147.933
X45.475 Y147.932
X93.801
X105.882
X106.458 Y147.933
X106.775 Y147.937
X107.009 Y147.946
X107.185 Y147.956
X107.321 Y147.966
X107.44 Y147.978
X107.559 Y147.993
X107.678 Y148.01
X107.797 Y148.03
X107.914 Y148.055
X108.03 Y148.087
X108.073 Y148.101
X108.371 Y148.235
X108.632 Y148.43
X108.846 Y148.678
X108.929 Y148.796
G3 X108.561 Y149.27 I-0.266 J0.173
G1 X108.26 Y149.168 Z-35.083
Z5.
X42.553 Y148.418
Z-34.765
Z-35.083
X42.812 Y148.233 Z-35.4
G3 X43.543 Y147.948 I0.922 J1.286
G1 X43.635 Y147.94
X43.765 Y147.918
X43.787 Y147.912
X43.905 Y147.888
X44.023 Y147.866
X44.141 Y147.85
X44.261 Y147.838
X44.412 Y147.826
X44.627 Y147.814
X44.986 Y147.801
X45.562 Y147.793
X46.712 Y147.792
X93.887
X105.969
X106.461 Y147.794
X106.749 Y147.802
X106.95 Y147.811
X107.124 Y147.822
X107.268 Y147.835
X107.387 Y147.848
X107.506 Y147.864
X107.625 Y147.883
X107.742 Y147.905
X107.859 Y147.933
X107.912 Y147.948
X108.165 Y148.048
X108.399 Y148.189
X108.604 Y148.367
X108.777 Y148.578
X108.846 Y148.678
G3 X108.473 Y149.148 I-0.268 J0.17
G1 X108.173 Y149.043 Z-35.083
Z5.
X42.892 Y148.544
Z-34.765
Z-35.083
X43.114 Y148.317 Z-35.4
G3 X43.787 Y147.912 I1.127 J1.111
G1 X43.896 Y147.884
X44.131 Y147.811
X44.247 Y147.782
X44.364 Y147.756
X44.483 Y147.736
X44.602 Y147.72
X44.724 Y147.707
X44.891 Y147.693
X45.104 Y147.679
X45.406 Y147.666
X45.982 Y147.653
X46.557 Y147.652
X94.307
X105.814
X106.28 Y147.654
X106.584 Y147.661
X106.813 Y147.671
X106.991 Y147.683
X107.138 Y147.696
X107.265 Y147.71
X107.384 Y147.725
X107.503 Y147.743
X107.621 Y147.766
X107.737 Y147.794
X107.853 Y147.826
X107.967 Y147.863
X108.009 Y147.88
X108.29 Y148.031
X108.533 Y148.239
X108.726 Y148.493
X108.777 Y148.578
G3 X108.377 Y149.025 I-0.277 J0.154
G1 X108.084 Y148.903 Z-35.083
Z5.
X43.263 Y148.48
Z-34.765
Z-35.083
X43.476 Y148.244 Z-35.4
G3 X44.131 Y147.811 I1.173 J1.062
G1 X44.188 Y147.794
X44.268 Y147.755
X44.378 Y147.708
X44.492 Y147.67
X44.609 Y147.642
X44.727 Y147.619
X44.845 Y147.601
X44.964 Y147.585
X45.1 Y147.571
X45.291 Y147.555
X45.523 Y147.54
X45.834 Y147.526
X46.409 Y147.513
X46.984 Y147.512
X94.735
X105.665
X106.126 Y147.513
X106.447 Y147.521
X106.681 Y147.532
X106.867 Y147.544
X107.019 Y147.557
X107.147 Y147.571
X107.266 Y147.586
X107.384 Y147.605
X107.502 Y147.626
X107.62 Y147.652
X107.736 Y147.681
X107.85 Y147.718
X107.897 Y147.736
X108.192 Y147.887
X108.446 Y148.099
X108.647 Y148.361
X108.726 Y148.493
G3 X108.326 Y148.94 I-0.277 J0.154
G1 X108.033 Y148.818 Z-35.083
Z5.
X43.513 Y148.549
Z-34.765
Z-35.083
X43.687 Y148.284 Z-35.4
G3 X44.268 Y147.755 I1.323 J0.868
G1 X44.48 Y147.647
X44.589 Y147.598
X44.702 Y147.558
X44.818 Y147.526
X44.935 Y147.501
X45.053 Y147.48
X45.172 Y147.462
X45.307 Y147.445
X45.449 Y147.431
X45.653 Y147.414
X45.92 Y147.398
X46.262 Y147.384
X46.837 Y147.373
X47.412 Y147.372
X94.587
X105.518
X105.986 Y147.373
X106.316 Y147.382
X106.555 Y147.392
X106.745 Y147.405
X106.899 Y147.418
X107.034 Y147.433
X107.154 Y147.448
X107.273 Y147.466
X107.391 Y147.487
X107.508 Y147.511
X107.625 Y147.54
X107.739 Y147.576
X107.8 Y147.598
X108.03 Y147.705
X108.239 Y147.849
X108.42 Y148.027
X108.569 Y148.232
X108.647 Y148.361
G3 X108.247 Y148.809 I-0.277 J0.154
G1 X107.954 Y148.687 Z-35.083
Z5.
X43.745 Y148.46
Z-34.765
Z-35.083
X43.912 Y148.191 Z-35.4
G3 X44.48 Y147.647 I1.344 J0.835
G1 X44.549 Y147.611
X44.61 Y147.571
X44.714 Y147.509
X44.824 Y147.462
X44.938 Y147.425
X45.054 Y147.395
X45.172 Y147.37
X45.29 Y147.349
X45.408 Y147.331
X45.533 Y147.315
X45.701 Y147.296
X45.874 Y147.281
X46.135 Y147.264
X46.464 Y147.249
X47.026 Y147.235
X47.601 Y147.232
X57.381
X59.123
X59.163
X59.202 Y147.234
X59.241 Y147.236
X59.579 Y147.263
X59.971 Y147.283
X60.101 Y147.284
X60.363
X60.494 Y147.282
X60.886 Y147.276
X61.147 Y147.27
X61.278 Y147.266
X61.317 Y147.262
X61.437 Y147.255
X61.78 Y147.242
X62.355 Y147.233
X62.93 Y147.232
X96.545
X96.603 Y147.233
X96.661 Y147.236
X96.718 Y147.242
X96.968 Y147.271
X97.086 Y147.282
X97.348 Y147.305
X97.479 Y147.311
X97.74 Y147.312
X97.871 Y147.31
X98.263 Y147.285
X98.393 Y147.274
X98.437 Y147.271
X98.485 Y147.267
X99.06 Y147.251
X99.359 Y147.242
X99.414 Y147.241
X99.469 Y147.243
X99.525 Y147.246
X99.804 Y147.597 Z-35.2
X99.686 Y147.809
X99.495 Y147.879
X98.528 Y147.9
X98.322 Y147.83
X98.205 Y147.618
X98.485 Y147.267 Z-35.4
X99.047 Y147.224
X99.177 Y147.218
X99.57 Y147.25
X99.7 Y147.255
X99.962 Y147.263
X100.092 Y147.26
X100.132 Y147.257
X100.159 Y147.254
X100.194 Y147.252
X100.361 Y147.248
X100.443
X100.525 Y147.253
X100.607 Y147.262
X100.864 Y147.629 Z-35.2
X100.735 Y147.834
X100.545 Y147.892
X100.222 Y147.885
X100.03 Y147.814
X99.914 Y147.602
X100.194 Y147.252 Z-35.4
X100.223 Y147.25
X100.354 Y147.232
X100.386
X100.419 Y147.234
X100.484 Y147.245
X100.876 Y147.299
X101.007 Y147.307
X101.268 Y147.313
X101.399 Y147.311
X101.661 Y147.301
X101.791 Y147.288
X101.911 Y147.276
X102.068 Y147.264
X102.299 Y147.252
X102.698 Y147.239
X103.274 Y147.232
X104.424
X105.575
X105.995 Y147.237
X106.281 Y147.246
X106.504 Y147.257
X106.687 Y147.271
X106.848 Y147.286
X106.98 Y147.301
X107.099 Y147.317
X107.217 Y147.336
X107.335 Y147.358
X107.452 Y147.384
X107.568 Y147.415
X107.683 Y147.451
X107.796 Y147.491
X107.809 Y147.497
X108.087 Y147.657
X108.325 Y147.872
X108.511 Y148.133
X108.375 Y148.56 Z-35.2
X108.195 Y148.594
X108.133 Y148.588
X101.823 Y147.914
X101.681 Y147.864
X101.545 Y147.663
X101.791 Y147.288 Z-35.4
X101.888 Y147.271
X101.922 Y147.264
X102.053 Y147.229
X102.074 Y147.222
X102.107 Y147.211
X102.223 Y147.18
X102.342 Y147.163
X102.475 Y147.147
X102.541 Y147.143
X102.574 Y147.142
X102.889 Y147.462 Z-35.2
X102.794 Y147.685
X102.616 Y147.774
X102.26 Y147.824
X102.079 Y147.797
X101.917 Y147.618
X102.107 Y147.211 Z-35.4
X102.183 Y147.187
X102.249 Y147.164
X102.281 Y147.155
X102.314 Y147.15
X102.445 Y147.145
X102.837 Y147.136
X103.098 Y147.131
X103.49 Y147.129
X103.882 Y147.134
X104.155 Y147.14
X104.274 Y147.143
X104.405 Y147.148
X104.797 Y147.156
X105.189
X105.451 Y147.159
X105.581 Y147.161
X105.712
X106.104 Y147.152
X106.365 Y147.151
X106.709 Y147.167
X106.829 Y147.175
X106.948 Y147.187
X107.067 Y147.201
X107.186 Y147.219
X107.304 Y147.241
X107.421 Y147.267
X107.537 Y147.297
X107.651 Y147.335
X107.69 Y147.35
X107.918 Y147.464
X108.123 Y147.615
X108.299 Y147.799
X108.442 Y148.009
X108.305 Y148.437 Z-35.2
X108.064 Y148.457
X108.045 Y148.451
X106.263 Y147.765
X106.161 Y147.701
X106.06 Y147.48
X106.365 Y147.151 Z-35.4
X106.888 Y147.15
X107.019 Y147.149
X107.058 Y147.148
X107.178 Y147.151
X107.298 Y147.161
X107.416 Y147.18
X107.427 Y147.183
X107.718 Y147.285
X107.982 Y147.444
X108.207 Y147.655
X108.385 Y147.907
X108.248 Y148.334 Z-35.2
X108.006 Y148.355
X107.944 Y148.328
X106.92 Y147.741
X106.867 Y147.702
X106.761 Y147.485
X107.058 Y147.148 Z-35.4
X107.149 Y147.146
X107.332 Y147.139
X107.452
X107.571 Y147.16
X107.801 Y147.261
X108.008 Y147.404
X108.183 Y147.584
X108.321 Y147.794
X108.184 Y148.221 Z-35.2
X107.943 Y148.242
X107.855 Y148.198
X107.174 Y147.714
X107.151 Y147.696
X107.041 Y147.481
X107.332 Y147.139 Z-35.4
X107.411 Y147.135
X107.515 Y147.132
X107.635 Y147.133
X107.75 Y147.169
X107.947 Y147.286
X108.112 Y147.445
X108.239 Y147.636
X108.085 Y148.058 Z-35.2
X107.844 Y148.069
X107.756 Y148.021
X107.342 Y147.699
X107.328 Y147.687
X107.22 Y147.47
X107.515 Y147.132 Z-35.4
X107.646 Y147.128
X107.672
X107.712
X107.832 Y147.134
X107.965 Y147.231
X108.078 Y147.352
X108.166 Y147.492
X108.142 Y147.971 Z-35.2
X107.97 Y148.147
G3 X107.254 Y147.978 I-0.274 J-0.439
G1 X107.184 Y147.576
X107.284 Y147.351
X107.712 Y147.128 Z-35.4
X107.803
X107.839 Y147.132
X107.874 Y147.14
X107.904 Y147.151
X107.95 Y147.176
X107.971 Y147.19
X107.992 Y147.205
X108.016 Y147.45
X107.752 Y147.525
X107.656 Y147.268
X107.904 Y147.151
X107.934 Y147.165
X107.963 Y147.182
X107.992 Y147.205
X108.025 Y147.238
X108.05 Y147.271
X108.064 Y147.292
X108.252 Y147.663
X108.326 Y147.802
X108.541 Y148.186
X108.569 Y148.232
X108.609 Y148.386
X108.471 Y148.648
X108.325 Y148.702 Z-35.358
X108.291 Y148.704 Z-35.336
X108.168 Y148.679 Z-35.083
Z5.
X60.338 Y147.754
Z-34.765
Z-35.083
X60.592 Y147.563 Z-35.4
G3 X61.317 Y147.262 I0.951 J1.265
G1 X61.67 Y147.224
X62.062 Y147.189
X62.192 Y147.18
X62.585 Y147.162
X62.977 Y147.148
X63.107 Y147.146
X63.761 Y147.139
X63.891 Y147.138
X64.545
X64.806 Y147.137
X65.198 Y147.141
X65.329 Y147.145
X65.721 Y147.152
X65.982 Y147.158
X66.113 Y147.159
X66.505 Y147.147
X66.897 Y147.148
X67.289 Y147.151
X67.42
X68.073 Y147.144
X68.221 Y147.14
X68.3
X68.596 Y147.147
X68.727 Y147.149
X68.858 Y147.146
X68.988 Y147.143
X69.119 Y147.134
X69.511 Y147.123
X69.772 Y147.12
X69.903 Y147.118
X70.034
X70.426 Y147.132
X70.557 Y147.14
X70.687 Y147.146
X70.818 Y147.15
X70.949 Y147.151
X71.341
X71.733 Y147.155
X72.286 Y147.14
X72.517 Y147.134
X72.648 Y147.131
X73.04 Y147.13
X73.432 Y147.138
X73.562
X73.954 Y147.134
X74.347 Y147.131
X74.739 Y147.143
X74.869 Y147.146
X75.261 Y147.151
X75.653 Y147.158
X76.046 Y147.155
X76.568 Y147.149
X76.96 Y147.148
X77.483 Y147.156
X78.267 Y147.163
X78.659 Y147.171
X78.79 Y147.17
X79.051 Y147.166
X79.182 Y147.16
X79.313 Y147.152
X79.443 Y147.143
X79.574 Y147.139
X79.966 Y147.144
X80.097 Y147.145
X80.228 Y147.144
X80.397 Y147.14
X80.467
X80.62 Y147.146
X80.881 Y147.152
X81.273
X81.665 Y147.148
X81.796 Y147.149
X82.188 Y147.165
X82.58 Y147.174
X82.711 Y147.179
X82.972 Y147.19
X83.103 Y147.194
X83.495 Y147.199
X83.887 Y147.218
X84.018 Y147.221
X84.279
X84.41 Y147.215
X84.671 Y147.19
X84.802 Y147.18
X85.194 Y147.167
X85.324
X85.586 Y147.168
X85.716
X86.109 Y147.161
X86.631 Y147.163
X86.893 Y147.165
X87.023
X87.415 Y147.161
X87.808 Y147.155
X87.938 Y147.157
X88.2 Y147.164
X88.33 Y147.165
X88.722 Y147.159
X89.114 Y147.154
X89.506 Y147.152
X89.637
X90.421 Y147.162
X90.552 Y147.159
X91.075 Y147.143
X91.467 Y147.135
X91.728 Y147.131
X92.251 Y147.127
X92.643 Y147.125
X93.035 Y147.126
X93.558 Y147.131
X93.95 Y147.138
X94.081 Y147.142
X94.211 Y147.147
X94.734 Y147.173
X94.865 Y147.179
X95.257 Y147.192
X95.649 Y147.194
X96.041 Y147.201
X96.172 Y147.205
X96.564 Y147.224
X96.718 Y147.242
X96.988 Y147.555
Y147.556
Y147.573
X96.941 Y147.722 Z-35.358
X96.828 Y147.831 Z-35.111
X96.827 Y147.832 Z-35.083
Z5.
X43.967 Y148.458
Z-34.765
Z-35.083
X44.105 Y148.172 Z-35.4
G3 X44.61 Y147.571 I1.426 J0.687
G1 X44.68 Y147.524
X44.747 Y147.474
X44.847 Y147.408
X44.956 Y147.357
X45.069 Y147.317
X45.184 Y147.283
X45.301 Y147.255
X45.418 Y147.231
X45.537 Y147.211
X45.596 Y147.202
X45.672 Y147.193
X45.749 Y147.187
X45.826 Y147.186
X46.13 Y147.516 Z-35.2
X46.028 Y147.736
X45.89 Y147.811
X45.023 Y148.031
X44.908 Y148.038
X44.697 Y147.92
X44.747 Y147.474 Z-35.4
X44.811 Y147.427
X44.857 Y147.387
X44.883 Y147.364
X44.9 Y147.349
X44.994 Y147.274
X45.16 Y147.219
X45.331 Y147.188
X45.505 Y147.181
X45.801 Y147.518 Z-35.2
X45.695 Y147.735
X45.554 Y147.807
X45.188 Y147.89
X45.107 Y147.897
X44.886 Y147.797
X44.9 Y147.349 Z-35.4
X44.942 Y147.313
X44.987 Y147.271
X45.01 Y147.251
X45.03 Y147.234
X45.09 Y147.205
X45.145 Y147.185
X45.203 Y147.172
X45.424 Y147.361
X45.295 Y147.623
X45.01 Y147.562
X45.03 Y147.234
X45.072 Y147.208
X45.105 Y147.194
X45.138 Y147.183
X45.203 Y147.172
X45.334 Y147.173
X45.464 Y147.18
X45.595 Y147.184
X45.856 Y147.186
X46.118 Y147.188
X46.902 Y147.186
X47.425 Y147.189
X47.817 Y147.188
X48.209 Y147.181
X48.601 Y147.164
X48.732 Y147.161
X49.124 Y147.158
X49.516 Y147.146
X49.86 Y147.14
X50.038 Y147.139
X50.43 Y147.14
X50.823 Y147.136
X51.345 Y147.137
X51.737 Y147.139
X52.129 Y147.137
X52.521 Y147.143
X52.652 Y147.144
X52.914
X53.828 Y147.131
X53.959
X54.743 Y147.139
X55.397 Y147.148
X55.527 Y147.15
X55.658
X55.789 Y147.146
X55.919 Y147.143
X56.05 Y147.142
X56.311 Y147.144
X56.442 Y147.148
X56.573 Y147.149
X56.965 Y147.143
X57.357 Y147.142
X57.488 Y147.144
X57.88 Y147.154
X58.272 Y147.166
X59.187 Y147.232
X59.241 Y147.236
G3 X59.372 Y147.822 I-0.036 J0.315
G1 X59.102 Y147.989 Z-35.083
Z5.
X26.202 Y149.358
Z-34.765
Z-35.083
X26.384 Y149.098 Z-35.4
G3 X26.979 Y148.586 I1.297 J0.907
G1 X26.998 Y148.578
X27.141 Y148.5
X27.249 Y148.448
X27.362 Y148.406
X27.477 Y148.373
X27.594 Y148.347
X27.712 Y148.325
X27.831 Y148.306
X27.956 Y148.29
X28.106 Y148.274
X28.28 Y148.259
X28.544 Y148.242
X28.849 Y148.228
X29.421 Y148.214
X29.996 Y148.212
X36.585
X36.76 Y148.221
X36.932 Y148.249
X37.1 Y148.296
X37.362 Y148.384
X37.437 Y148.405
G3 X37.455 Y149.005 I-0.095 J0.303
G1 X37.159 Y149.118 Z-35.083
Z5.
X26.424 Y149.328
Z-34.765
Z-35.083
X26.586 Y149.055 Z-35.4
G3 X27.141 Y148.5 I1.361 J0.807
G1 X27.168 Y148.485
X27.246 Y148.431
X27.347 Y148.367
X27.456 Y148.317
X27.57 Y148.278
X27.685 Y148.246
X27.802 Y148.219
X27.92 Y148.197
X28.039 Y148.178
X28.159 Y148.161
X28.314 Y148.143
X28.479 Y148.128
X28.725 Y148.109
X29.013 Y148.094
X29.449 Y148.08
X30.024 Y148.073
X30.599 Y148.072
X36.196
X36.335 Y148.075
X36.524 Y148.095
X36.709 Y148.14
X36.887 Y148.207
G3 X36.811 Y148.802 I-0.141 J0.284
G1 X36.5 Y148.867 Z-35.083
Z5.
X26.626 Y149.335
Z-34.765
Z-35.083
X26.756 Y149.045 Z-35.4
G3 X27.246 Y148.431 I1.443 J0.649
G1 X27.299 Y148.394
X27.38 Y148.332
X27.48 Y148.265
X27.587 Y148.211
X27.699 Y148.169
X27.814 Y148.134
X27.93 Y148.105
X28.048 Y148.08
X28.166 Y148.058
X28.284 Y148.04
X28.428 Y148.021
X28.58 Y148.003
X28.786 Y147.985
X29.02 Y147.968
X29.358 Y147.951
X29.858 Y147.937
X30.433 Y147.933
X31.584 Y147.932
X35.848
X35.98 Y147.935
X36.114 Y147.941
X36.335 Y147.974
X36.549 Y148.039
X36.751 Y148.135
G3 X36.62 Y148.72 I-0.167 J0.27
G1 X36.304 Y148.756 Z-35.083
Z5.
X26.792 Y149.257
Z-34.765
Z-35.083
X26.912 Y148.963 Z-35.4
G3 X27.38 Y148.332 I1.465 J0.598
G1 X27.401 Y148.316
X27.492 Y148.238
X27.587 Y148.164
X27.693 Y148.108
X27.804 Y148.062
X27.918 Y148.024
X28.034 Y147.992
X28.15 Y147.964
X28.268 Y147.941
X28.386 Y147.92
X28.515 Y147.9
X28.658 Y147.882
X28.839 Y147.862
X29.044 Y147.844
X29.33 Y147.825
X29.664 Y147.81
X30.239 Y147.795
X30.814 Y147.792
X33.116
X35.417
X35.62 Y147.794
X35.74 Y147.797
X35.86 Y147.804
X35.899 Y147.807
X36.131 Y147.844
X36.355 Y147.917
X36.564 Y148.024
G3 X36.414 Y148.605 I-0.176 J0.264
G1 X36.097 Y148.631 Z-35.083
Z5.
X26.966 Y149.199
Z-34.765
Z-35.083
X27.067 Y148.898 Z-35.4
G3 X27.492 Y148.238 I1.501 J0.501
G1 X27.56 Y148.179
X27.579 Y148.159
X27.665 Y148.074
X27.768 Y148.013
X27.877 Y147.963
X27.989 Y147.921
X28.104 Y147.886
X28.22 Y147.855
X28.337 Y147.828
X28.454 Y147.805
X28.573 Y147.784
X28.709 Y147.764
X28.863 Y147.744
X29.056 Y147.723
X29.259 Y147.705
X29.566 Y147.685
X29.911 Y147.669
X30.486 Y147.655
X31.061 Y147.652
X32.787
X35.088
X35.341 Y147.654
X35.461 Y147.657
X35.581 Y147.663
X35.712 Y147.674
X35.932 Y147.713
X36.143 Y147.785
X36.342 Y147.888
G3 X36.192 Y148.469 I-0.176 J0.264
G1 X35.876 Y148.494 Z-35.083
Z5.
X27.166 Y149.174
Z-34.765
Z-35.083
X27.231 Y148.863 Z-35.4
G3 X27.579 Y148.159 I1.549 J0.326
G1 X27.674 Y148.055
X27.756 Y147.967
X27.858 Y147.905
X27.967 Y147.853
X28.078 Y147.809
X28.192 Y147.772
X28.308 Y147.739
X28.424 Y147.71
X28.542 Y147.685
X28.66 Y147.663
X28.785 Y147.642
X28.934 Y147.621
X29.103 Y147.6
X29.319 Y147.578
X29.538 Y147.56
X29.89 Y147.539
X30.267 Y147.525
X30.842 Y147.514
X31.418 Y147.512
X34.87
X35.105 Y147.514
X35.243 Y147.519
X35.363 Y147.525
X35.495 Y147.536
X35.713 Y147.576
X35.922 Y147.648
X36.119 Y147.75
G3 X35.968 Y148.331 I-0.176 J0.264
G1 X35.652 Y148.356 Z-35.083
Z5.
X27.307 Y149.087
Z-34.765
Z-35.083
X27.358 Y148.774 Z-35.4
G3 X27.674 Y148.055 I1.562 J0.257
G1 X27.765 Y147.947
X27.847 Y147.859
X27.948 Y147.795
X28.056 Y147.741
X28.167 Y147.696
X28.28 Y147.656
X28.395 Y147.622
X28.511 Y147.591
X28.628 Y147.565
X28.746 Y147.541
X28.867 Y147.519
X29.009 Y147.497
X29.162 Y147.476
X29.361 Y147.453
X29.584 Y147.432
X29.843 Y147.414
X30.221 Y147.394
X30.699 Y147.379
X31.275 Y147.373
X31.85 Y147.372
X34.726
X34.941 Y147.376
X35.061 Y147.381
X35.181 Y147.389
X35.25 Y147.395
X35.484 Y147.436
X35.709 Y147.514
X35.919 Y147.627
G3 X35.757 Y148.204 I-0.181 J0.261
G1 X35.44 Y148.224 Z-35.083
Z5.
X27.398 Y148.979
Z-34.765
Z-35.083
X27.449 Y148.666 Z-35.4
G3 X27.765 Y147.947 I1.562 J0.257
G1 X27.784 Y147.924
X27.821 Y147.869
X27.893 Y147.772
X27.991 Y147.704
X28.097 Y147.647
X28.206 Y147.597
X28.318 Y147.554
X28.432 Y147.517
X28.547 Y147.483
X28.664 Y147.454
X28.781 Y147.428
X28.898 Y147.404
X29.035 Y147.38
X29.175 Y147.358
X29.344 Y147.336
X29.543 Y147.313
X29.775 Y147.292
X30.092 Y147.27
X30.415 Y147.254
X30.977 Y147.238
X31.553 Y147.233
X32.128 Y147.232
X34.429
X34.66 Y147.235
X34.787 Y147.239
X34.907 Y147.246
X35.026 Y147.256
X35.056 Y147.259
X35.283 Y147.302
X35.502 Y147.379
X35.706 Y147.489
X35.785 Y147.931 Z-35.2
X35.582 Y148.062
X35.537 Y148.067
X28.165 Y148.35
X28.104 Y148.352
X27.925 Y148.305
X27.821 Y147.869 Z-35.4
X27.871 Y147.794
X27.884 Y147.772
X27.951 Y147.672
X28.048 Y147.602
X28.153 Y147.542
X28.261 Y147.491
X28.372 Y147.445
X28.485 Y147.406
X28.6 Y147.37
X28.716 Y147.339
X28.832 Y147.311
X28.95 Y147.285
X29.073 Y147.262
X29.219 Y147.237
X29.368 Y147.215
X29.561 Y147.19
X29.717 Y147.174
X29.768 Y147.169
X29.819 Y147.167
X29.87 Y147.166
X30.177 Y147.493 Z-35.2
X30.078 Y147.714
X29.94 Y147.79
X28.248 Y148.232
X28.242 Y148.233
X28.008 Y148.204
X27.884 Y147.772 Z-35.4
X27.95 Y147.663
X28.012 Y147.56
X28.109 Y147.491
X28.213 Y147.431
X28.321 Y147.378
X28.432 Y147.332
X28.544 Y147.29
X28.659 Y147.254
X28.774 Y147.221
X28.81 Y147.212
X28.932 Y147.186
X29.056 Y147.171
X29.181 Y147.166
X29.486 Y147.495 Z-35.2
X29.386 Y147.715
X29.27 Y147.784
X28.348 Y148.093
X28.339 Y148.096
X28.106 Y148.084
X27.95 Y147.663 Z-35.4
X28.002 Y147.558
X28.061 Y147.453
X28.159 Y147.383
X28.17 Y147.377
X28.402 Y147.265
X28.651 Y147.195
X28.908 Y147.168
X29.219 Y147.492 Z-35.2
X29.123 Y147.714
X29.002 Y147.787
X28.401 Y147.988
X28.392 Y147.991
X28.159 Y147.979
X28.002 Y147.558 Z-35.4
X28.015 Y147.532
X28.043 Y147.465
X28.057 Y147.43
X28.069 Y147.402
X28.081 Y147.374
X28.267 Y147.264
X28.471 Y147.195
X28.686 Y147.171
X29.108 Y147.401 Z-35.2
X29.197 Y147.63
G3 X28.717 Y148.236 I-0.528 J0.074
G1 X28.247 Y148.082
X28.097 Y147.886
X28.069 Y147.402 Z-35.4
X28.083 Y147.366
X28.097 Y147.34
X28.109 Y147.319
X28.14 Y147.283
X28.16 Y147.262
X28.181 Y147.243
X28.482 Y147.318
X28.384 Y147.612
X28.098 Y147.492
X28.109 Y147.319
X28.127 Y147.295
X28.149 Y147.271
X28.181 Y147.243
X28.213 Y147.221
X28.246 Y147.202
X28.279 Y147.188
X28.311 Y147.178
X28.344 Y147.172
X28.475 Y147.169
X28.605 Y147.172
X28.736 Y147.171
X28.997 Y147.167
X29.128 Y147.166
X29.52 Y147.167
X30.043 Y147.165
X30.435 Y147.162
X30.827 Y147.161
X31.219 Y147.157
X31.481 Y147.158
X31.611 Y147.159
X31.742
X32.134 Y147.154
X32.395 Y147.145
X32.526 Y147.139
X32.657
X33.049 Y147.147
X33.441 Y147.151
X33.833 Y147.165
X34.094 Y147.177
X34.356 Y147.188
X34.748 Y147.199
X34.95 Y147.196
X34.983 Y147.195
X35.103 Y147.199
X35.227 Y147.225
X35.347 Y147.269
X35.459 Y147.33
X35.539 Y147.772 Z-35.2
X35.335 Y147.903
X35.192 Y147.897
X34.913 Y147.818
X34.786 Y147.747
X34.682 Y147.529
X34.983 Y147.195 Z-35.4
X35.14 Y147.193
X35.173
X35.205 Y147.197
X35.238 Y147.204
X35.271 Y147.216
X35.319 Y147.24
X35.924 Y147.63
X36.614 Y148.055
X36.748 Y148.133
X36.84 Y148.186
X36.97 Y148.245
X37.1 Y148.296
G3 X37.055 Y148.894 I-0.126 J0.291
G1 X36.748 Y148.975 Z-35.083
Z5.
X-0.202 Y146.284
Z-34.765
Z-35.083
X0.113 Y146.325 Z-35.4
G3 X0.842 Y146.618 I-0.206 J1.569
G1 X0.899 Y146.663
X1.012 Y146.748
X1.107 Y146.821
X1.193 Y146.904
X1.591 Y147.32
X1.999 Y147.726
X2.468 Y148.059
X2.988 Y148.305
X3.54 Y148.467
X4.108 Y148.559
X4.682 Y148.604
X5.257 Y148.622
X5.832 Y148.629
X6.407 Y148.631
X8.708 Y148.632
X24.344
X24.5 Y148.64
X24.654 Y148.664
X24.805 Y148.705
G3 X24.796 Y149.305 I-0.109 J0.298
G1 X24.495 Y149.404 Z-35.083
Z5.
X-0.059 Y146.516
Z-34.765
Z-35.083
X0.258 Y146.527 Z-35.4
G3 X1.012 Y146.748 I-0.055 J1.582
G1 X1.03 Y146.76
X1.134 Y146.82
X1.235 Y146.885
X1.333 Y146.954
X1.427 Y147.029
X1.531 Y147.117
X1.964 Y147.496
X2.427 Y147.838
X2.938 Y148.102
X3.484 Y148.284
X4.048 Y148.395
X4.621 Y148.453
X5.195 Y148.478
X5.771 Y148.488
X6.346 Y148.49
X7.496 Y148.492
X23.87
X24.054 Y148.501
X24.237 Y148.53
X24.415 Y148.578
X24.805 Y148.705
G3 X24.796 Y149.305 I-0.109 J0.298
G1 X24.495 Y149.404 Z-35.083
Z5.
X0.053 Y146.642
Z-34.765
Z-35.083
X0.37 Y146.637 Z-35.4
G3 X1.134 Y146.82 I0.025 J1.582
G1 X1.291 Y146.91
X1.396 Y146.963
X1.5 Y147.023
X1.602 Y147.085
X1.843 Y147.249
X2.312 Y147.581
X2.812 Y147.867
X3.347 Y148.077
X3.906 Y148.215
X4.476 Y148.293
X5.05 Y148.33
X5.625 Y148.345
X6.2 Y148.349
X6.776 Y148.351
X10.803 Y148.352
X23.46
X23.592 Y148.354
X23.643 Y148.356
X23.825 Y148.374
X24.003 Y148.414
X24.175 Y148.476
X24.355 Y148.553
X24.415 Y148.578
G3 X24.355 Y149.175 I-0.133 J0.288
G1 X24.046 Y149.249 Z-35.083
Z5.
X0.307 Y146.839
Z-34.765
Z-35.083
X0.624 Y146.818 Z-35.4
G3 X1.396 Y146.963 I0.103 J1.579
G1 X1.422 Y146.977
X1.553 Y147.03
X1.575 Y147.036
X1.688 Y147.076
X1.796 Y147.128
X1.902 Y147.185
X2.401 Y147.471
X2.911 Y147.737
X3.45 Y147.939
X4.009 Y148.073
X4.579 Y148.151
X5.153 Y148.188
X5.728 Y148.204
X6.303 Y148.209
X6.879 Y148.211
X9.755 Y148.212
X22.987
X23.173 Y148.213
X23.318 Y148.216
X23.365 Y148.219
X23.584 Y148.245
X23.796 Y148.303
X23.998 Y148.392
X24.031 Y148.41
X24.175 Y148.476
G3 X24.111 Y149.072 I-0.135 J0.287
G1 X23.802 Y149.144 Z-35.083
Z5.
X0.481 Y147.108
Z-34.765
Z-35.083
X0.789 Y147.031 Z-35.4
G3 X1.575 Y147.036 I0.383 J1.535
G1 X1.683 Y147.069
X1.788 Y147.094
X1.903 Y147.129
X2.016 Y147.17
X2.132 Y147.218
X2.292 Y147.288
X2.814 Y147.531
X3.348 Y147.744
X3.904 Y147.895
X4.471 Y147.989
X5.044 Y148.038
X5.619 Y148.06
X6.194 Y148.068
X6.77 Y148.07
X7.92 Y148.072
X22.832
X22.952 Y148.074
X23.087 Y148.08
X23.138 Y148.083
X23.354 Y148.113
X23.564 Y148.174
X23.763 Y148.265
X23.901 Y148.34
X23.998 Y148.392
G3 X23.884 Y148.981 I-0.159 J0.275
G1 X23.57 Y149.027 Z-35.083
Z5.
X0.699 Y147.222
Z-34.765
Z-35.083
X1.003 Y147.13 Z-35.4
G3 X1.788 Y147.094 I0.461 J1.514
G1 X1.814 Y147.101
X1.945 Y147.126
X1.984 Y147.13
X2.103 Y147.148
X2.219 Y147.179
X2.333 Y147.215
X2.605 Y147.311
X3.143 Y147.513
X3.691 Y147.687
X4.254 Y147.806
X4.825 Y147.875
X5.4 Y147.91
X5.975 Y147.924
X6.55 Y147.929
X7.125 Y147.931
X9.427 Y147.932
X22.544
X22.678 Y147.934
X22.798 Y147.939
X22.904 Y147.946
X23.155 Y147.984
X23.396 Y148.065
X23.619 Y148.186
X23.763 Y148.265
G3 X23.642 Y148.852 I-0.162 J0.273
G1 X23.327 Y148.894 Z-35.083
Z5.
X0.923 Y147.403
Z-34.765
Z-35.083
X1.212 Y147.271 Z-35.4
G3 X1.984 Y147.13 I0.661 J1.438
G1 X2.083 Y147.14
X2.181 Y147.145
X2.301 Y147.157
X2.419 Y147.175
X2.536 Y147.201
X2.653 Y147.231
X3.039 Y147.34
X3.589 Y147.509
X4.15 Y147.637
X4.72 Y147.718
X5.293 Y147.761
X5.868 Y147.78
X6.443 Y147.788
X7.019 Y147.79
X8.169 Y147.792
X21.977
X22.295
X22.438 Y147.796
X22.557 Y147.801
X22.68 Y147.809
X22.737 Y147.814
X22.997 Y147.861
X23.244 Y147.953
X23.471 Y148.086
X23.509 Y148.113
X23.619 Y148.186
G3 X23.451 Y148.762 I-0.184 J0.259
G1 X23.134 Y148.777 Z-35.083
Z5.
X1.137 Y147.478
Z-34.765
Z-35.083
X1.418 Y147.329 Z-35.4
G3 X2.181 Y147.145 I0.741 J1.398
G1 X2.206 Y147.146
X2.468 Y147.152
X2.587 Y147.159
X2.707 Y147.172
X2.825 Y147.191
X2.943 Y147.214
X3.505 Y147.338
X4.065 Y147.47
X4.633 Y147.56
X5.206 Y147.611
X5.781 Y147.636
X6.356 Y147.646
X6.931 Y147.65
X7.507 Y147.651
X13.26 Y147.652
X21.889
X22.132 Y147.654
X22.268 Y147.659
X22.388 Y147.665
X22.508 Y147.675
X22.637 Y147.689
X22.883 Y147.747
X23.116 Y147.844
X23.329 Y147.98
X23.428 Y148.055
X23.471 Y148.086
X23.596 Y148.337
Y148.338
X23.547 Y148.506
X23.434 Y148.614 Z-35.358
X23.284 Y148.656 Z-35.111
X23.282 Z-35.083
Z5.
X1.437 Y147.525
Z-34.765
Z-35.083
X1.712 Y147.366 Z-35.4
G3 X2.468 Y147.152 I0.795 J1.369
G1 X2.598 Y147.154
X2.833 Y147.152
X2.958 Y147.158
X3.078 Y147.166
X3.197 Y147.178
X3.316 Y147.195
X3.884 Y147.285
X4.45 Y147.387
X5.022 Y147.452
X5.596 Y147.487
X6.171 Y147.502
X6.746 Y147.508
X7.322 Y147.511
X9.048 Y147.512
X21.704
X21.934 Y147.515
X22.104 Y147.522
X22.224 Y147.529
X22.343 Y147.539
X22.462 Y147.554
X22.478 Y147.556
X22.737 Y147.62
X22.98 Y147.729
X23.2 Y147.879
X23.256 Y147.924
X23.329 Y147.98
X23.445 Y148.225
Y148.226
X23.392 Y148.402
X23.275 Y148.507 Z-35.358
X23.128 Y148.543 Z-35.143
X23.122 Z-35.083
Z5.
X1.809 Y147.542
Z-34.765
Z-35.083
X2.081 Y147.378 Z-35.4
G3 X2.833 Y147.152 I0.816 J1.356
G1 X2.99
X3.382 Y147.154
X3.513 Y147.156
X3.762 Y147.173
X3.941 Y147.19
X4.513 Y147.254
X5.085 Y147.311
X5.659 Y147.345
X6.234 Y147.361
X6.81 Y147.368
X7.385 Y147.37
X8.536 Y147.372
X21.192
X21.589 Y147.373
X21.801 Y147.378
X21.945 Y147.385
X22.064 Y147.392
X22.184 Y147.404
X22.303 Y147.42
X22.331 Y147.424
X22.596 Y147.493
X22.845 Y147.609
X23.068 Y147.768
X23.116 Y147.81
X23.2 Y147.879
G3 X22.973 Y148.434 I-0.21 J0.238
G1 X22.656 Y148.417 Z-35.083
Z5.
X2.481 Y147.523
Z-34.765
Z-35.083
X2.756 Y147.365 Z-35.4
G3 X3.513 Y147.156 I0.786 J1.373
G1 X3.905 Y147.164
X4.297 Y147.176
X4.689 Y147.202
X4.82 Y147.203
X4.951 Y147.201
X5.526 Y147.222
X6.101 Y147.219
X6.676 Y147.226
X7.252 Y147.23
X7.827 Y147.231
X11.854 Y147.232
X15.89
X15.947 Y147.233
X16.003 Y147.239
X16.059 Y147.248
X16.19 Y147.256
X16.463 Y147.271
X16.582 Y147.281
X16.843 Y147.304
X16.974 Y147.313
X17.235 Y147.32
X17.366 Y147.322
X17.758 Y147.313
X18.15
X18.281
X18.542 Y147.317
X18.673 Y147.316
X18.934 Y147.306
X19.065 Y147.3
X19.196 Y147.286
X19.769 Y147.254
X20.133 Y147.241
X20.708 Y147.233
X21.283 Y147.232
X21.538 Y147.237
X21.702 Y147.243
X21.833 Y147.251
X21.953 Y147.26
X22.072 Y147.274
X22.179 Y147.29
X22.458 Y147.362
X22.717 Y147.488
X22.946 Y147.663
X22.963 Y148.112 Z-35.2
X22.744 Y148.213
X22.704 Y148.212
X19.214 Y147.917
X19.049 Y147.853
X18.926 Y147.645
X19.196 Y147.286 Z-35.4
X19.457 Y147.258
X19.719 Y147.213
X19.849 Y147.19
X19.98 Y147.176
X20.372 Y147.166
X21.156 Y147.151
X21.418 Y147.147
X21.62 Y147.145
X21.811 Y147.152
X21.931 Y147.159
X21.986 Y147.166
X22.297 Y147.236
X22.586 Y147.37
X22.84 Y147.563
X22.837 Y148.012 Z-35.2
X22.613 Y148.104
X22.514 Y148.088
X21.535 Y147.763
X21.42 Y147.696
X21.318 Y147.476
X21.62 Y147.145 Z-35.4
X21.679 Y147.144
X21.98 Y147.135
X22.007
X22.042 Y147.133
X22.162 Y147.136
X22.367 Y147.203
X22.555 Y147.307
X22.72 Y147.446
X22.701 Y147.894 Z-35.2
X22.473 Y147.977
X22.345 Y147.945
X21.922 Y147.735
X21.853 Y147.688
X21.746 Y147.471
X22.042 Y147.133 Z-35.4
X22.175 Y147.131
X22.202 Y147.13
X22.238
X22.311 Y147.134
X22.332 Y147.136
X22.474 Y147.341
X22.285 Y147.503
X22.241 Y147.502
X22.059 Y147.318
X22.238 Y147.13
X22.267
X22.332 Y147.136
X22.355 Y147.14
X22.382 Y147.148
X22.409 Y147.159
X22.463 Y147.189
X22.365 Y147.341
X22.332 Y147.322
X22.409 Y147.159
X22.436 Y147.172
X22.463 Y147.189
X22.484 Y147.206
X22.506 Y147.226
X22.549 Y147.271
X22.724 Y147.45
X22.807 Y147.532
X22.946 Y147.663
X23.068 Y147.768
X23.105 Y148.193
X22.982 Y148.291 Z-35.358
X22.852 Y148.319 Z-35.207
Z-35.206
X22.827 Y148.318 Z-35.083
Z5.
X3.93 Y147.6
Z-34.765
Z-35.083
X4.2 Y147.433 Z-35.4
G3 X4.951 Y147.201 I0.828 J1.349
G1 X5.081 Y147.2
X5.212 Y147.196
X5.473 Y147.185
X5.604 Y147.181
X5.996 Y147.179
X6.388 Y147.181
X6.519 Y147.183
X6.78 Y147.192
X6.911 Y147.195
X7.303 Y147.187
X7.695 Y147.169
X7.826 Y147.167
X8.218 Y147.168
X8.61 Y147.184
X8.741 Y147.179
X9.002 Y147.167
X9.394 Y147.152
X9.525 Y147.148
X9.917
X10.048 Y147.154
X10.309 Y147.169
X10.44 Y147.173
X10.701 Y147.175
X10.832 Y147.173
X11.093 Y147.156
X11.224 Y147.146
X11.354 Y147.144
X12.008
X12.139
X12.531 Y147.137
X12.792 Y147.141
X12.923 Y147.144
X13.315 Y147.157
X13.446 Y147.16
X13.838 Y147.157
X13.968 Y147.161
X14.23 Y147.173
X14.36 Y147.176
X14.752 Y147.173
X15.144 Y147.164
X15.275 Y147.15
X15.406 Y147.141
X15.434 Y147.14
X15.477
X15.537 Y147.147
X15.667 Y147.173
X16.059 Y147.248
X16.304 Y147.597
X16.247 Y147.742 Z-35.358
X16.128 Y147.843 Z-35.111
X16.126 Y147.844 Z-35.083
Z5.
X-2.849 Y-2.315
Z-35.165
Z-35.482
X-2.573 Y-2.156 Z-35.8
G3 X-1.162 Y-1.128 I-4.039 J7.028
G1 X-1.11 Y-1.078
X-1.313 Y-0.539
X-1.402 Y0.029
X-1.427 Y0.604
X-1.431 Y1.179
X-1.432 Y4.056
Y48.929
Y98.981
Y149.033
Y149.608
X-1.379 Y149.891
X-1.174 Y150.428
X-0.8 Y150.866
X-0.313 Y151.171
X0.236 Y151.343
X0.808 Y151.412
X1.383 Y151.429
X1.958 Y151.431
X47.407 Y151.432
X97.459
X147.511
X149.812
X150.359 Y151.254
X150.813 Y150.9
X151.137 Y150.425
X151.326 Y149.882
X151.407 Y149.312
X151.428 Y148.737
X151.431 Y148.162
X151.432 Y139.532
Y104.439
Y54.387
Y4.335
Y0.308
X151.364 Y0.029
X151.132 Y-0.498
X150.738 Y-0.918
X150.239 Y-1.203
X149.685 Y-1.358
X149.112 Y-1.416
X148.537 Y-1.429
X147.962 Y-1.431
X105.965 Y-1.432
X55.913
X5.861
X0.684
X0.398 Y-1.4
X-0.154 Y-1.237
X-0.618 Y-0.897
X-0.957 Y-0.432
X-1.164 Y0.105
X-1.258 Y0.672
X-1.286 Y1.247
X-1.291 Y1.822
X-1.292 Y2.973
Y42.669
Y92.721
Y142.773
Y149.101
X-1.235 Y149.673
X-1.013 Y150.204
X-0.641 Y150.643
X-0.162 Y150.962
X0.378 Y151.16
X0.946 Y151.253
X1.52 Y151.284
X2.095 Y151.29
X2.671 Y151.291
X41.216 Y151.292
X91.268
X141.32
X149.374
X149.935 Y151.163
X150.428 Y150.867
X150.813 Y150.439
X151.074 Y149.927
X151.216 Y149.369
X151.274 Y148.797
X151.289 Y148.222
X151.291 Y147.646
X151.292 Y110.251
Y60.2
Y10.148
Y0.943
X151.246 Y0.37
X151.035 Y-0.165
X150.673 Y-0.613
X150.201 Y-0.942
X149.664 Y-1.149
X149.098 Y-1.248
X148.523 Y-1.283
X147.948 Y-1.29
X147.373 Y-1.291
X111.704 Y-1.292
X61.652
X11.6
X1.245
X0.67 Y-1.269
X0.12 Y-1.101
X-0.355 Y-0.776
X-0.718 Y-0.33
X-0.96 Y0.193
X-1.086 Y0.754
X-1.136 Y1.327
X-1.149 Y1.902
X-1.151 Y2.477
X-1.152 Y36.996
Y87.047
Y137.099
Y148.605
X-1.134 Y149.18
X-0.99 Y149.737
X-0.693 Y150.229
X-0.271 Y150.621
X0.236 Y150.892
X0.789 Y151.051
X1.36 Y151.124
X1.935 Y151.146
X2.51 Y151.151
X3.661 Y151.152
X35.878
X85.93
X135.981
X148.638
X149.213 Y151.139
X149.768 Y150.987
X150.256 Y150.682
X150.64 Y150.253
X150.906 Y149.743
X151.059 Y149.189
X151.126 Y148.617
X151.146 Y148.042
X151.151 Y147.467
X151.152 Y146.316
Y115.25
Y65.198
Y15.146
Y1.339
X151.132 Y0.764
X150.97 Y0.212
X150.658 Y-0.271
X150.226 Y-0.652
X149.713 Y-0.912
X149.157 Y-1.06
X148.586 Y-1.127
X148.011 Y-1.147
X147.435 Y-1.151
X145.709 Y-1.152
X116.369
X66.317
X16.265
X1.883
X1.307 Y-1.15
X0.735 Y-1.093
X0.2 Y-0.882
X-0.255 Y-0.529
X-0.598 Y-0.067
X-0.824 Y0.462
X-0.947 Y1.024
X-0.995 Y1.597
X-1.008 Y2.172
X-1.011 Y2.747
X-1.012 Y6.775
Y32.663
Y82.715
Y132.767
Y148.3
X-1.002 Y148.875
X-0.884 Y149.438
X-0.616 Y149.947
X-0.22 Y150.365
X0.266 Y150.672
X0.809 Y150.863
X1.376 Y150.961
X1.95 Y150.999
X2.525 Y151.009
X3.1 Y151.011
X31.866 Y151.012
X81.917
X131.969
X148.078
X148.653 Y151.01
X149.225 Y150.949
X149.761 Y150.74
X150.218 Y150.391
X150.568 Y149.934
X150.803 Y149.409
X150.935 Y148.849
X150.99 Y148.277
X151.007 Y147.701
X151.011 Y147.126
X151.012 Y145.976
Y118.936
Y68.884
Y18.833
Y1.574
X150.99 Y0.999
X150.837 Y0.444
X150.538 Y-0.047
X150.119 Y-0.442
X149.617 Y-0.723
X149.067 Y-0.892
X148.497 Y-0.973
X147.923 Y-1.003
X147.348 Y-1.01
X146.772 Y-1.011
X119.733 Y-1.012
X69.681
X19.63
X1.795 Y-1.011
X1.22 Y-0.992
X0.661 Y-0.859
X0.157 Y-0.58
X-0.252 Y-0.175
X-0.547 Y0.318
X-0.732 Y0.863
X-0.826 Y1.431
X-0.861 Y2.005
X-0.869 Y2.58
X-0.871 Y3.156
X-0.872 Y29.62
Y79.671
Y129.723
Y148.133
X-0.856 Y148.708
X-0.73 Y149.269
X-0.46 Y149.777
X-0.067 Y150.197
X0.417 Y150.508
X0.957 Y150.708
X1.523 Y150.812
X2.096 Y150.855
X2.672 Y150.868
X3.247 Y150.871
X5.548 Y150.872
X29.136
X79.187
X129.239
X147.649
X148.224 Y150.871
X148.799 Y150.846
X149.355 Y150.698
X149.853 Y150.41
X150.256 Y150.
X150.547 Y149.504
X150.73 Y148.958
X150.824 Y148.39
X150.86 Y147.816
X150.869 Y147.241
X150.871 Y146.666
X150.872 Y135.16
Y121.352
Y71.301
Y21.249
Y1.688
X150.831 Y1.115
X150.659 Y0.566
X150.348 Y0.082
X149.922 Y-0.305
X149.417 Y-0.581
X148.867 Y-0.749
X148.297 Y-0.83
X147.723 Y-0.861
X147.148 Y-0.869
X146.572 Y-0.871
X121.834 Y-0.872
X71.783
X21.731
X2.17 Y-0.871
X1.595 Y-0.863
X1.027 Y-0.772
X0.499 Y-0.543
X0.051 Y-0.182
X-0.29 Y0.281
X-0.519 Y0.809
X-0.649 Y1.369
X-0.707 Y1.941
X-0.726 Y2.516
X-0.731 Y3.092
X-0.732 Y4.242
Y27.83
Y77.882
Y127.933
Y147.494
X-0.731 Y148.069
X-0.696 Y148.643
X-0.54 Y149.197
X-0.247 Y149.692
X0.163 Y150.095
X0.657 Y150.39
X1.201 Y150.579
X1.768 Y150.676
X2.342 Y150.715
X2.917 Y150.728
X3.492 Y150.731
X5.218 Y150.732
X27.655
X77.707
X127.758
X147.894 Y150.731
X148.469 Y150.718
X149.033 Y150.605
X149.552 Y150.355
X149.987 Y149.979
X150.315 Y149.506
X150.532 Y148.974
X150.654 Y148.411
X150.709 Y147.839
X150.726 Y147.264
X150.731 Y146.688
X150.732 Y145.538
Y122.525
Y72.474
Y22.422
Y2.286
X150.726 Y1.711
X150.654 Y1.14
X150.443 Y0.605
X150.101 Y0.142
X149.655 Y-0.221
X149.138 Y-0.474
X148.583 Y-0.626
X148.012 Y-0.696
X147.438 Y-0.722
X146.862 Y-0.73
X146.287 Y-0.731
X122.7 Y-0.732
X72.648
X22.596
X2.46
X1.885 Y-0.727
X1.314 Y-0.656
X0.775 Y-0.457
X0.306 Y-0.122
X-0.064 Y0.318
X-0.321 Y0.833
X-0.476 Y1.387
X-0.553 Y1.957
X-0.582 Y2.531
X-0.59 Y3.107
X-0.591 Y3.682
X-0.592 Y27.27
Y77.321
Y127.373
Y147.509
X-0.584 Y148.084
X-0.517 Y148.655
X-0.315 Y149.194
X0.017 Y149.664
X0.455 Y150.037
X0.965 Y150.303
X1.517 Y150.467
X2.086 Y150.548
X2.661 Y150.579
X3.236 Y150.589
X3.811 Y150.591
X6.112 Y150.592
X27.399
X77.45
X127.502
X147.638 Y150.591
X148.213 Y150.583
X148.78 Y150.486
X149.308 Y150.258
X149.759 Y149.901
X150.11 Y149.445
X150.349 Y148.922
X150.49 Y148.364
X150.558 Y147.793
X150.583 Y147.218
X150.59 Y146.643
X150.591 Y146.067
X150.592 Y122.48
Y72.428
Y22.376
Y2.816
X150.59 Y2.241
X150.567 Y1.666
X150.443 Y1.104
X150.183 Y0.591
X149.801 Y0.16
X149.328 Y-0.166
X148.796 Y-0.386
X148.235 Y-0.511
X147.662 Y-0.566
X147.087 Y-0.585
X146.512 Y-0.59
X145.936 Y-0.591
X122.349 Y-0.592
X72.297
X22.245
X2.685
X2.11 Y-0.588
X1.538 Y-0.525
X0.994 Y-0.338
X0.515 Y-0.018
X0.132 Y0.41
X-0.143 Y0.916
X-0.313 Y1.465
X-0.401 Y2.034
X-0.437 Y2.608
X-0.448 Y3.183
X-0.451 Y3.759
X-0.452 Y6.06
Y27.921
Y77.973
Y128.025
Y147.01
X-0.45 Y147.585
X-0.425 Y148.16
X-0.301 Y148.722
X-0.044 Y149.237
X0.333 Y149.671
X0.803 Y150.003
X1.332 Y150.229
X1.892 Y150.361
X2.464 Y150.422
X3.039 Y150.443
X3.614 Y150.45
X4.189 Y150.451
X16.846 Y150.452
X28.352
X78.404
X128.455
X147.441 Y150.451
X148.016 Y150.445
X148.584 Y150.351
X149.115 Y150.131
X149.573 Y149.783
X149.933 Y149.334
X150.184 Y148.816
X150.334 Y148.261
X150.41 Y147.691
X150.44 Y147.116
