(H1_07_T8_PROJECT_ENGRAVE)
(T8  Chamfering Bit - 1/8AcA?A3 Shank      D=3.175 CR=0. TAPER=45deg - ZMIN=-13.5 - chamfer mill)
( =================================================== )
(   Z Origin Set To   : Stock Top )
(   Stock Height                    : 50. mm )
(   Toolpath Z Maximum from Stock Top: 15. mm )
(   Toolpath Z Min from Stock Top: -13.5 mm )
(  )
( =================================================== )

( The following values are based on the part position info used in fusion and can be used to roughly align the machine offset from anchor 1 if you use that feature. )
(   X Offset   : 15. mm )
(   Y Offset   : 60. mm )

( =================================================== )

G90 G94
G17
G21
(When using Fusion for Personal Use, the feedrate of rapid)
(moves is reduced to match the feedrate of cutting moves,)
(which can increase machining time. Unrestricted rapid moves)
(are available with a Fusion Subscription.)

(H1_T8_PROJECT_ENGRAVE)
M6 T8 
(8)
M400
M851 S100
S12000 M3
G54
G0 X69.243 Y19.243
Z15.
G1 Z-10. F400.
Z-13.5 F133.3
X65. Y15. F400.
Y21.
Z5.
X67.
Z-10.
Z-13.5 F133.3
X63. F400.
Z5.
X67.828 Y20.657
Z-10.
Z-13.5 F133.3
X70.657 Y17.828 F400.
Z5.
X71. Y15.
Z-10.
Z-13.5 F133.3
X65. F400.
X69.243 Y10.757
Z5.
X71. Y13.
Z-10.
Z-13.5 F133.3
Y17. F400.
Z5.
X70.657 Y12.172
Z-10.
Z-13.5 F133.3
X67.828 Y9.343 F400.
Z5.
X65. Y9.
Z-10.
Z-13.5 F133.3
Y15. F400.
X60.757 Y10.757
Z5.
X63. Y9.
Z-10.
Z-13.5 F133.3
X67. F400.
Z5.
X62.172 Y9.343
Z-10.
Z-13.5 F133.3
X59.343 Y12.172 F400.
Z5.
X59. Y15.
Z-10.
Z-13.5 F133.3
X65. F400.
X60.757 Y19.243
Z5.
X59. Y17.
Z-10.
Z-13.5 F133.3
Y13. F400.
Z5.
X59.343 Y17.828
Z-10.
Z-13.5 F133.3
X62.172 Y20.657 F400.
Z5.
X64.664 Y15.726
Z-10.
Z-13.5 F133.3
X64.828 Y15.781 F400.
X65. Y15.8
X65.172 Y15.781
X65.336 Y15.726
X65.484 Y15.637
X65.61 Y15.518
X65.707 Y15.375
X65.771 Y15.214
X65.799 Y15.043
X65.789 Y14.871
X65.743 Y14.704
X65.662 Y14.551
X65.55 Y14.419
X65.412 Y14.314
X65.255 Y14.242
X65.087 Y14.205
X64.913
X64.745 Y14.242
X64.588 Y14.314
X64.45 Y14.419
X64.338 Y14.551
X64.257 Y14.704
X64.211 Y14.871
X64.201 Y15.043
X64.229 Y15.214
X64.293 Y15.375
X64.39 Y15.518
X64.516 Y15.637
X64.664 Y15.726
Z5.
X103.501 Y14.9
Z-10.
Z-13.5 F133.3
X103.511 Y15.299 F400.
X103.561 Y15.695
X103.65 Y16.083
X103.777 Y16.461
X103.941 Y16.825
X104.14 Y17.17
X104.373 Y17.494
X104.637 Y17.793
X104.929 Y18.064
X105.247 Y18.305
X105.587 Y18.513
X105.946 Y18.686
X106.321 Y18.822
X106.707 Y18.921
X107.102 Y18.98
X107.5 Y19.
X107.898 Y18.98
X108.293 Y18.921
X108.679 Y18.822
X109.054 Y18.686
X109.413 Y18.513
X109.753 Y18.305
X110.071 Y18.064
X110.363 Y17.793
X110.627 Y17.494
X110.86 Y17.17
X111.059 Y16.825
X111.223 Y16.461
X111.35 Y16.083
X111.439 Y15.695
X111.489 Y15.299
X111.499 Y14.9
X111.469 Y14.503
X111.4 Y14.11
X111.292 Y13.726
X111.146 Y13.355
X110.964 Y13.
X110.748 Y12.665
X110.499 Y12.353
X110.221 Y12.068
X109.915 Y11.811
X109.586 Y11.587
X109.236 Y11.396
X108.868 Y11.241
X108.487 Y11.124
X108.096 Y11.045
X107.699 Y11.005
X107.301
X106.904 Y11.045
X106.513 Y11.124
X106.132 Y11.241
X105.764 Y11.396
X105.414 Y11.587
X105.085 Y11.811
X104.779 Y12.068
X104.501 Y12.353
X104.252 Y12.665
X104.036 Y13.
X103.854 Y13.355
X103.708 Y13.726
X103.6 Y14.11
X103.531 Y14.503
X103.501 Y14.9
Z5.
X103.216 Y16.795
Z-10.
Z-13.5 F133.3
X102.957 Y16.756 F400.
X102.571 Y16.657
X102.196 Y16.521
X101.837 Y16.348
X101.497 Y16.14
X101.179 Y15.899
X100.887 Y15.628
X100.623 Y15.329
X100.39 Y15.005
X100.191 Y14.66
X100.027 Y14.296
X99.899 Y13.918
X99.811 Y13.53
X99.761 Y13.134
X99.751 Y12.735
X99.781 Y12.338
X99.85 Y11.945
X99.958 Y11.561
X100.104 Y11.19
X100.286 Y10.835
X100.502 Y10.5
X100.751 Y10.188
X101.029 Y9.903
X101.335 Y9.646
X101.664 Y9.422
X102.014 Y9.231
X102.382 Y9.076
X102.763 Y8.959
X103.154 Y8.88
X103.551 Y8.84
X103.949
X104.346 Y8.88
X104.737 Y8.959
X105.118 Y9.076
X105.486 Y9.231
X105.836 Y9.422
X106.165 Y9.646
X106.471 Y9.903
X106.749 Y10.188
X106.998 Y10.5
X107.214 Y10.835
X107.396 Y11.19
X107.542 Y11.561
X107.65 Y11.945
X107.719 Y12.338
X107.749 Y12.735
X107.739 Y13.134
X107.689 Y13.53
X107.6 Y13.918
X107.473 Y14.296
X107.309 Y14.66
X107.11 Y15.005
X106.877 Y15.329
X106.613 Y15.628
X106.321 Y15.899
X106.003 Y16.14
X105.663 Y16.348
X105.304 Y16.521
X104.929 Y16.657
X104.543 Y16.756
X104.148 Y16.815
X103.75 Y16.835
X103.352 Y16.815
X103.216 Y16.795
Z5.
X100.404 Y14.982
Z-10.
Z-13.5 F133.3
X100.286 Y15.165 F400.
X100.104 Y15.52
X99.958 Y15.891
X99.85 Y16.275
X99.781 Y16.668
X99.751 Y17.065
X99.761 Y17.464
X99.811 Y17.86
X99.899 Y18.248
X100.027 Y18.626
X100.191 Y18.99
X100.39 Y19.335
X100.623 Y19.659
X100.887 Y19.958
X101.179 Y20.229
X101.497 Y20.47
X101.837 Y20.678
X102.196 Y20.851
X102.571 Y20.987
X102.957 Y21.086
X103.352 Y21.145
X103.75 Y21.165
X104.148 Y21.145
X104.543 Y21.086
X104.929 Y20.987
X105.304 Y20.851
X105.663 Y20.678
X106.003 Y20.47
X106.321 Y20.229
X106.613 Y19.958
X106.877 Y19.659
X107.11 Y19.335
X107.309 Y18.99
X107.473 Y18.626
X107.6 Y18.248
X107.689 Y17.86
X107.739 Y17.464
X107.749 Y17.065
X107.719 Y16.668
X107.65 Y16.275
X107.542 Y15.891
X107.396 Y15.52
X107.214 Y15.165
X106.998 Y14.83
X106.749 Y14.518
X106.471 Y14.233
X106.165 Y13.976
X105.836 Y13.752
X105.486 Y13.561
X105.118 Y13.406
X104.737 Y13.289
X104.346 Y13.21
X103.949 Y13.17
X103.551
X103.154 Y13.21
X102.763 Y13.289
X102.382 Y13.406
X102.014 Y13.561
X101.664 Y13.752
X101.335 Y13.976
X101.029 Y14.233
X100.751 Y14.518
X100.502 Y14.83
X100.404 Y14.982
Z5.
X141.428 Y16.375
Z-10.
Z-13.5 F133.3
X148.572 Y20.5 F400.
Y12.25
X141.428 Y16.375
Z5.
X143.015 Y13.625
Z-10.
Z-13.5 F133.3
X150.16 Y17.75 F400.
Y9.5
X143.015 Y13.625
Z5.
X142.222 Y15.
Z-10.
Z-13.5 F133.3
X146.985 Y17.75 F400.
Y9.5
X139.84 Y13.625
X142.222 Y15.
Z5.
X141.428 Y16.375
Z-10.
Z-13.5 F133.3
X148.572 Y12.25 F400.
Z5.
X145.635 Y15.137
Z-10.
Z-13.5 F133.3
X143.015 Y13.625 F400.
Z15.
M5
M400
M852
G28
M30
