(H1_04_T2_ODIN_FINISH)
(T2  2 Flute Ball Nose 3.175*22      D=3.175 CR=1.588 - ZMIN=-13.217 - ball end mill)
( =================================================== )
(   Z Origin Set To   : Stock Top )
(   Stock Height                    : 50. mm )
(   Toolpath Z Maximum from Stock Top: 15. mm )
(   Toolpath Z Min from Stock Top: -13.217 mm )
(  )
( =================================================== )

( The following values are based on the part position info used in fusion and can be used to roughly align the machine offset from anchor 1 if you use that feature. )
(   X Offset   : 15. mm )
(   Y Offset   : 60. mm )

( =================================================== )

G90 G94
G17
G21
(When using Fusion for Personal Use, the feedrate of rapid)
(moves is reduced to match the feedrate of cutting moves,)
(which can increase machining time. Unrestricted rapid moves)
(are available with a Fusion Subscription.)

(H1_T2_ODIN_FINISH)
M6 T2 
(6)
M400
M851 S100
S18000 M3
G54
G0 X270.319 Y0.991
Z15.
G1 Z-10.014 F1500.
Z-11.683 F200.
X270.001 Z-12. F1500.
X219.958 Z-12.001
X219.775 Z-12.016
X219.605 Z-12.05
X219.439 Z-12.103
X219.279 Z-12.173
X219.126 Z-12.262
X218.983 Z-12.369
X218.852 Z-12.492
X218.734 Z-12.63
X218.631 Z-12.785
X218.528 Z-12.993
X218.526 Z-12.998
Y1.117
Y1.243
X218.601 Z-12.838
X218.698 Z-12.679
X218.812 Z-12.535
X218.939 Z-12.407
X219.079 Z-12.295
X219.229 Z-12.2
X219.387 Z-12.123
X219.551 Z-12.065
X219.72 Z-12.025
X219.929 Z-12.002
X270.009 Z-12.
X270.079 Z-11.984
X270.149 Z-11.968
X270.275 Y1.369
X270.149 Y1.495
X270.079 Z-11.984
X270.009 Z-12.
X219.929 Z-12.002
X219.72 Z-12.025
X219.551 Z-12.065
X219.387 Z-12.123
X219.229 Z-12.2
X219.079 Z-12.295
X218.939 Z-12.407
X218.812 Z-12.535
X218.698 Z-12.679
X218.601 Z-12.838
X218.526 Z-12.998
Y1.747
X218.601 Z-12.838
X218.698 Z-12.679
X218.812 Z-12.535
X218.939 Z-12.407
X219.079 Z-12.295
X219.229 Z-12.2
X219.387 Z-12.123
X219.551 Z-12.065
X219.72 Z-12.025
X219.929 Z-12.002
X270.009 Z-12.
X270.079 Z-11.984
X270.149 Z-11.968
X270.275 Y1.873
X270.149 Y1.999
X270.079 Z-11.984
X270.009 Z-12.
X219.929 Z-12.002
X219.72 Z-12.025
X219.551 Z-12.065
X219.387 Z-12.123
X219.229 Z-12.2
X219.079 Z-12.295
X218.939 Z-12.407
X218.812 Z-12.535
X218.698 Z-12.679
X218.601 Z-12.838
X218.526 Z-12.998
Y2.251
X218.601 Z-12.838
X218.698 Z-12.679
X218.812 Z-12.535
X218.939 Z-12.407
X219.079 Z-12.295
X219.229 Z-12.2
X219.387 Z-12.123
X219.551 Z-12.065
X219.72 Z-12.025
X219.929 Z-12.002
X270.009 Z-12.
X270.079 Z-11.984
X270.149 Z-11.968
X270.275 Y2.377
X270.149 Y2.503
X270.079 Z-11.984
X270.009 Z-12.
X219.929 Z-12.002
X219.72 Z-12.025
X219.551 Z-12.065
X219.387 Z-12.123
X219.229 Z-12.2
X219.079 Z-12.295
X218.939 Z-12.407
X218.812 Z-12.535
X218.698 Z-12.679
X218.601 Z-12.838
X218.526 Z-12.998
Y2.755
X218.601 Z-12.838
X218.698 Z-12.679
X218.812 Z-12.535
X218.939 Z-12.407
X219.079 Z-12.295
X219.229 Z-12.2
X219.387 Z-12.123
X219.551 Z-12.065
X219.72 Z-12.025
X219.929 Z-12.002
X270.009 Z-12.
X270.079 Z-11.984
X270.149 Z-11.968
X270.275 Y2.881
X270.149 Y3.007
X270.079 Z-11.984
X270.009 Z-12.
X219.929 Z-12.002
X219.72 Z-12.025
X219.551 Z-12.065
X219.387 Z-12.123
X219.229 Z-12.2
X219.079 Z-12.295
X218.939 Z-12.407
X218.812 Z-12.535
X218.698 Z-12.679
X218.601 Z-12.838
X218.526 Z-12.998
X218.269 Z-13.125
X218.089 Z-12.901
Z5.
X203.759 Y2.503
Z-9.865
Z-12.683 F200.
X203.658 Z-12.915 F1500.
X203.42 Z-13.
X202.765 Z-12.956
X202.268 Z-12.938
X201.335 Z-12.948
X200.5 Z-13.
X200.263 Z-12.915
X200.163 Z-12.683
Z5.
X196.425 Y1.999
Z-7.793
Z-12.899 F200.
G18 G3 X195.805 Z-12.997 I-0.318 K0. F1500.
G1 X195.772 Z-12.894
X195.691 Z-12.736
X195.63 Z-12.592
X195.584 Z-12.519
X195.539 Z-12.463
X195.475 Z-12.402
X195.41 Z-12.356
X195.248 Z-12.268
X195.163 Z-12.233
X195.078 Z-12.214
X194.983 Z-12.211
X194.826 Z-12.239
X194.721 Z-12.267
X194.555 Z-12.325
X194.308 Z-12.426
X194.218 Z-12.474
X194.108 Z-12.555
X193.872 Z-12.773
X193.738 Z-12.949
X193.705 Z-13.
X193.496 Y2.113 Z-12.999
X193.301 Y2.251 Z-12.998
X193.333 Z-12.935
X193.48 Z-12.694
X193.608 Z-12.469
X193.714 Z-12.308
X193.773 Z-12.241
X193.844 Z-12.175
X193.915 Z-12.122
X194.223 Z-11.941
X194.435 Z-11.796
X194.686 Z-11.626
X194.805 Z-11.561
X194.891 Z-11.533
X195.113 Z-11.502
X195.263 Z-11.503
X195.396 Z-11.536
X195.519 Z-11.595
X195.68 Z-11.698
X195.822 Z-11.798
X195.948 Z-11.936
X196.048 Z-12.07
X196.072 Z-12.109
X196.121 Z-12.226
X196.185 Z-12.627
X196.192 Z-12.978
X196.431 Y2.293 Z-12.983
X196.667 Y2.347 Z-12.989
X196.9 Y2.41 Z-12.994
X197.125 Y2.503 Z-13.
X197.122 Z-11.861
X197.103 Z-11.611
X197.079 Z-11.512
X197.03 Z-11.396
X196.93 Z-11.213
X196.877 Z-11.145
X196.823 Z-11.092
X196.751 Z-11.039
X196.679 Z-11.002
X196.547 Z-10.965
X196.409 Z-10.946
X196.219 Z-10.943
X196.122 Z-10.963
X196.04 Z-10.994
X195.903 Z-11.072
X195.861 Z-11.103
X195.353 Z-10.999
X195.269 Z-10.991
X195.171 Z-10.992
X194.989 Z-11.025
X194.822 Z-11.062
X194.738 Z-11.088
X194.587 Z-11.162
X194.432 Z-11.28
X194.178 Z-11.515
X193.883 Z-11.741
X193.66 Z-11.954
X193.486 Z-12.156
X193.36 Z-12.351
X193.199 Z-12.647
X193.15 Z-12.761
X192.904 Z-12.891
X192.729 Z-12.999
X192.538 Y2.56
X192.348 Y2.619
X192.16 Y2.683
X191.974 Y2.755
X192.114 Z-12.864
X192.692 Z-12.441
X192.954 Z-12.29
X193.272 Z-12.122
X193.369 Z-11.975
X193.517 Z-11.746
X193.666 Z-11.567
X193.958 Z-11.208
X194.086 Z-11.071
X194.168 Z-11.007
X194.395 Z-10.863
X194.548 Z-10.78
X194.788 Z-10.67
X194.956 Z-10.627
X195.139 Z-10.61
X195.414 Z-10.609
X195.537 Z-10.576
X195.64 Z-10.563
X195.74 Z-10.564
X195.85 Z-10.48
X195.926 Z-10.435
X196.009 Z-10.397
X196.092 Z-10.369
X196.476 Z-10.3
X196.618
X196.707 Z-10.317
X196.796 Z-10.346
X196.875 Z-10.383
X196.988 Z-10.454
X197.089 Z-10.54
X197.382 Z-10.879
X197.446 Z-10.984
X197.53 Z-11.202
X197.572 Z-11.355
X197.584 Z-11.471
X197.59 Z-12.531
X198.287 Z-12.611
X198.433 Z-12.64
X198.531 Z-12.675
X198.767 Z-12.622
X198.948 Z-12.592
X199.317 Z-12.573
X200.897 Z-12.518
X202.092 Z-12.522
X203.051 Z-12.552
X203.434 Z-12.572
X204.006 Z-12.614
X204.504 Z-12.673
X205.026 Z-12.763
X205.488 Z-12.88
X205.796 Z-12.999
X205.934 Y2.78
X206.071 Y2.807
X206.208 Y2.836
X206.345 Y2.866
X206.481 Y2.9
X206.617 Y2.935
X206.753 Y2.97
X206.888 Y3.007
X206.668 Z-12.872
X206.324 Z-12.724
X205.886 Z-12.6
X205.447 Z-12.508
X204.788 Z-12.394
X204.353 Z-12.333
X203.783 Z-12.275
X202.941 Z-12.207
X201.79 Z-12.161
X200.128 Z-12.14
X199.208 Z-12.128
X198.947 Z-12.154
X198.835 Z-12.178
X198.741 Z-12.145
X197.931 Z-11.992
X197.924 Z-11.106
X197.905 Z-10.927
X197.863 Z-10.727
X197.821 Z-10.619
X197.735 Z-10.475
X197.628 Z-10.353
X197.492 Z-10.237
X197.339 Z-10.135
X197.215 Z-10.079
X197.011 Z-9.933
X196.856 Z-9.848
X196.773 Z-9.814
X196.683 Z-9.787
X196.592 Z-9.771
X196.497 Z-9.766
X196.403 Z-9.773
X196.318 Z-9.79
X196.153 Z-9.854
X195.918 Z-9.965
X195.841 Z-10.009
X195.71 Z-10.105
X195.457 Z-10.15
X195.292 Z-10.208
X195.154 Z-10.278
X194.897 Z-10.321
X194.426 Z-10.482
X194.325 Z-10.526
X194.172 Z-10.619
X193.896 Z-10.836
X193.768 Z-10.966
X193.657 Z-11.122
X193.527 Z-11.358
X193.467 Z-11.466
X193.366 Z-11.61
X192.848 Z-11.875
X192.415 Z-12.154
X192.205 Z-12.31
X191.615 Z-12.851
X191.472 Z-12.998
G3 X190.927 Z-12.777 I-0.228 K0.221
G1 Z5.
X188.611
Z-10.344
Z-12.71 F200.
G3 X188.163 Z-13. I-0.318 K0. F1500.
G1 X188.015 Z-12.933
X187.804 Z-12.872
X187.498 Z-12.837
X187.194 Z-12.86
X186.854 Z-12.923
X186.688 Z-12.984
X186.659 Z-13.
G3 X186.192 Z-12.719 I-0.15 K0.28
G1 Z5.
X175.542 Y2.503
Z-10.292
Z-12.728 F200.
G3 X175.059 Z-12.999 I-0.318 K0. F1500.
G1 X174.941 Z-12.927
X174.778 Z-12.816
X174.548 Z-12.701
X174.462 Z-12.669
X174.371 Z-12.644
X174.09 Z-12.599
X173.995 Z-12.595
X173.814 Z-12.613
X173.646 Z-12.662
X173.487 Z-12.741
X173.342 Z-12.849
X173.332 Z-12.856
X173.272 Z-12.85
X173.143 Z-12.852
X173.057 Z-12.866
X172.972 Z-12.892
X172.891 Z-12.926
X172.774 Z-12.999
X172.638 Y2.554
X172.508 Y2.617
X172.379 Y2.681
X172.254 Y2.755
X172.322 Z-12.914
X172.42 Z-12.82
X172.6 Z-12.69
X172.754 Z-12.601
X172.919 Z-12.539
X173.1 Z-12.502
X173.198 Z-12.496
X173.384 Z-12.508
X173.415 Z-12.493
X173.604 Z-12.41
X173.772 Z-12.366
X173.955 Z-12.345
X174.148 Z-12.352
X174.43 Z-12.39
X174.778 Z-12.488
X175.034 Z-12.579
X175.213 Z-12.664
X175.451 Z-12.779
X175.599 Z-12.877
X175.723 Z-12.999
X175.839 Y2.825
X175.957 Y2.893 Z-13.
X176.082 Y2.946
X176.203 Y3.007
X176.132 Z-12.925
X176. Z-12.811
X175.726 Z-12.597
X175.573 Z-12.502
X175.402 Z-12.431
X174.946 Z-12.298
X174.479 Z-12.207
X174.218 Z-12.178
X173.904 Z-12.184
X173.733 Z-12.207
X173.514 Z-12.268
X173.472 Z-12.284
X173.18 Z-12.28
X173.033 Z-12.294
X172.864 Z-12.33
X172.558 Z-12.445
X172.383 Z-12.54
X172.239 Z-12.65
X172.024 Z-12.871
X171.926 Z-12.999
G3 X171.357 Z-12.804 I-0.251 K0.194
G1 Z5.
X270.327 Y3.259
Z-10.015
Z-11.683 F200.
X270.009 Z-12. F1500.
X219.929 Z-12.002
X219.72 Z-12.025
X219.551 Z-12.065
X219.387 Z-12.123
X219.229 Z-12.2
X219.079 Z-12.295
X218.939 Z-12.407
X218.812 Z-12.535
X218.698 Z-12.679
X218.601 Z-12.838
X218.527 Z-12.992
X211.759 Z-12.99
X211.698 Z-12.973
X211.581 Z-12.958
X211.484 Z-12.962
X211.351 Z-12.992
X207.648 Z-12.989
X207.431 Z-12.839
X207.151 Z-12.692
X206.822 Z-12.565
X206.178 Z-12.385
X205.9 Z-12.317
X205.714 Z-12.275
X204.86 Z-12.115
X203.866 Z-11.98
X202.932 Z-11.906
X202.332 Z-11.864
X201.556 Z-11.829
X200.551 Z-11.798
X199.535 Z-11.742
X199.353 Z-11.752
X199.133 Z-11.781
X198.964 Z-11.722
X198.216 Z-11.571
X198.212 Z-10.885
X198.183 Z-10.695
X198.113 Z-10.433
X198.066 Z-10.318
X197.992 Z-10.189
X197.884 Z-10.056
X197.753 Z-9.938
X197.602 Z-9.831
X197.398 Z-9.719
X197.181 Z-9.622
X197.022 Z-9.517
X196.865 Z-9.44
X196.687 Z-9.388
X196.501 Z-9.369
X196.405 Z-9.373
X196.31 Z-9.385
X196.132 Z-9.433
X195.972 Z-9.508
X195.653 Z-9.695
X195.597 Z-9.737
X195.41 Z-9.769
X195.242 Z-9.823
X194.934 Z-9.992
X194.879 Z-10.022
X194.528 Z-10.158
X194.29 Z-10.259
X193.912 Z-10.48
X193.771 Z-10.593
X193.647 Z-10.73
X193.541 Z-10.885
X193.41 Z-11.129
X193.368 Z-11.222
X192.59 Z-11.609
X192.373 Z-11.763
X191.916 Z-12.13
X191.538 Z-12.484
X191.356 Z-12.672
X191.177 Z-12.872
X191.089 Z-12.992
X189.153 Z-12.988
X189.006 Z-12.884
X188.771 Z-12.764
X188.321 Z-12.627
X188.02 Z-12.546
X187.713 Z-12.502
X187.428 Z-12.491
X187.016 Z-12.52
X186.783 Z-12.552
X186.615 Z-12.599
X186.371 Z-12.695
X186.215 Z-12.776
X185.997 Z-12.923
X185.914 Z-12.992
X176.714 Z-12.989
X176.6 Z-12.86
X176.462 Z-12.75
X176.278 Z-12.647
X176.127 Z-12.52
X175.949 Z-12.404
X175.651 Z-12.267
X175.474 Z-12.203
X175.291 Z-12.164
X174.725 Z-12.078
X174.343 Z-12.052
X174.149 Z-12.049
X173.881 Z-12.076
X173.745 Z-12.096
X173.559 Z-12.094
X173.192 Z-12.116
X172.895 Z-12.175
X172.604 Z-12.254
X172.402 Z-12.341
X172.055 Z-12.541
X171.656 Z-12.802
X171.508 Z-12.917
X171.434 Z-12.992
X34.899 Z-12.995
X34.799 Z-13.
X34.633 Z-12.841
X34.497 Y3.29 Z-12.505
X34.168 Y3.364 Z-12.365
X33.979 Y3.406
X33.651 Y3.48 Z-12.505
X33.515 Y3.511 Z-12.841
Z-12.846
X33.712 Z-13.
X33.805 Z-12.977
X34.365 Z-12.887
X34.904 Z-12.854
X171.179 Z-12.851
X171.296 Z-12.726
X171.436 Z-12.612
X171.59 Z-12.522
X172.098 Z-12.319
X172.564 Z-12.157
X173.053 Z-12.024
X173.485 Z-11.968
X173.815 Z-11.955
X174.107 Z-11.971
X174.571 Z-11.949
X174.955 Z-11.967
X175.286 Z-12.002
X175.519 Z-12.046
X175.884 Z-12.15
X176.147 Z-12.255
X176.309 Z-12.342
X176.464 Z-12.456
X176.549 Z-12.514
X176.705 Z-12.624
X176.813 Z-12.7
X176.975 Z-12.849
X185.593 Z-12.851
X185.668 Z-12.775
X185.808 Z-12.661
X185.962 Z-12.572
X186.203 Z-12.476
X186.492 Z-12.384
X186.83 Z-12.313
X187.292 Z-12.271
X187.68 Z-12.28
X187.87 Z-12.298
X188.258 Z-12.358
X188.699 Z-12.439
X189.017 Z-12.534
X189.349 Z-12.673
X189.558 Z-12.793
X189.767 Z-12.802
X189.923 Z-12.822
X190.021 Z-12.851
X190.903
X190.953 Z-12.778
X191.093 Z-12.589
X191.27 Z-12.38
X191.72 Z-11.93
X192.328 Z-11.448
X192.562 Z-11.29
X192.859 Z-11.109
X193.345 Z-10.878
X193.451 Z-10.693
X193.561 Z-10.544
X193.686 Z-10.411
X193.936 Z-10.204
X194.107 Z-10.08
X194.418 Z-9.913
X194.654 Z-9.814
X194.721 Z-9.75
X194.864 Z-9.634
X195.021 Z-9.548
X195.114 Z-9.513
X195.38 Z-9.437
X195.757 Z-9.231
X195.943 Z-9.164
X196.112 Z-9.128
X196.295 Z-9.11
X196.487
X196.676 Z-9.131
X196.85 Z-9.173
X197.383 Z-9.347
X197.551 Z-9.419
X197.702 Z-9.517
X197.849 Z-9.644
X198.03 Z-9.835
X198.184 Z-10.044
X198.275 Z-10.199
X198.345 Z-10.37
X198.392 Z-10.565
X198.406 Z-10.708
X198.414 Z-11.202
X199.158 Z-11.377
X199.336 Z-11.444
X199.695 Z-11.427
X199.867 Z-11.428
X200.248 Z-11.46
X201.174 Z-11.511
X201.729 Z-11.541
X202.665 Z-11.599
X203.69 Z-11.696
X204.167 Z-11.748
X205.066 Z-11.876
X205.674 Z-12.001
X206.213 Z-12.125
X206.935 Z-12.332
X207.621 Z-12.578
X207.929 Z-12.733
X208.096 Z-12.848
X210.831 Z-12.851
X210.894 Z-12.792
X211.04 Z-12.684
X211.201 Z-12.608
X211.332 Z-12.571
X211.475 Z-12.553
X211.665 Z-12.559
X211.849 Z-12.595
X212.025 Z-12.661
X212.188 Z-12.743
X212.33 Z-12.849
X218.593 Z-12.851
X218.698 Z-12.679
X218.812 Z-12.535
X218.939 Z-12.407
X219.079 Z-12.295
X219.229 Z-12.2
X219.387 Z-12.123
X219.551 Z-12.065
X219.72 Z-12.025
X219.929 Z-12.002
X270.009 Z-12.
X270.079 Z-11.984
X270.149 Z-11.968
X270.275 Y3.637
X270.149 Y3.763
X270.079 Z-11.984
X270.009 Z-12.
X219.929 Z-12.002
X219.72 Z-12.025
X219.551 Z-12.065
X219.387 Z-12.123
X219.229 Z-12.2
X219.079 Z-12.295
X218.939 Z-12.407
X218.812 Z-12.535
X218.669 Z-12.723
X218.655 Z-12.73
X212.566 Z-12.728
X212.436 Z-12.61
X212.286 Z-12.509
X212.12 Z-12.429
X211.943 Z-12.357
X211.764 Z-12.305
X211.577 Z-12.282
X211.386 Z-12.28
X211.191 Z-12.301
X211.022 Z-12.344
X210.78 Z-12.44
X210.627 Z-12.533
X210.49 Z-12.655
X210.425 Z-12.73
X208.459 Z-12.728
X208.208 Z-12.576
X207.834 Z-12.409
X207.318 Z-12.21
X206.957 Z-12.086
X206.499 Z-11.951
X205.777 Z-11.77
X205.151 Z-11.639
X204.689 Z-11.566
X203.743 Z-11.437
X203.191 Z-11.386
X202.831 Z-11.349
X201.173 Z-11.226
X199.872 Z-11.134
X199.584 Z-11.151
X199.545 Z-11.154
X199.375 Z-11.085
X198.838 Z-10.937
X198.564 Z-10.872
X198.561 Z-10.659
X198.548 Z-10.545
X198.501 Z-10.343
X198.42 Z-10.133
X198.266 Z-9.823
X198.163 Z-9.667
X198.047 Z-9.535
X197.767 Z-9.294
X197.575 Z-9.168
X197.408 Z-9.091
X197.007 Z-8.947
X196.729 Z-8.885
X196.541 Z-8.868
X196.055 Z-8.864
X195.842 Z-8.895
X195.549 Z-8.971
X195.385 Z-9.029
X195.226 Z-9.11
X195.117 Z-9.185
X194.892 Z-9.295
X194.591 Z-9.489
X194.466 Z-9.597
X194.169 Z-9.752
X194.023 Z-9.853
X193.677 Z-10.162
X193.498 Z-10.359
X193.39 Z-10.505
X193.336 Z-10.59
X192.951 Z-10.765
X192.721 Z-10.885
X192.281 Z-11.161
X191.793 Z-11.554
X191.538 Z-11.796
X191.166 Z-12.185
X190.887 Z-12.52
X190.769 Z-12.699
X190.751 Z-12.73
X190.504 Z-12.729
X190.352 Z-12.639
X190.137 Z-12.54
X189.958 Z-12.49
X189.765 Z-12.47
X189.508 Z-12.464
X189.197 Z-12.362
X188.781 Z-12.263
X188.139 Z-12.164
X187.687 Z-12.091
X187.485 Z-12.082
X186.853 Z-12.122
X186.598 Z-12.167
X186.04 Z-12.322
X185.838 Z-12.406
X185.609 Z-12.536
X185.402 Z-12.685
X185.347 Z-12.73
X177.19 Z-12.727
X177.017 Z-12.577
X176.691 Z-12.36
X176.444 Z-12.204
X176.19 Z-12.08
X175.99 Z-12.017
X175.641 Z-11.949
X175.236 Z-11.888
X174.901 Z-11.872
X174.481 Z-11.877
X174.224 Z-11.837
X174.032 Z-11.83
X173.59 Z-11.86
X173.315 Z-11.895
X172.967 Z-11.955
X172.519 Z-12.06
X171.726 Z-12.273
X171.553 Z-12.337
X171.359 Z-12.443
X171.179 Z-12.576
X171.015 Z-12.73
X34.885 Z-12.734
X34.382 Z-12.763
X33.937 Z-12.827
X33.748 Z-12.865
X33.415 Z-12.946
X33.224 Z-13.
X33.111 Z-12.99
X33.048 Z-12.977
X32.697
X32.571 Y3.889
X32.697 Y4.015
X32.761 Z-12.99
X32.767 Z-12.993
X32.889 Z-13.
X33.212 Z-12.888
X33.378 Z-12.839
X33.816 Z-12.733
X34.388 Z-12.646
X34.896 Z-12.617
X170.911 Z-12.614
X170.937 Z-12.589
X171.1 Z-12.446
X171.249 Z-12.349
X171.406 Z-12.27
X171.765 Z-12.12
X172.737 Z-11.847
X173.054 Z-11.792
X173.724 Z-11.711
X173.997 Z-11.717
X174.738 Z-11.752
X175.107 Z-11.801
X175.393 Z-11.819
X175.959 Z-11.891
X176.143 Z-11.937
X176.501 Z-12.061
X176.759 Z-12.174
X176.921 Z-12.267
X177.187 Z-12.459
X177.37 Z-12.612
X185.161 Z-12.614
X185.279 Z-12.521
X185.435 Z-12.424
X185.982 Z-12.174
X186.412 Z-12.043
X186.664 Z-11.976
X186.877 Z-11.949
X187.382 Z-11.92
X187.67 Z-11.932
X187.859 Z-11.954
X188.023 Z-11.982
X188.408 Z-12.077
X188.622 Z-12.087
X188.811 Z-12.108
X189.444 Z-12.255
X189.889 Z-12.271
X190.075 Z-12.304
X190.346 Z-12.387
X190.511 Z-12.463
X190.733 Z-12.491
X190.753 Z-12.461
X191.115 Z-11.964
X191.373 Z-11.681
X191.773 Z-11.283
X192.283 Z-10.878
X192.684 Z-10.625
X192.855 Z-10.535
X193.027 Z-10.451
X193.366 Z-10.293
X193.515 Z-10.055
X193.626 Z-9.907
X193.846 Z-9.683
X193.984 Z-9.564
X194.312 Z-9.356
X194.429 Z-9.253
X194.595 Z-9.138
X194.769 Z-9.053
X194.904 Z-8.95
X195.051 Z-8.846
X195.209 Z-8.765
X195.376 Z-8.711
X195.504 Z-8.687
X195.909 Z-8.661
X196.589 Z-8.679
X196.964 Z-8.736
X197.146 Z-8.786
X197.411 Z-8.89
X197.664 Z-9.01
X197.816 Z-9.109
X197.947 Z-9.22
X198.197 Z-9.485
X198.307 Z-9.624
X198.397 Z-9.769
X198.47 Z-9.923
X198.552 Z-10.158
X198.621 Z-10.398
X198.652 Z-10.565
X199.517 Z-10.801
X199.683 Z-10.87
X199.706 Z-10.871
X200.131 Z-10.875
X200.607 Z-10.916
X202.264 Z-11.05
X203.545 Z-11.176
X204.41 Z-11.284
X205.051 Z-11.381
X205.407 Z-11.454
X206.111 Z-11.613
X206.85 Z-11.821
X207.122 Z-11.905
X207.729 Z-12.134
X208.083 Z-12.274
X208.255 Z-12.352
X208.508 Z-12.477
X208.746 Z-12.611
X209.733 Z-12.614
X209.903 Z-12.528
X210.069 Z-12.473
X210.238 Z-12.444
X210.38 Z-12.328
X210.53 Z-12.228
X210.691 Z-12.156
X210.869 Z-12.109
X211.232 Z-12.066
X211.407 Z-12.064
X211.613 Z-12.086
X211.889 Z-12.154
X212.065 Z-12.217
X212.399 Z-12.386
X212.548 Z-12.49
X212.681 Z-12.612
X218.746 Z-12.614
X218.812 Z-12.535
X218.939 Z-12.407
X219.079 Z-12.295
X219.229 Z-12.2
X219.387 Z-12.123
X219.551 Z-12.065
X219.72 Z-12.025
X219.929 Z-12.002
X270.009 Z-12.
X270.079 Z-11.984
X270.149 Z-11.968
X270.275 Y4.141
X270.149 Y4.267
X270.079 Z-11.984
X270.009 Z-12.
X219.929 Z-12.002
X219.72 Z-12.025
X219.551 Z-12.065
X219.387 Z-12.123
X219.229 Z-12.2
X219.079 Z-12.295
X218.939 Z-12.407
X218.83 Z-12.514
X212.73 Z-12.512
X212.594 Z-12.393
X212.402 Z-12.266
X212.112 Z-12.111
X211.851 Z-12.
X211.67 Z-11.948
X211.391 Z-11.896
X211.079 Z-11.878
X210.916 Z-11.885
X210.656 Z-11.924
X210.489 Z-11.976
X210.329 Z-12.053
X210.097 Z-12.196
X209.98 Z-12.287
X209.815 Z-12.334
X209.653 Z-12.401
X209.449 Z-12.514
X209.006 Z-12.511
X208.451 Z-12.221
X208.106 Z-12.063
X207.753 Z-11.917
X207.351 Z-11.763
X206.763 Z-11.571
X206.088 Z-11.385
X205.292 Z-11.208
X204.869 Z-11.131
X204.113 Z-11.02
X202.927 Z-10.885
X202.119 Z-10.81
X200.064 Z-10.616
X199.873 Z-10.625
X199.696 Z-10.56
X198.672 Z-10.272
X198.604 Z-10.002
X198.509 Z-9.779
X198.38 Z-9.537
X198.25 Z-9.362
X197.962 Z-9.059
X197.821 Z-8.946
X197.632 Z-8.835
X197.236 Z-8.648
X197.058 Z-8.592
X196.732 Z-8.536
X196.495 Z-8.508
X195.823 Z-8.476
X195.531 Z-8.474
X195.348 Z-8.492
X195.136 Z-8.537
X195.012 Z-8.581
X194.854 Z-8.661
X194.652 Z-8.798
X194.601 Z-8.836
X194.418 Z-8.945
X194.127 Z-9.171
X193.79 Z-9.413
X193.692 Z-9.507
X193.466 Z-9.781
X193.366 Z-9.941
X193.284 Z-10.091
X193.107 Z-10.168
X192.609 Z-10.417
X192.248 Z-10.659
X192.039 Z-10.816
X191.837 Z-10.979
X191.459 Z-11.339
X191.075 Z-11.776
X190.743 Z-12.244
X190.721 Z-12.278
X190.417 Z-12.253
X190.242 Z-12.198
X189.964 Z-12.132
X189.776 Z-12.11
X189.389 Z-12.103
X188.819 Z-11.985
X188.559 Z-11.962
X188.488 Z-11.956
X188.238 Z-11.878
X187.974 Z-11.814
X187.787 Z-11.788
X187.308 Z-11.765
X186.868 Z-11.802
X186.602 Z-11.831
X186.402 Z-11.878
X185.93 Z-12.03
X185.449 Z-12.25
X185.104 Z-12.46
X185.031 Z-12.514
X177.549 Z-12.513
X177.416 Z-12.378
X177.275 Z-12.262
X177.121 Z-12.165
X176.865 Z-12.045
X176.57 Z-11.941
X176.405 Z-11.902
X176.211 Z-11.828
X175.917 Z-11.748
X175.557 Z-11.684
X175.485 Z-11.667
X175.295 Z-11.605
X175.11 Z-11.573
X174.92 Z-11.562
X174.642 Z-11.517
X174.217 Z-11.501
X173.834 Z-11.521
X173.68 Z-11.524
X173.509 Z-11.548
X173.257 Z-11.597
X172.983 Z-11.632
X172.774 Z-11.689
X172.385 Z-11.794
X171.89 Z-11.978
X171.479 Z-12.136
X171.225 Z-12.251
X171.075 Z-12.344
X170.888 Z-12.5
X170.868 Z-12.514
X34.886 Z-12.517
X34.439 Z-12.539
X33.907 Z-12.612
X33.361 Z-12.735
X32.882 Z-12.89
X32.639 Z-12.984
X32.603 Z-13.
X32.468 Z-12.998
X32.466 Z-12.997
X32.396 Z-12.98
X32.187
X32.061 Y4.393
X32.187 Y4.519
X32.257 Z-12.997
X32.389 Z-13.
X32.786 Z-12.829
X33.295 Z-12.66
X33.882 Z-12.523
X34.326 Z-12.46
X34.501 Z-12.442
X34.92 Z-12.423
X170.855 Z-12.421
X171.051 Z-12.282
X171.273 Z-12.163
X171.72 Z-11.973
X172.204 Z-11.764
X172.366 Z-11.698
X172.713 Z-11.59
X172.973 Z-11.518
X173.138 Z-11.495
X173.336 Z-11.452
X173.59 Z-11.396
X174.126 Z-11.34
X174.395 Z-11.333
X175.161 Z-11.353
X175.348 Z-11.384
X175.653 Z-11.46
X175.979 Z-11.53
X176.149 Z-11.586
X176.303 Z-11.625
X176.682 Z-11.759
X176.908 Z-11.868
X177.08 Z-11.985
X177.335 Z-12.115
X177.635 Z-12.308
X177.776 Z-12.419
X184.935 Z-12.421
X185.302 Z-12.185
X185.454 Z-12.098
X185.631 Z-12.013
X185.95 Z-11.883
X186.398 Z-11.728
X186.61 Z-11.682
X187.146 Z-11.637
X187.426 Z-11.633
X187.801 Z-11.663
X188.13 Z-11.719
X188.421 Z-11.795
X188.568 Z-11.843
X188.616 Z-11.847
X188.9 Z-11.88
X189.351 Z-11.977
X189.537 Z-11.972
X189.917 Z-12.003
X190.127 Z-12.048
X190.308 Z-12.109
X190.417 Z-12.11
X190.703 Z-12.128
X190.858 Z-11.881
X191.06 Z-11.588
X191.424 Z-11.159
X191.727 Z-10.848
X192.033 Z-10.585
X192.409 Z-10.32
X192.703 Z-10.135
X192.934 Z-10.012
X193.185 Z-9.902
X193.226 Z-9.823
X193.323 Z-9.663
X193.544 Z-9.384
X193.639 Z-9.289
X193.846 Z-9.124
X193.904 Z-9.06
X194.029 Z-8.925
X194.171 Z-8.813
X194.394 Z-8.689
X194.535 Z-8.578
X194.689 Z-8.488
X194.821 Z-8.432
X195.141 Z-8.329
X195.354 Z-8.293
X195.644 Z-8.291
X196.525 Z-8.361
X196.782 Z-8.407
X197.151 Z-8.5
X197.373 Z-8.574
X197.584 Z-8.678
X197.823 Z-8.823
X198.005 Z-8.962
X198.163 Z-9.123
X198.394 Z-9.412
X198.487 Z-9.56
X198.563 Z-9.713
X198.674 Z-9.999
X199.756 Z-10.297
X200.019 Z-10.389
X200.222 Z-10.393
X201.77 Z-10.555
X202.702 Z-10.653
X203.633 Z-10.752
X204.518 Z-10.866
X205.388 Z-11.022
X205.977 Z-11.148
X206.546 Z-11.3
X207.495 Z-11.601
X208.032 Z-11.82
X208.337 Z-11.955
X208.79 Z-12.179
X209.236 Z-12.42
X209.252 Z-12.421
X209.498 Z-12.278
X209.696 Z-12.187
X209.73 Z-12.156
X209.905 Z-12.015
X210.095 Z-11.902
X210.377 Z-11.787
X210.544 Z-11.742
X210.796 Z-11.705
X211.01 Z-11.704
X211.386 Z-11.761
X211.616 Z-11.815
X211.927 Z-11.929
X212.136 Z-12.03
X212.576 Z-12.307
X212.716 Z-12.419
X218.918 Z-12.421
X219.079 Z-12.295
X219.229 Z-12.2
X219.387 Z-12.123
X219.551 Z-12.065
X219.72 Z-12.025
X219.929 Z-12.002
X270.009 Z-12.
X270.079 Z-11.984
X270.149 Z-11.968
X270.275 Y4.645
X270.149 Y4.771
X270.079 Z-11.984
X270.009 Z-12.
X219.929 Z-12.002
X219.72 Z-12.025
X219.551 Z-12.065
X219.387 Z-12.123
X219.229 Z-12.2
X219.028 Z-12.332
X219.006 Z-12.338
X212.643 Z-12.336
X212.453 Z-12.2
X212.214 Z-12.023
X211.91 Z-11.85
X211.696 Z-11.756
X211.336 Z-11.634
X211.153 Z-11.592
X210.845 Z-11.563
X210.578 Z-11.572
X210.323 Z-11.61
X210.156 Z-11.659
X209.994 Z-11.725
X209.708 Z-11.883
X209.548 Z-12.006
X209.422 Z-12.134
X209.245 Z-12.212
X208.71 Z-11.933
X208.365 Z-11.77
X207.86 Z-11.545
X207.594 Z-11.442
X207.052 Z-11.259
X206.595 Z-11.121
X206.412 Z-11.068
X205.949 Z-10.951
X205.015 Z-10.755
X204.184 Z-10.633
X203.256 Z-10.511
X201.469 Z-10.316
X200.445 Z-10.188
X200.211 Z-10.177
X200.136 Z-10.179
X199.968 Z-10.107
X199.787 Z-10.057
X199.601 Z-10.014
X198.647 Z-9.737
X198.482 Z-9.426
X198.342 Z-9.225
X198.107 Z-8.958
X197.947 Z-8.807
X197.762 Z-8.674
X197.541 Z-8.545
X197.304 Z-8.438
X197.035 Z-8.356
X196.662 Z-8.277
X196.379 Z-8.237
X196.189 Z-8.217
X195.865 Z-8.167
X195.449 Z-8.133
X195.257 Z-8.143
X195.097 Z-8.164
X194.897 Z-8.187
X194.698 Z-8.243
X194.477 Z-8.346
X194.329 Z-8.439
X194.126 Z-8.611
X193.835 Z-8.83
X193.73 Z-8.931
X193.559 Z-9.145
X193.325 Z-9.426
X193.176 Z-9.645
X193.133 Z-9.71
X192.879 Z-9.822
X192.335 Z-10.153
X192.065 Z-10.359
X191.859 Z-10.53
X191.575 Z-10.826
X191.337 Z-11.093
X190.983 Z-11.528
X190.85 Z-11.744
X190.783 Z-11.861
X190.592 Z-11.912
X190.412 Z-11.985
X190.388 Z-11.99
X190.188 Z-11.992
X189.881 Z-11.914
X189.575 Z-11.872
X189.343 Z-11.865
X189.278 Z-11.864
X189.014 Z-11.795
X188.827 Z-11.772
X188.664 Z-11.76
X188.406 Z-11.661
X188.177 Z-11.607
X187.849 Z-11.548
X187.612 Z-11.527
X187.077 Z-11.515
X186.713 Z-11.546
X186.448 Z-11.59
X185.856 Z-11.778
X185.631 Z-11.878
X185.464 Z-11.964
X185.294 Z-12.059
X184.933 Z-12.283
X184.858 Z-12.338
X177.967 Z-12.335
X177.749 Z-12.17
X177.696 Z-12.133
X177.531 Z-11.993
X177.258 Z-11.811
X176.969 Z-11.649
X176.841 Z-11.593
X176.633 Z-11.534
X176.583 Z-11.52
X176.334 Z-11.412
X176.065 Z-11.326
X175.88 Z-11.291
X175.426 Z-11.229
X175.021 Z-11.198
X174.471 Z-11.21
X174.039 Z-11.242
X173.528 Z-11.31
X172.817 Z-11.482
X172.528 Z-11.573
X171.557 Z-11.975
X170.991 Z-12.24
X170.835 Z-12.338
X34.895 Z-12.341
X34.368 Z-12.37
X33.944 Z-12.428
X33.755 Z-12.463
X33.234 Z-12.589
X32.704 Z-12.769
X32.188 Z-13.
X32.053 Z-12.997
X31.983 Z-12.981
X31.819
X31.693 Y4.897
X31.819 Y5.023
X31.888 Z-12.997
X31.898 Z-13.002
X32.042 Z-13.
X32.237 Z-12.898
X32.766 Z-12.672
X33.192 Z-12.532
X33.379 Z-12.479
X33.817 Z-12.378
X34.39 Z-12.296
X34.881 Z-12.27
X161.773 Z-12.267
X161.9 Z-12.235
X162.199 Z-12.197
X162.877 Z-12.156
X163.505 Z-12.19
X163.935 Z-12.267
X170.863
X170.993 Z-12.191
X171.246 Z-12.074
X171.471 Z-11.965
X172.251 Z-11.64
X172.632 Z-11.497
X172.97 Z-11.384
X173.459 Z-11.27
X173.925 Z-11.185
X174.437 Z-11.129
X174.944 Z-11.105
X175.512
X175.849 Z-11.141
X176.202 Z-11.196
X176.525 Z-11.271
X176.721 Z-11.344
X176.998 Z-11.493
X177.189 Z-11.576
X177.464 Z-11.71
X177.707 Z-11.851
X177.895 Z-11.991
X178.067 Z-12.145
X178.178 Z-12.266
X184.783 Z-12.267
X184.845 Z-12.225
X185.303 Z-11.924
X185.578 Z-11.784
X185.862 Z-11.664
X186.409 Z-11.487
X186.663 Z-11.442
X186.977 Z-11.403
X187.196 Z-11.399
X187.367 Z-11.418
X187.586 Z-11.425
X187.819 Z-11.436
X188.193 Z-11.505
X188.465 Z-11.584
X188.746 Z-11.699
X188.948 Z-11.716
X189.219 Z-11.771
X189.319 Z-11.77
X189.498 Z-11.776
X189.686 Z-11.801
X189.961 Z-11.872
X190.082 Z-11.862
X190.256 Z-11.768
X190.499 Z-11.671
X190.668 Z-11.628
X190.86 Z-11.609
X191.002 Z-11.383
X191.234 Z-11.062
X191.65 Z-10.559
X191.845 Z-10.361
X192.125 Z-10.121
X192.361 Z-9.947
X192.729 Z-9.715
X193.105 Z-9.531
X193.234 Z-9.316
X193.383 Z-9.11
X193.438 Z-9.011
X193.546 Z-8.857
X193.671 Z-8.722
X193.808 Z-8.61
X193.853 Z-8.569
X193.934 Z-8.477
X194.067 Z-8.352
X194.213 Z-8.249
X194.368 Z-8.166
X194.534 Z-8.101
X194.78 Z-8.032
X194.951 Z-8.008
X195.272 Z-7.999
X195.476 Z-8.005
X195.854 Z-8.057
X196.452 Z-8.146
X197.138 Z-8.282
X197.314 Z-8.343
X197.653 Z-8.509
X197.812 Z-8.602
X197.957 Z-8.711
X198.066 Z-8.814
X198.4 Z-9.186
X198.609 Z-9.495
X200.007 Z-9.889
X200.212 Z-9.968
X200.389 Z-9.971
X200.863 Z-10.025
X201.534 Z-10.121
X202.853 Z-10.281
X203.612 Z-10.374
X204.464 Z-10.491
X205.104 Z-10.599
X205.795 Z-10.732
X206.574 Z-10.93
X206.939 Z-11.04
X207.752 Z-11.314
X208.105 Z-11.457
X208.626 Z-11.693
X209.22 Z-11.997
X209.337 Z-11.879
X209.481 Z-11.769
X209.633 Z-11.683
X209.871 Z-11.571
X210.036 Z-11.516
X210.29 Z-11.464
X210.559 Z-11.442
X210.751 Z-11.447
X211.035 Z-11.482
X211.311 Z-11.546
X211.489 Z-11.606
X211.748 Z-11.723
X212.034 Z-11.88
X212.3 Z-12.072
X212.52 Z-12.265
X219.119 Z-12.267
X219.229 Z-12.2
X219.387 Z-12.123
X219.551 Z-12.065
X219.72 Z-12.025
X219.929 Z-12.002
X270.009 Z-12.
X270.079 Z-11.984
X270.149 Z-11.968
X270.275 Y5.149
X270.149 Y5.275
X270.079 Z-11.984
X270.009 Z-12.
X219.929 Z-12.002
X219.72 Z-12.025
X219.551 Z-12.065
X219.387 Z-12.123
X219.225 Z-12.199
X214.504 Z-12.198
X214.352 Z-12.163
X214.145 Z-12.144
X213.737 Z-12.15
X213.298 Z-12.181
X213.127 Z-12.199
X212.839 Z-12.197
X212.48 Z-12.081
X212.212 Z-12.017
X211.942 Z-11.816
X211.671 Z-11.654
X211.447 Z-11.551
X211.181 Z-11.455
X210.905 Z-11.384
X210.624 Z-11.344
X210.336 Z-11.334
X210.153 Z-11.345
X209.94 Z-11.384
X209.732 Z-11.448
X209.492 Z-11.551
X209.302 Z-11.667
X209.159 Z-11.771
X208.685 Z-11.537
X208.339 Z-11.377
X207.695 Z-11.116
X206.807 Z-10.822
X206.393 Z-10.713
X205.836 Z-10.577
X205.65 Z-10.537
X204.918 Z-10.399
X204.561 Z-10.341
X203.615 Z-10.205
X201.758 Z-9.962
X200.568 Z-9.779
X200.396 Z-9.768
X200.297 Z-9.77
X199.919 Z-9.639
X198.563 Z-9.271
X198.509 Z-9.254
X198.323 Z-9.018
X198.136 Z-8.813
X198.002 Z-8.686
X197.857 Z-8.574
X197.616 Z-8.433
X197.363 Z-8.303
X197.1 Z-8.202
X196.825 Z-8.136
X196.281 Z-8.037
X195.377 Z-7.883
X194.94 Z-7.86
X194.8 Z-7.867
X194.577 Z-7.909
X194.257 Z-8.01
X194.059 Z-8.105
X193.873 Z-8.224
X193.769 Z-8.31
X193.644 Z-8.446
X193.539 Z-8.604
X193.491 Z-8.695
X193.316 Z-8.925
X193.127 Z-9.227
X193.058 Z-9.369
X192.6 Z-9.616
X192.155 Z-9.92
X191.952 Z-10.092
X191.732 Z-10.306
X191.473 Z-10.601
X191.168 Z-11.03
X190.933 Z-11.403
X190.914 Z-11.436
X190.753 Z-11.441
X190.573 Z-11.465
X190.322 Z-11.522
X190.138 Z-11.587
X189.98 Z-11.67
X189.895 Z-11.725
X189.698 Z-11.747
X189.519 Z-11.71
X189.33 Z-11.691
X189.157 Z-11.688
X188.977 Z-11.653
X188.811 Z-11.637
X188.555 Z-11.532
X188.194 Z-11.41
X187.965 Z-11.357
X187.823 Z-11.339
X187.631 Z-11.336
X187.515 Z-11.345
X187.219 Z-11.295
X187.028 Z-11.29
X186.812 Z-11.314
X186.495 Z-11.37
X186.265 Z-11.425
X185.977 Z-11.517
X185.736 Z-11.605
X185.499 Z-11.717
X185.196 Z-11.885
X184.903 Z-12.07
X184.723 Z-12.199
X178.521 Z-12.198
X178.424 Z-12.105
X178.178 Z-11.908
X177.857 Z-11.713
X177.414 Z-11.511
X177.252 Z-11.405
X177. Z-11.283
X176.738 Z-11.176
X176.464 Z-11.104
X176.088 Z-11.045
X175.66 Z-11.01
X175.021 Z-11.019
X174.321 Z-11.069
X173.792 Z-11.151
X173.456 Z-11.224
X173.177 Z-11.29
X172.919 Z-11.366
X172.215 Z-11.62
X171.662 Z-11.858
X171.194 Z-12.094
X170.971 Z-12.199
X164.902 Z-12.196
X164.44 Z-12.081
X163.906 Z-11.983
X163.631 Z-11.957
X163.464 Z-11.921
X163.18 Z-11.895
X162.796 Z-11.878
X162.405 Z-11.881
X161.755 Z-11.938
X161.414 Z-11.992
X160.961 Z-12.103
X160.691 Z-12.199
X34.913 Z-12.202
X34.38 Z-12.23
X33.804 Z-12.312
X33.239 Z-12.446
X32.729 Z-12.615
X32.314 Z-12.792
X32.139 Z-12.876
X31.91 Z-13.
X31.835 Z-13.019
X31.72
X31.698 Y5.277
X31.677 Y5.282
X31.657 Y5.292
X31.639 Y5.304
X31.624 Y5.32
X31.611 Y5.338
X31.602 Y5.358
X31.596 Y5.379
X31.594 Y5.401
X31.596 Y5.423
X31.602 Y5.444
X31.611 Y5.464
X31.624 Y5.482
X31.639 Y5.497
X31.657 Y5.51
X31.677 Y5.519
X31.698 Y5.525
X31.72 Y5.527
X31.795 Z-13.
X31.886 Z-12.951
X32.28 Z-12.75
X32.775 Z-12.544
X33.193 Z-12.409
X33.38 Z-12.357
X33.819 Z-12.258
X34.415 Z-12.176
X34.883 Z-12.153
X159.845 Z-12.149
X159.917 Z-12.121
X160.352 Z-11.955
X160.813 Z-11.845
X161.406 Z-11.743
X161.822 Z-11.696
X162.114 Z-11.689
X162.467 Z-11.678
X163.426 Z-11.729
X163.688 Z-11.775
X163.847 Z-11.794
X164.497 Z-11.907
X164.85 Z-11.996
X164.992 Z-12.021
X165.224 Z-12.064
X165.497 Z-12.149
X171.159
X171.554 Z-11.919
X172.042 Z-11.693
X172.277 Z-11.585
X172.774 Z-11.386
X172.956 Z-11.324
X173.386 Z-11.193
X173.907 Z-11.069
X174.519 Z-10.96
X175.064 Z-10.901
X175.391 Z-10.898
X176.277 Z-10.952
X176.711 Z-11.027
X176.926 Z-11.086
X177.07 Z-11.147
X177.257 Z-11.225
X177.516 Z-11.354
X177.664 Z-11.45
X177.962 Z-11.557
X178.218 Z-11.679
X178.419 Z-11.795
X178.643 Z-11.962
X178.842 Z-12.147
X184.629 Z-12.149
X184.716 Z-12.09
X185.248 Z-11.761
X185.63 Z-11.56
X185.87 Z-11.453
X186.302 Z-11.329
X186.495 Z-11.283
X186.899 Z-11.219
X187.135 Z-11.21
X187.373 Z-11.226
X187.553 Z-11.262
X187.63 Z-11.257
X187.821 Z-11.258
X188.009 Z-11.282
X188.191 Z-11.328
X188.55 Z-11.458
X188.818 Z-11.571
X188.913 Z-11.582
X189.134 Z-11.62
X189.183 Z-11.622
X189.418 Z-11.636
X189.477 Z-11.623
X189.748 Z-11.587
X189.892 Z-11.498
X190.048 Z-11.418
X190.213 Z-11.359
X190.392 Z-11.32
X190.637 Z-11.295
X190.975 Z-11.286
X190.995 Z-11.25
X191.327 Z-10.694
X191.48 Z-10.472
X191.705 Z-10.2
X191.793 Z-10.105
X192.014 Z-9.885
X192.356 Z-9.617
X192.58 Z-9.478
X192.957 Z-9.271
X193. Z-9.169
X193.105 Z-8.967
X193.229 Z-8.779
X193.29 Z-8.631
X193.386 Z-8.463
X193.501 Z-8.317
X193.63 Z-8.189
X193.771 Z-8.08
X193.961 Z-7.965
X194.163 Z-7.88
X194.33 Z-7.834
X194.605 Z-7.781
X194.851 Z-7.748
X195.044 Z-7.749
X195.381 Z-7.788
X196.043 Z-7.912
X196.218 Z-7.926
X196.453 Z-7.953
X196.822 Z-8.045
X197.09 Z-8.13
X197.393 Z-8.269
X197.599 Z-8.376
X197.836 Z-8.535
X198.019 Z-8.676
X198.261 Z-8.885
X198.399 Z-9.035
X199.356 Z-9.277
X200.151 Z-9.495
X200.377 Z-9.593
X200.698 Z-9.609
X201.33 Z-9.709
X201.687 Z-9.77
X203.144 Z-9.978
X204.26 Z-10.138
X204.826 Z-10.227
X205.629 Z-10.374
X206.466 Z-10.569
X207.267 Z-10.799
X207.942 Z-11.043
X208.296 Z-11.184
X208.602 Z-11.316
X209.124 Z-11.568
X209.239 Z-11.496
X209.476 Z-11.384
X209.704 Z-11.311
X209.979 Z-11.259
X210.272 Z-11.236
X210.499 Z-11.248
X210.814 Z-11.307
X211.087 Z-11.387
X211.349 Z-11.492
X211.62 Z-11.63
X211.721 Z-11.633
X211.997 Z-11.664
X212.175 Z-11.707
X212.591 Z-11.813
X212.985 Z-11.956
X213.181 Z-11.939
X213.44 Z-11.936
X213.869 Z-11.955
X214.255 Z-11.982
X214.441 Z-12.013
X214.619 Z-12.068
X214.788 Z-12.146
X219.325 Z-12.149
X219.551 Z-12.065
X219.72 Z-12.025
X219.929 Z-12.002
X270.009 Z-12.
X270.079 Z-11.984
X270.149 Z-11.968
X270.275 Y5.653
X270.149 Y5.779
X270.079 Z-11.984
X270.009 Z-12.
X219.929 Z-12.002
X219.72 Z-12.025
X219.551 Z-12.065
X219.447 Z-12.099
X214.939 Z-12.098
X214.779 Z-12.007
X214.607 Z-11.936
X214.334 Z-11.86
X213.693 Z-11.762
X213.335 Z-11.715
X213.097 Z-11.72
X213.04
X212.521 Z-11.523
X212.293 Z-11.461
X212.059 Z-11.414
X211.632 Z-11.377
X211.585 Z-11.375
X211.391 Z-11.354
X211.027 Z-11.344
X210.767 Z-11.251
X210.537 Z-11.198
X210.301 Z-11.173
X209.988 Z-11.168
X209.744 Z-11.189
X209.49 Z-11.238
X209.241 Z-11.318
X209.099 Z-11.38
X208.598 Z-11.149
X208.248 Z-10.998
X207.891 Z-10.864
X207.44 Z-10.707
X206.698 Z-10.482
X206.248 Z-10.369
X205.689 Z-10.244
X205.268 Z-10.161
X204.75 Z-10.072
X204.015 Z-9.953
X202.352 Z-9.7
X201.278 Z-9.516
X200.714 Z-9.418
X200.524 Z-9.412
X200.442 Z-9.413
X200.197 Z-9.315
X199.583 Z-9.148
X199.027 Z-9.008
X198.422 Z-8.871
X198.239 Z-8.829
X198.021 Z-8.622
X197.818 Z-8.472
X197.384 Z-8.182
X197.189 Z-8.081
X196.971 Z-7.98
X196.803 Z-7.924
X196.435 Z-7.832
X196.248 Z-7.795
X195.82 Z-7.766
X195.721 Z-7.762
X195.456 Z-7.714
X194.991 Z-7.662
X194.809 Z-7.659
X194.54 Z-7.69
X194.243 Z-7.739
X194.034 Z-7.799
X193.793 Z-7.899
X193.639 Z-7.983
X193.494 Z-8.084
X193.359 Z-8.205
X193.24 Z-8.346
X193.139 Z-8.506
X193.059 Z-8.686
X193.009 Z-8.845
X192.916 Z-9.009
X192.844 Z-9.186
X192.38 Z-9.459
X192.104 Z-9.675
X191.911 Z-9.857
X191.62 Z-10.183
X191.458 Z-10.395
X191.271 Z-10.7
X191.071 Z-11.063
X190.851 Z-11.146
X190.614 Z-11.145
X190.357 Z-11.163
X190.187 Z-11.192
X190.02 Z-11.244
X189.782 Z-11.356
X189.627 Z-11.443
X189.415 Z-11.47
X189.205 Z-11.526
X189.091 Z-11.565
X188.843 Z-11.516
X188.781 Z-11.488
X188.662 Z-11.433
X188.308 Z-11.298
X188.127 Z-11.248
X187.94 Z-11.219
X187.702 Z-11.209
X187.522 Z-11.162
X187.334 Z-11.136
X186.973 Z-11.137
X186.772 Z-11.156
X186.432 Z-11.21
X186.007 Z-11.33
X185.755 Z-11.431
X185.344 Z-11.615
X184.809 Z-11.935
X184.553 Z-12.099
X179.156 Z-12.097
X179.029 Z-11.97
X178.889 Z-11.854
X178.653 Z-11.703
X178.36 Z-11.552
X178.055 Z-11.419
X177.859 Z-11.319
X177.729 Z-11.262
X177.491 Z-11.152
X176.897 Z-10.961
X176.617 Z-10.909
X176.48 Z-10.874
X176.274 Z-10.824
X175.8 Z-10.768
X175.462 Z-10.769
X175.303 Z-10.768
X174.605 Z-10.847
X174.068 Z-10.961
X173.446 Z-11.136
X172.938 Z-11.299
X172.531 Z-11.443
X172.291 Z-11.54
X172.174 Z-11.6
X172.047 Z-11.654
X171.361 Z-12.042
X171.267 Z-12.099
X165.895
X165.098 Z-11.883
X164.67 Z-11.819
X163.733 Z-11.655
X163.374 Z-11.604
X163.255 Z-11.597
X162.999 Z-11.572
X162.292 Z-11.529
X161.756 Z-11.543
X161.052 Z-11.606
X160.71 Z-11.65
X160.372 Z-11.714
X160.112 Z-11.78
X159.832 Z-11.85
X159.59 Z-11.948
X159.435 Z-12.03
X159.333 Z-12.099
X34.908 Z-12.102
X34.401 Z-12.127
X33.813 Z-12.21
X33.411 Z-12.3
X33.225 Z-12.349
X32.788 Z-12.489
X32.248 Z-12.713
X31.716 Z-12.993
X31.704 Z-13.
X31.624 Z-13.022
X31.548
X31.526 Y5.781
X31.505 Y5.786
X31.485 Y5.796
X31.467 Y5.808
X31.452 Y5.824
X31.439 Y5.842
X31.43 Y5.862 Z-13.023
X31.424 Y5.883
X31.422 Y5.905
X31.424 Y5.927
X31.43 Y5.948 Z-13.024
X31.439 Y5.968
X31.452 Y5.986
X31.467 Y6.001
X31.485 Y6.014
X31.505 Y6.023
X31.526 Y6.029
X31.548 Y6.031
X31.633 Z-13.
X31.677 Z-12.972
X32.151 Z-12.72
X32.327 Z-12.64
X32.662 Z-12.5
X32.844 Z-12.434
X33.274 Z-12.298
X33.82 Z-12.174
X34.393 Z-12.095
X34.91 Z-12.069
X159.043 Z-12.067
X159.174 Z-11.938
X159.32 Z-11.832
X159.477 Z-11.749
X159.641 Z-11.688
X160.248 Z-11.56
X160.524 Z-11.519
X161.545 Z-11.43
X161.984 Z-11.435
X162.273 Z-11.426
X163.164 Z-11.489
X163.262
X164.184 Z-11.497
X164.691 Z-11.514
X165.352 Z-11.6
X165.719 Z-11.707
X166.077 Z-11.831
X166.325 Z-11.941
X166.548 Z-12.067
X171.341
X171.678 Z-11.858
X172.057 Z-11.645
X172.625 Z-11.389
X173.559 Z-11.069
X174.363 Z-10.839
X174.7 Z-10.766
X175.188 Z-10.692
X175.621 Z-10.652
X175.963 Z-10.649
X176.325 Z-10.676
X176.607 Z-10.708
X177.07 Z-10.82
X177.408 Z-10.929
X177.627 Z-11.032
X177.7 Z-11.056
X178.025 Z-11.163
X178.403 Z-11.337
X178.607 Z-11.45
X178.747 Z-11.551
X178.79 Z-11.573
X179.042 Z-11.7
X179.189 Z-11.805
X179.322 Z-11.929
X179.438 Z-12.064
X184.45 Z-12.067
X184.722 Z-11.895
X185.035 Z-11.71
X185.227 Z-11.605
X185.519 Z-11.467
X185.948 Z-11.282
X186.179 Z-11.204
X186.559 Z-11.127
X186.876 Z-11.09
X187.196 Z-11.076
X187.435 Z-11.087
X187.62 Z-11.121
X187.803 Z-11.174
X187.845
X188.04 Z-11.188
X188.225 Z-11.225
X188.498 Z-11.311
X188.671 Z-11.378
X188.848 Z-11.473
X188.936 Z-11.441
X189.176 Z-11.376
X189.467 Z-11.326
X189.581 Z-11.252
X189.738 Z-11.171
X189.901 Z-11.109
X190.151 Z-11.042
X190.322 Z-11.014
X190.688 Z-11.005
X191.025 Z-10.873
X191.188 Z-10.813
X191.316 Z-10.559
X191.446 Z-10.319
X191.65 Z-10.03
X191.824 Z-9.824
X192.207 Z-9.466
X192.419 Z-9.312
X192.735 Z-9.129
X192.791 Z-9.007
X192.805 Z-8.941
X192.864 Z-8.742
X192.983 Z-8.484
X193.109 Z-8.291
X193.227 Z-8.152
X193.393 Z-7.999
X193.577 Z-7.872
X193.734 Z-7.792
X193.953 Z-7.716
X194.335 Z-7.622
X194.571 Z-7.599
X194.848 Z-7.587
X195.087 Z-7.601
X195.363 Z-7.632
X195.666 Z-7.612
X195.905 Z-7.605
X196.238 Z-7.642
X196.611 Z-7.714
X196.792 Z-7.764
X196.968 Z-7.832
X197.277 Z-7.979
X197.466 Z-8.091
X197.763 Z-8.319
X198.109 Z-8.645
X198.652 Z-8.753
X199.193 Z-8.871
X199.565 Z-8.958
X200.282 Z-9.147
X200.451 Z-9.218
X200.525 Z-9.217
X200.714 Z-9.231
X201.277 Z-9.339
X202.555 Z-9.572
X203.101 Z-9.666
X204.78 Z-9.94
X205.532 Z-10.073
X206.092 Z-10.192
X206.879 Z-10.39
X207.564 Z-10.599
X207.925 Z-10.72
X208.459 Z-10.926
X208.634 Z-10.999
X209.118 Z-11.225
X209.138 Z-11.219
X209.359 Z-11.149
X209.529 Z-11.119
X209.81 Z-11.098
X210.097 Z-11.107
X210.379 Z-11.145
X210.457 Z-11.123
X210.64 Z-11.094
X210.786 Z-11.088
X211.197 Z-11.097
X211.247 Z-11.096
X211.442 Z-11.072
X211.633 Z-11.078
X212.007 Z-11.144
X212.49 Z-11.284
X213.009 Z-11.499
X213.132 Z-11.503
X213.352 Z-11.525
X213.728 Z-11.597
X214.195 Z-11.703
X214.533 Z-11.809
X214.771 Z-11.918
X214.883 Z-11.956
X215.141 Z-12.064
X219.534 Z-12.067
X219.72 Z-12.025
X219.929 Z-12.002
X270.009 Z-12.
X270.079 Z-11.984
X270.149 Z-11.968
X270.275 Y6.157
X270.149 Y6.283
X270.079 Z-11.984
X270.009 Z-12.
X219.929 Z-12.002
X219.72 Z-12.025
X219.635 Z-12.037
X215.372 Z-12.035
X215.039 Z-11.865
X214.863 Z-11.803
X214.587 Z-11.729
X214.475 Z-11.706
X214.263 Z-11.625
X213.813 Z-11.453
X213.328 Z-11.335
X213.117 Z-11.307
X212.958 Z-11.302
X212.341 Z-11.046
X212.074 Z-10.946
X211.868 Z-10.896
X211.592 Z-10.825
X211.334 Z-10.797
X211.138 Z-10.803
X210.905 Z-10.838
X210.733 Z-10.853
X210.458 Z-10.863
X210.278 Z-10.889
X210.064 Z-10.952
X209.884 Z-11.038
X209.692 Z-11.029
X209.497 Z-11.042
X209.23 Z-11.093
X209.195 Z-11.098
X208.848 Z-10.939
X208.496 Z-10.79
X207.962 Z-10.584
X207.6 Z-10.466
X207.235 Z-10.351
X206.868 Z-10.251
X206.145 Z-10.069
X205.351 Z-9.906
X203.74 Z-9.636
X202.48 Z-9.403
X201.749 Z-9.26
X200.756 Z-9.064
X200.59 Z-9.048
X200.486
X200.317 Z-8.973
X200.137 Z-8.92
X199.581 Z-8.784
X198.853 Z-8.63
X198.213 Z-8.519
X198.035 Z-8.49
X197.846 Z-8.296
X197.562 Z-8.048
X197.409 Z-7.947
X197.201 Z-7.839
X196.997 Z-7.723
X196.779 Z-7.637
X196.333 Z-7.515
X196.005 Z-7.459
X195.815 Z-7.452
X195.363 Z-7.484
X195.003 Z-7.531
X194.526 Z-7.529
X194.3 Z-7.554
X194.005 Z-7.617
X193.757 Z-7.698
X193.52 Z-7.807
X193.295 Z-7.949
X193.094 Z-8.124
X192.973 Z-8.257
X192.864 Z-8.404
X192.76 Z-8.588
X192.695 Z-8.748
X192.662 Z-8.862
X192.63 Z-9.072
X192.628 Z-9.081
X192.316 Z-9.286
X192.114 Z-9.459
X191.8 Z-9.762
X191.63 Z-9.969
X191.436 Z-10.286
X191.356 Z-10.433
X191.284 Z-10.597
X191.119 Z-10.645
X190.899 Z-10.723
X190.578 Z-10.87
X190.281 Z-10.875
X190.107 Z-10.895
X189.886 Z-10.951
X189.612 Z-11.052
X189.418 Z-11.159
X189.327 Z-11.218
X188.992 Z-11.275
X188.764 Z-11.346
X188.709 Z-11.368
X188.471 Z-11.271
X188.255 Z-11.21
X188.068 Z-11.179
X187.958 Z-11.167
X187.697 Z-11.087
X187.417 Z-11.039
X187.178 Z-11.033
X186.78 Z-11.048
X186.482 Z-11.089
X186.187 Z-11.151
X185.839 Z-11.272
X185.393 Z-11.462
X184.996 Z-11.656
X184.694 Z-11.817
X184.508 Z-11.916
X184.292 Z-11.991
X184.066 Z-12.037
X179.691 Z-12.033
X179.569 Z-11.9
X179.362 Z-11.715
X179.278 Z-11.651
X179.131 Z-11.506
X178.995 Z-11.407
X178.753 Z-11.264
X178.454 Z-11.123
X178.135 Z-11.016
X177.801 Z-10.836
X177.559 Z-10.747
X177.192 Z-10.647
X176.804 Z-10.571
X176.53 Z-10.546
X175.847 Z-10.549
X175.557 Z-10.582
X175.266 Z-10.616
X174.861 Z-10.686
X174.34 Z-10.804
X174. Z-10.872
X173.419 Z-11.026
X172.774 Z-11.268
X172.22 Z-11.56
X172.018 Z-11.704
X171.676 Z-11.9
X171.451 Z-12.037
X167.102
X166.778 Z-11.843
X166.437 Z-11.683
X166.26 Z-11.618
X165.864 Z-11.493
X165.357 Z-11.381
X164.978 Z-11.342
X164.549 Z-11.312
X163.916 Z-11.313
X162.85 Z-11.342
X162.41 Z-11.373
X162.04 Z-11.355
X161.552 Z-11.35
X160.354 Z-11.418
X159.74 Z-11.51
X159.571 Z-11.552
X159.408 Z-11.614
X159.252 Z-11.697
X159.106 Z-11.8
X158.972 Z-11.921
X158.87 Z-12.037
X34.884 Z-12.04
X34.415 Z-12.063
X33.884 Z-12.133
X33.36 Z-12.247
X33.193 Z-12.293
X32.847 Z-12.403
X32.665 Z-12.469
X32.33 Z-12.609
X32.153 Z-12.689
X31.756 Z-12.897
X31.587 Z-13.
X31.586
X31.504 Z-13.023
X31.461
X31.439 Y6.285
X31.418 Y6.29
X31.398 Y6.3
X31.38 Y6.312
X31.365 Y6.328
X31.352 Y6.346
X31.343 Y6.366 Z-13.024
X31.337 Y6.387
X31.335 Y6.409
X31.337 Y6.431
X31.343 Y6.452
X31.352 Y6.472
X31.365 Y6.49 Z-13.025
X31.38 Y6.505
X31.398 Y6.518
X31.418 Y6.527
X31.439 Y6.533
X31.461 Y6.535
X31.546 Z-13.
X31.641 Z-12.94
X31.811 Z-12.844
X32.133 Z-12.676
X32.309 Z-12.594
X32.644 Z-12.455
X32.827 Z-12.388
X33.256 Z-12.253
X33.821 Z-12.124
X34.394 Z-12.045
X34.912 Z-12.02
X158.767 Z-12.017
X158.829 Z-11.937
X158.954 Z-11.805
X159.092 Z-11.691
X159.24 Z-11.593
X159.397 Z-11.514
X159.561 Z-11.453
X159.739 Z-11.411
X160.175 Z-11.35
X160.885 Z-11.311
X161.822 Z-11.308
X162.061 Z-11.296
X162.694 Z-11.237
X163.624 Z-11.191
X164.555 Z-11.184
X165.342 Z-11.233
X165.766 Z-11.301
X166.182 Z-11.392
X166.702 Z-11.576
X167.042 Z-11.714
X167.582 Z-12.017
X171.561
X171.629 Z-11.953
X171.91 Z-11.723
X172.12 Z-11.557
X172.426 Z-11.376
X172.817 Z-11.169
X173.559 Z-10.883
X173.974 Z-10.77
X174.562 Z-10.637
X175.177 Z-10.548
X175.507 Z-10.52
X175.748 Z-10.481
X176.218 Z-10.434
X176.713 Z-10.418
X177.07 Z-10.445
X177.258 Z-10.472
X177.628 Z-10.563
X177.946 Z-10.659
X178.161 Z-10.746
X178.57 Z-10.985
X178.735 Z-11.044
X178.939 Z-11.132
X179.176 Z-11.271
X179.402 Z-11.427
X179.536 Z-11.547
X179.675 Z-11.702
X179.804 Z-11.884
X179.914 Z-12.014
X182.793 Z-12.017
X183.255 Z-11.971
X183.586 Z-11.93
X184.386 Z-11.803
X184.616 Z-11.75
X184.77 Z-11.697
X184.981 Z-11.594
X185.551 Z-11.338
X185.871 Z-11.209
X186.2 Z-11.103
X186.537 Z-11.027
X186.854 Z-10.994
X187.328 Z-11.
X187.79 Z-11.066
X187.972 Z-11.112
X188.144 Z-11.178
X188.325 Z-11.211
X188.574 Z-11.286
X188.76 Z-11.208
X188.927 Z-11.16
X189.195 Z-11.115
X189.344 Z-11.011
X189.5 Z-10.928
X189.774 Z-10.828
X189.995 Z-10.771
X190.178 Z-10.75
X190.464 Z-10.751
X190.672 Z-10.65
X190.87 Z-10.553
X191.115 Z-10.47
X191.364 Z-10.4
X191.567 Z-10.02
X191.667 Z-9.867
X191.831 Z-9.658
X192.013 Z-9.464
X192.274 Z-9.231
X192.487 Z-9.08
X192.509 Z-8.928
X192.537 Z-8.804
X192.565 Z-8.713
X192.643 Z-8.531
X192.739 Z-8.367
X192.851 Z-8.221
X192.977 Z-8.09
X193.149 Z-7.95
X193.402 Z-7.777
X193.56 Z-7.699
X193.804 Z-7.607
X194.055 Z-7.541
X194.353 Z-7.493
X194.584 Z-7.479
X194.837 Z-7.416
X195.219 Z-7.353
X195.446 Z-7.333
X195.882
X196.071 Z-7.35
X196.372 Z-7.418
X196.798 Z-7.568
X197.056 Z-7.678
X197.262 Z-7.805
X197.524 Z-7.965
X197.669 Z-8.076
X197.933 Z-8.337
X198.104 Z-8.363
X199.001 Z-8.497
X199.423 Z-8.576
X200.168 Z-8.746
X200.346 Z-8.801
X200.513 Z-8.88
X200.663 Z-8.883
X200.804 Z-8.899
X202.981 Z-9.36
X203.695 Z-9.493
X204.739 Z-9.678
X205.538 Z-9.819
X206.245 Z-9.961
X206.824 Z-10.105
X207.285 Z-10.231
X207.741 Z-10.37
X208.306 Z-10.573
X208.791 Z-10.773
X209.315 Z-11.005
X209.346 Z-11.001
X209.466 Z-10.906
X209.622 Z-10.817
X209.826 Z-10.742
X210.079 Z-10.669
X210.2 Z-10.648
X210.486 Z-10.55
X210.666 Z-10.515
X210.856 Z-10.505
X211.236 Z-10.538
X211.515 Z-10.592
X211.861 Z-10.702
X212.22 Z-10.828
X212.916 Z-11.131
X213.293 Z-11.181
X213.55 Z-11.249
X213.822 Z-11.33
X214.304 Z-11.538
X214.564 Z-11.609
X215.015 Z-11.753
X215.26 Z-11.868
X215.497 Z-12.017
X219.764
X219.929 Z-12.002
X270.009 Z-12.
X270.079 Z-11.984
X270.149 Z-11.968
X270.275 Y6.661
X270.149 Y6.787
X270.079 Z-11.984
X270.009 Z-12.
X219.929 Z-12.002
X219.707 Z-12.007
X215.642
X215.408 Z-11.847
X215.16 Z-11.722
X214.898 Z-11.613
X214.443 Z-11.477
X214.228 Z-11.416
X213.816 Z-11.22
X213.56 Z-11.122
X213.288 Z-11.036
X213.103 Z-11.004
X212.887 Z-10.979
X212.555 Z-10.832
X212.209 Z-10.674
X211.629 Z-10.445
X211.429 Z-10.373
X210.87 Z-10.26
X210.633 Z-10.242
X210.454 Z-10.248
X210.321 Z-10.255
X210.15 Z-10.291
X209.907 Z-10.387
X209.743 Z-10.471
X209.559 Z-10.514
X209.394 Z-10.578
X209.239 Z-10.664
X209.101 Z-10.767
X208.752 Z-10.615
X208.238 Z-10.412
X207.633 Z-10.197
X206.967 Z-10.014
X206.503 Z-9.9
X205.989 Z-9.789
X205.305 Z-9.658
X204.195 Z-9.464
X202.94 Z-9.209
X201.112 Z-8.8
X200.832 Z-8.737
X200.644 Z-8.714
X200.525 Z-8.712
X200.358 Z-8.638
X200.178 Z-8.585
X199.808 Z-8.489
X199.623 Z-8.449
X199.247 Z-8.38
X199.059 Z-8.348
X198.301 Z-8.247
X197.786 Z-8.179
X197.617 Z-8.026
X197.195 Z-7.729
X196.991 Z-7.618
X196.71 Z-7.484
X196.491 Z-7.387
X196.267 Z-7.311
X196.083 Z-7.271
X195.8 Z-7.233
X195.415 Z-7.228
X194.859 Z-7.283
X194.48 Z-7.369
X194.111 Z-7.492
X193.77 Z-7.555
X193.543 Z-7.63
X193.366 Z-7.716
X193.106 Z-7.882
X192.896 Z-8.039
X192.735 Z-8.201
X192.623 Z-8.349
X192.529 Z-8.514
X192.446 Z-8.719
X192.379 Z-8.984
X192.359 Z-9.091
X192.127 Z-9.278
X191.925 Z-9.486
X191.736 Z-9.733
X191.589 Z-9.953
X191.503 Z-10.12
X191.441 Z-10.257
X191.166 Z-10.312
X190.855 Z-10.399
X190.653 Z-10.484
X190.372 Z-10.638
X190.185 Z-10.632
X189.99 Z-10.646
X189.82 Z-10.677
X189.572 Z-10.755
X189.353 Z-10.857
X189.183 Z-10.959
X189.088 Z-11.029
X188.875 Z-11.062
X188.707 Z-11.109
X188.484 Z-11.206
X188.428 Z-11.234
X188.242 Z-11.199
X188.079 Z-11.126
X187.9 Z-11.07
X187.667 Z-11.028
X187.269 Z-10.964
X186.978 Z-10.945
X186.783 Z-10.95
X186.527 Z-10.989
X186.014 Z-11.122
X185.639 Z-11.251
X185.3 Z-11.388
X184.864 Z-11.565
X184.603 Z-11.629
X183.696 Z-11.74
X183.071 Z-11.815
X181.891 Z-11.923
X181.072 Z-12.007
X180.167 Z-12.005
X180.093 Z-11.856
X179.996 Z-11.714
X179.813 Z-11.513
X179.609 Z-11.323
X179.461 Z-11.219
X179.297 Z-11.133
X179.047 Z-11.016
X178.652 Z-10.745
X178.446 Z-10.636
X178.185 Z-10.531
X178.005 Z-10.477
X177.368 Z-10.355
X177.019 Z-10.322
X176.698 Z-10.315
X176.332 Z-10.347
X176.143 Z-10.371
X175.799 Z-10.37
X175.218 Z-10.421
X174.687 Z-10.506
X174.311 Z-10.603
X173.981 Z-10.689
X173.541 Z-10.819
X173.37 Z-10.887
X172.778 Z-11.131
X172.55 Z-11.261
X172.043 Z-11.591
X171.762 Z-11.816
X171.553 Z-12.007
X167.99 Z-12.005
X167.541 Z-11.771
X167.088 Z-11.555
X166.642 Z-11.393
X166.278 Z-11.283
X165.999 Z-11.223
X165.406 Z-11.125
X164.706 Z-11.091
X163.625 Z-11.086
X163.002 Z-11.109
X162.469 Z-11.15
X161.418 Z-11.273
X161.033 Z-11.275
X160.679
X160.025 Z-11.306
X159.769 Z-11.329
X159.599 Z-11.365
X159.434 Z-11.419
X159.274 Z-11.492
X159.123 Z-11.584
X158.981 Z-11.693
X158.852 Z-11.82
X158.704 Z-12.007
X34.907 Z-12.01
X34.37 Z-12.038
X33.925 Z-12.097
X33.735 Z-12.133
X33.381 Z-12.211
X33.214 Z-12.256
X32.786 Z-12.391
X32.253 Z-12.608
X31.749 Z-12.866
X31.531 Z-13.
X31.448 Z-13.023
X31.436 Z-13.024
X31.31 Y6.913
X31.436 Y7.039
X31.519 Z-13.
X31.744 Z-12.861
X32.151 Z-12.649
X32.328 Z-12.569
X32.663 Z-12.431
X32.845 Z-12.365
X33.191 Z-12.256
X33.378 Z-12.205
X33.796 Z-12.112
X34.369 Z-12.031
X34.891 Z-12.003
X158.67 Z-12.
X158.783 Z-11.847
X158.908 Z-11.714
X159.045 Z-11.598
X159.193 Z-11.499
X159.349 Z-11.418
X159.513 Z-11.355
X159.681 Z-11.311
X159.852 Z-11.285
X160.218 Z-11.263
X160.37 Z-11.272
X160.883 Z-11.266
X161.538 Z-11.184
X162.961 Z-11.02
X163.585 Z-10.99
X164.304 Z-10.972
X164.936 Z-10.978
X165.542 Z-11.041
X165.929 Z-11.108
X166.474 Z-11.227
X167.079 Z-11.413
X167.388 Z-11.535
X168.034 Z-11.839
X168.317 Z-11.998
X171.552 Z-12.
X171.649 Z-11.912
X171.981 Z-11.632
X172.46 Z-11.292
X172.884 Z-11.046
X173.213 Z-10.889
X173.462 Z-10.78
X173.882 Z-10.65
X174.631 Z-10.443
X175.278 Z-10.317
X175.792 Z-10.269
X176.279 Z-10.253
X176.562 Z-10.265
X176.886 Z-10.251
X177.173 Z-10.243
X177.568 Z-10.264
X178.168 Z-10.363
X178.488 Z-10.446
X178.703 Z-10.535
X178.932 Z-10.663
X179.098 Z-10.754
X179.246 Z-10.856
X179.327 Z-10.93
X179.421 Z-11.033
X179.579 Z-11.112
X179.736 Z-11.21
X179.875 Z-11.316
X180.163 Z-11.587
X180.308 Z-11.772
X180.396 Z-11.923
X181.02 Z-11.85
X181.761 Z-11.766
X184.119 Z-11.553
X184.688 Z-11.483
X185.063 Z-11.412
X185.244 Z-11.356
X185.918 Z-11.115
X186.511 Z-10.964
X186.788 Z-10.919
X186.983 Z-10.913
X187.268 Z-10.935
X187.502 Z-10.968
X187.718 Z-11.031
X187.949 Z-11.073
X188.152 Z-11.141
X188.271 Z-11.195
X188.379 Z-11.136
X188.54 Z-11.066
X188.705 Z-11.014
X188.984 Z-10.957
X189.143 Z-10.842
X189.448 Z-10.673
X189.611 Z-10.608
X189.779 Z-10.563
X189.986 Z-10.535
X190.291 Z-10.538
X190.561 Z-10.384
X190.841 Z-10.267
X191.048 Z-10.2
X191.218 Z-10.169
X191.499 Z-10.153
X191.581 Z-9.962
X191.712 Z-9.713
X191.823 Z-9.554
X192.059 Z-9.282
X192.254 Z-9.102
X192.294 Z-8.907
X192.366 Z-8.69
X192.481 Z-8.446
X192.578 Z-8.286
X192.692 Z-8.142
X192.819 Z-8.015
X193.026 Z-7.85
X193.251 Z-7.711
X193.705 Z-7.501
X194.173 Z-7.346
X194.548 Z-7.245
X194.972 Z-7.172
X195.347 Z-7.155
X195.637 Z-7.161
X195.921 Z-7.192
X196.245 Z-7.267
X196.467 Z-7.342
X196.712 Z-7.459
X196.883 Z-7.562
X197.121 Z-7.689
X197.431 Z-7.901
X197.582 Z-8.035
X197.782 Z-8.06
X198.448 Z-8.114
X198.922 Z-8.173
X199.3 Z-8.228
X199.629 Z-8.289
X200.047 Z-8.382
X200.232 Z-8.43
X200.409 Z-8.488
X200.58 Z-8.571
X200.744 Z-8.581
X200.886 Z-8.601
X202.311 Z-8.927
X203.56 Z-9.213
X204.102 Z-9.328
X205.382 Z-9.556
X206.3 Z-9.736
X206.766 Z-9.843
X207.414 Z-10.006
X207.596 Z-10.061
X207.959 Z-10.179
X208.316 Z-10.309
X208.917 Z-10.548
X208.977 Z-10.505
X209.132 Z-10.416
X209.349 Z-10.33
X209.422 Z-10.287
X209.73 Z-10.125
X209.915 Z-10.055
X210.085 Z-10.022
X210.297 Z-10.014
X210.489 Z-10.006
X210.756 Z-10.033
X210.958 Z-10.073
X211.117 Z-10.129
X211.479 Z-10.244
X211.959 Z-10.441
X212.334 Z-10.621
X212.857 Z-10.856
X213.136 Z-10.895
X213.41 Z-10.968
X213.763 Z-11.102
X214.2 Z-11.327
X214.299 Z-11.354
X214.714 Z-11.473
X215.068 Z-11.603
X215.403 Z-11.776
X215.756 Z-12.
X270.009
X270.079 Z-11.984
X270.149 Z-11.968
X270.275 Y7.165
X270.149 Y7.291
X270.079 Z-11.984
X270.009 Z-12.
X215.832 Z-11.997
X215.683 Z-11.893
X215.319 Z-11.667
X215.028 Z-11.518
X214.583 Z-11.352
X214.264 Z-11.265
X214.085 Z-11.221
X213.718 Z-11.019
X213.325 Z-10.857
X213.192 Z-10.814
X213.007 Z-10.776
X212.818 Z-10.748
X212.136 Z-10.43
X211.785 Z-10.271
X211.504 Z-10.134
X211.227 Z-10.016
X211.041 Z-9.942
X210.86 Z-9.896
X210.389 Z-9.82
X210.2 Z-9.806
X209.834 Z-9.834
X209.663 Z-9.86
X209.495 Z-9.907
X209.334 Z-9.981
X209.184 Z-10.083
X208.977 Z-10.242
X208.772 Z-10.363
X208.196 Z-10.137
X207.516 Z-9.917
X207.148 Z-9.819
X206.358 Z-9.631
X205.467 Z-9.458
X204.714 Z-9.324
X203.814 Z-9.147
X202.715 Z-8.891
X201.991 Z-8.713
X201.266 Z-8.54
X200.893 Z-8.46
X200.653 Z-8.443
X200.509 Z-8.364
X200.396 Z-8.314
X200.217 Z-8.259
X199.612 Z-8.124
X199.189 Z-8.047
X198.632 Z-7.98
X197.779 Z-7.93
X197.414 Z-7.899
X197.227 Z-7.742
X197.012 Z-7.606
X196.8 Z-7.51
X196.707 Z-7.473
X196.577 Z-7.399
X196.378 Z-7.312
X196.087 Z-7.213
X195.725 Z-7.133
X195.456 Z-7.107
X195.068 Z-7.095
X194.788 Z-7.115
X194.533 Z-7.15
X194.271 Z-7.212
X193.879 Z-7.322
X193.356 Z-7.522
X193.121 Z-7.637
X192.972 Z-7.736
X192.836 Z-7.855
X192.688 Z-8.027
X192.587 Z-8.154
X192.444 Z-8.335
X192.349 Z-8.497
X192.272 Z-8.676
X192.194 Z-8.961
X192.163 Z-9.118
X192.015 Z-9.285
X191.773 Z-9.596
X191.632 Z-9.836
X191.546 Z-10.045
X191.312 Z-10.046
X191.098 Z-10.077
X190.848 Z-10.15
X190.605 Z-10.241
X190.371 Z-10.361
X190.221 Z-10.444
X189.97 Z-10.449
X189.71 Z-10.492
X189.483 Z-10.565
X189.255 Z-10.674
X189.077 Z-10.779
X188.934 Z-10.887
X188.682 Z-10.942
X188.433 Z-11.021
X188.224 Z-11.12
X188.178 Z-11.146
X188. Z-11.089
X187.847 Z-11.05
X187.554 Z-10.958
X187.323 Z-10.91
X187.038 Z-10.89
X186.844 Z-10.894
X186.576 Z-10.931
X186.323 Z-10.983
X185.843 Z-11.099
X185.392 Z-11.245
X185.231 Z-11.285
X184.665 Z-11.362
X184.39 Z-11.394
X182.365 Z-11.563
X181.622 Z-11.627
X181.09 Z-11.684
X180.546 Z-11.751
X180.37 Z-11.539
X180.238 Z-11.415
X179.949 Z-11.181
X179.81 Z-11.087
X179.58 Z-10.852
X179.267 Z-10.614
X179.107 Z-10.524
X178.756 Z-10.385
X178.432 Z-10.29
X178.205 Z-10.251
X177.825 Z-10.216
X177.561 Z-10.18
X177.369 Z-10.175
X176.955 Z-10.195
X176.674 Z-10.165
X176.238
X175.799 Z-10.183
X174.95 Z-10.293
X174.439 Z-10.394
X174.065 Z-10.496
X173.617 Z-10.65
X173.259 Z-10.799
X172.817 Z-11.027
X172.418 Z-11.277
X172.097 Z-11.512
X171.83 Z-11.735
X171.56 Z-12.
X168.618
X168.168 Z-11.764
X167.916 Z-11.657
X167.501 Z-11.461
X166.96 Z-11.278
X166.618 Z-11.16
X166.359 Z-11.087
X165.725 Z-10.953
X165.346 Z-10.917
X164.562 Z-10.876
X163.962 Z-10.899
X162.908 Z-10.974
X162.31 Z-11.036
X161.099 Z-11.191
X160.759 Z-11.238
X160.397 Z-11.268
X159.936 Z-11.273
X159.732 Z-11.294
X159.563 Z-11.333
X159.398 Z-11.39
X159.24 Z-11.466
X159.089 Z-11.559
X158.949 Z-11.669
X158.821 Z-11.797
X158.675 Z-11.985
X158.663 Z-12.
X34.883 Z-12.004
X34.369 Z-12.031
X33.796 Z-12.112
X33.378 Z-12.205
X33.191 Z-12.256
X32.845 Z-12.365
X32.663 Z-12.431
X32.328 Z-12.569
X32.151 Z-12.649
X31.744 Z-12.861
X31.519 Z-13.
X31.436 Z-13.024
X31.31 Y7.417
X31.436 Y7.543
X31.519 Z-13.
X31.744 Z-12.861
X32.151 Z-12.649
X32.328 Z-12.569
X32.663 Z-12.431
X32.845 Z-12.365
X33.191 Z-12.256
X33.378 Z-12.205
X33.817 Z-12.108
X34.39 Z-12.029
X34.896 Z-12.003
X158.678 Z-12.
X158.822 Z-11.819
X158.984 Z-11.664
X159.127 Z-11.557
X159.28 Z-11.467
X159.44 Z-11.396
X159.606 Z-11.343
X159.776 Z-11.309
X160.058 Z-11.285
X160.71 Z-11.223
X161.125 Z-11.077
X161.495 Z-11.003
X162.304 Z-10.899
X163.184 Z-10.833
X163.678 Z-10.878
X164.504 Z-10.826
X164.791 Z-10.84
X165.121 Z-10.837
X165.433 Z-10.853
X165.908 Z-10.902
X166.565 Z-11.019
X167.091 Z-11.186
X167.265 Z-11.253
X167.559 Z-11.406
X167.69 Z-11.467
X168.099 Z-11.633
X168.403 Z-11.767
X168.862 Z-12.
X171.589
X171.871 Z-11.699
X172.091 Z-11.507
X172.48 Z-11.208
X172.997 Z-10.893
X173.373 Z-10.705
X174.06 Z-10.421
X174.347 Z-10.328
X174.95 Z-10.172
X175.502 Z-10.081
X175.789 Z-10.068
X176.179 Z-10.075
X176.523 Z-10.085
X176.716 Z-10.091
X177.283 Z-10.138
X177.357 Z-10.137
X177.803 Z-10.143
X178.089 Z-10.159
X178.467 Z-10.201
X178.746 Z-10.256
X179.107 Z-10.372
X179.366 Z-10.486
X179.569 Z-10.598
X179.832 Z-10.788
X179.965 Z-10.907
X180.076 Z-11.039
X180.154 Z-11.159
X180.381 Z-11.339
X180.651 Z-11.594
X180.931 Z-11.554
X181.695 Z-11.47
X182.333 Z-11.42
X183.805 Z-11.32
X184.719 Z-11.248
X185.289 Z-11.185
X185.641 Z-11.121
X185.806 Z-11.071
X186.267 Z-10.969
X186.67 Z-10.899
X187.062 Z-10.87
X187.297 Z-10.883
X187.464 Z-10.914
X187.83 Z-11.019
X187.988 Z-11.087
X188.069 Z-11.11
X188.289 Z-10.997
X188.462 Z-10.932
X188.719 Z-10.859
X188.885 Z-10.819
X189.01 Z-10.722
X189.161 Z-10.627
X189.419 Z-10.509
X189.645 Z-10.431
X189.953 Z-10.373
X190.18 Z-10.355
X190.279 Z-10.295
X190.652 Z-10.108
X190.871 Z-10.022
X191.04 Z-9.982
X191.211 Z-9.961
X191.406 Z-9.958
X191.595 Z-9.974
X191.687 Z-9.745
X191.772 Z-9.575
X191.97 Z-9.275
X192.101 Z-9.113
X192.14 Z-8.919
X192.238 Z-8.582
X192.302 Z-8.38
X192.399 Z-8.185
X192.532 Z-7.997
X192.729 Z-7.78
X192.866 Z-7.665
X193.014 Z-7.567
X193.17 Z-7.486
X193.766 Z-7.25
X194.093 Z-7.135
X194.262 Z-7.097
X194.604 Z-7.056
X194.924 Z-7.04
X195.163 Z-7.052
X195.711 Z-7.127
X195.917 Z-7.175
X196.237 Z-7.289
X196.508 Z-7.374
X196.857 Z-7.516
X197.062 Z-7.628
X197.248 Z-7.76
X197.383 Z-7.774
X197.839 Z-7.792
X198.3 Z-7.805
X198.586 Z-7.821
X198.872 Z-7.847
X199.293 Z-7.899
X199.794 Z-8.002
X200.238 Z-8.112
X200.477 Z-8.192
X200.687 Z-8.296
X200.742 Z-8.301
X200.992 Z-8.337
X202.116 Z-8.608
X202.857 Z-8.796
X203.396 Z-8.927
X204.187 Z-9.11
X205.905 Z-9.435
X206.467 Z-9.549
X207.025 Z-9.674
X207.559 Z-9.816
X208.266 Z-10.05
X208.62 Z-10.182
X208.654 Z-10.155
X208.854 Z-9.979
X209.038 Z-9.86
X209.272 Z-9.742
X209.518 Z-9.656
X209.688 Z-9.623
X209.883 Z-9.613
X210.101 Z-9.635
X210.292 Z-9.646
X210.515 Z-9.681
X210.76 Z-9.758
X211.055 Z-9.843
X211.318 Z-9.952
X212.141 Z-10.353
X212.726 Z-10.621
X212.949 Z-10.67
X213.272 Z-10.748
X213.808 Z-10.935
X214.351 Z-11.218
X214.53 Z-11.271
X214.972 Z-11.448
X215.314 Z-11.605
X215.633 Z-11.808
X215.899 Z-12.
X270.009
X270.079 Z-11.984
X270.149 Z-11.968
X270.275 Y7.669
X270.149 Y7.795
X270.079 Z-11.984
X270.009 Z-12.
X215.921 Z-11.998
X215.41 Z-11.639
X215.247 Z-11.551
X215.061 Z-11.474
X214.653 Z-11.197
X214.145 Z-10.888
X213.978 Z-10.795
X213.387 Z-10.542
X212.899 Z-10.403
X212.695 Z-10.338
X212.511 Z-10.3
X212.133 Z-10.236
X211.792 Z-10.108
X211.377 Z-9.909
X210.961 Z-9.721
X210.603 Z-9.594
X210.42 Z-9.553
X210.289 Z-9.529
X210.066 Z-9.476
X209.843 Z-9.46
X209.596 Z-9.473
X209.34 Z-9.514
X209.09 Z-9.585
X208.85 Z-9.692
X208.698 Z-9.788
X208.503 Z-9.954
X208.451 Z-10.004
X208.317 Z-9.956
X207.773 Z-9.776
X207.038 Z-9.571
X206.479 Z-9.448
X205.917 Z-9.336
X204.451 Z-9.06
X203.743 Z-8.899
X202.854 Z-8.674
X201.338 Z-8.281
X200.966 Z-8.192
X200.733 Z-8.156
X200.549 Z-8.066
X200.239 Z-7.961
X199.587 Z-7.804
X199.165 Z-7.724
X198.835 Z-7.68
X198.306 Z-7.653
X197.253 Z-7.645
X197.028 Z-7.624
X196.832 Z-7.509
X196.533 Z-7.364
X196.159 Z-7.223
X195.791 Z-7.128
X195.545 Z-7.091
X195.438 Z-7.081
X195.116 Z-7.021
X194.801 Z-6.999
X194.413 Z-7.002
X194.187 Z-7.03
X193.893 Z-7.1
X193.647 Z-7.182
X193.055 Z-7.43
X192.916 Z-7.499
X192.767 Z-7.596
X192.629 Z-7.71
X192.503 Z-7.836
X192.333 Z-8.046
X192.234 Z-8.208
X192.155 Z-8.391
X192.098 Z-8.581
X192.059 Z-8.798
X192.026 Z-9.131
X191.918 Z-9.281
X191.733 Z-9.628
X191.65 Z-9.848
X191.629 Z-9.919
X191.443 Z-9.89
X191.252 Z-9.883
X191.057 Z-9.901
X190.887 Z-9.938
X190.662 Z-10.018
X190.319 Z-10.177
X190.123 Z-10.297
X189.843 Z-10.318
X189.588 Z-10.368
X189.363 Z-10.45
X189.107 Z-10.575
X188.959 Z-10.673
X188.837 Z-10.772
X188.671 Z-10.806
X188.42 Z-10.871
X188.216 Z-10.947
X188.021 Z-11.05
X187.991 Z-11.065
X187.823 Z-10.994
X187.597 Z-10.931
X187.363 Z-10.886
X187.038 Z-10.863
X186.715 Z-10.884
X186.199 Z-10.958
X185.712 Z-11.05
X185.343 Z-11.09
X184.706 Z-11.142
X183.962 Z-11.191
X183.406 Z-11.227
X182.308 Z-11.285
X181.453 Z-11.348
X180.92 Z-11.418
X180.737 Z-11.449
X180.524 Z-11.27
X180.388 Z-11.164
X180.206 Z-10.929
X180.038 Z-10.752
X179.897 Z-10.636
X179.743 Z-10.538
X179.449 Z-10.385
X179.23 Z-10.302
X178.957 Z-10.222
X178.585 Z-10.146
X178.3 Z-10.126
X177.951 Z-10.112
X177.677 Z-10.052
X177.227 Z-9.999
X177.034 Z-9.98
X176.359 Z-9.95
X175.847 Z-9.948
X175.591 Z-9.968
X174.996 Z-10.058
X174.418 Z-10.234
X174.095 Z-10.354
X173.594 Z-10.572
X173.2 Z-10.771
X172.9 Z-10.946
X172.524 Z-11.194
X172.316 Z-11.356
X172.062 Z-11.577
X171.802 Z-11.826
X171.65 Z-12.
X169.059
X168.465 Z-11.712
X168.222 Z-11.621
X168.023 Z-11.498
X167.511 Z-11.251
X167.159 Z-11.109
X166.582 Z-10.947
X166.065 Z-10.867
X165.685 Z-10.828
X165.177 Z-10.798
X164.815 Z-10.677
X164.655 Z-10.644
X164.399 Z-10.611
X164.117 Z-10.569
X163.507 Z-10.509
X163.073 Z-10.512
X162.272 Z-10.561
X161.449 Z-10.681
X160.69 Z-10.833
X159.998 Z-11.064
X159.514 Z-11.3
X159.364 Z-11.402
X159.27 Z-11.49
X159.118 Z-11.58
X158.976 Z-11.687
X158.845 Z-11.812
X158.692 Z-12.
X34.927 Z-12.002
X34.391 Z-12.029
X33.818 Z-12.108
X33.379 Z-12.205
X33.192 Z-12.256
X32.846 Z-12.365
X32.663 Z-12.43
X32.328 Z-12.569
X32.152 Z-12.649
X31.745 Z-12.861
X31.519 Z-13.
X31.436 Z-13.024
X31.31 Y7.921
X31.436 Y8.047
X31.519 Z-13.
X31.746 Z-12.861
X32.152 Z-12.649
X32.329 Z-12.569
X32.664 Z-12.43
X32.846 Z-12.364
X33.234 Z-12.242
X33.799 Z-12.111
X34.361 Z-12.032
X34.91 Z-12.003
X158.71 Z-12.
X158.776 Z-11.915
X158.836 Z-11.724
X158.873 Z-11.638
X158.969 Z-11.47
X159.079 Z-11.325
X159.202 Z-11.19
X159.342 Z-11.074
X159.496 Z-10.983
X159.94 Z-10.81
X160.348 Z-10.689
X160.681 Z-10.597
X161.44 Z-10.445
X162.217 Z-10.341
X162.816 Z-10.289
X163.431 Z-10.276
X163.783 Z-10.291
X164.526 Z-10.354
X164.808 Z-10.391
X165.175 Z-10.492
X165.536 Z-10.611
X166.152 Z-10.844
X166.262 Z-10.858
X166.806 Z-10.951
X167.107 Z-11.041
X167.591 Z-11.2
X167.843 Z-11.314
X168.092 Z-11.417
X168.272 Z-11.524
X168.577 Z-11.708
X168.686 Z-11.764
X169.241 Z-12.
X171.735
X171.85 Z-11.869
X172.133 Z-11.579
X172.366 Z-11.363
X172.741 Z-11.066
X173.214 Z-10.764
X173.766 Z-10.475
X174.413 Z-10.183
X174.701 Z-10.076
X175.046 Z-9.974
X175.341 Z-9.911
X175.768 Z-9.857
X176.049 Z-9.843
X176.61 Z-9.854
X177.191 Z-9.875
X177.913 Z-9.938
X178.099 Z-9.969
X178.57 Z-10.109
X178.613 Z-10.114
X179.023 Z-10.177
X179.298 Z-10.243
X179.651 Z-10.379
X179.903 Z-10.503
X180.123 Z-10.652
X180.259 Z-10.769
X180.525 Z-11.026
X180.689 Z-11.232
X180.782 Z-11.308
X180.977 Z-11.277
X181.552 Z-11.21
X181.999 Z-11.175
X184.081 Z-11.074
X185.336 Z-11.003
X185.972 Z-10.959
X186.151 Z-10.931
X186.606 Z-10.881
X186.93 Z-10.857
X187.148 Z-10.864
X187.386 Z-10.882
X187.69 Z-10.936
X187.949 Z-11.022
X188.138 Z-10.913
X188.299 Z-10.844
X188.466 Z-10.794
X188.8 Z-10.725
X188.816 Z-10.713
X189. Z-10.565
X189.152 Z-10.474
X189.411 Z-10.361
X189.639 Z-10.29
X189.809 Z-10.259
X190.086 Z-10.242
X190.326 Z-10.101
X190.562 Z-9.994
X190.808 Z-9.902
X190.977 Z-9.862
X191.22 Z-9.836
X191.447 Z-9.844
X191.635 Z-9.876
X191.717 Z-9.617
X191.788 Z-9.451
X191.889 Z-9.253
X191.893 Z-9.058
X191.924 Z-8.736
X191.959 Z-8.581
X192.042 Z-8.323
X192.133 Z-8.123
X192.234 Z-7.965
X192.426 Z-7.739
X192.604 Z-7.577
X192.749 Z-7.474
X192.98 Z-7.35
X193.396 Z-7.177
X193.64 Z-7.088
X193.892 Z-7.028
X194.233 Z-6.979
X194.514 Z-6.964
X194.876 Z-6.991
X195.046 Z-6.984
X195.237
X195.427 Z-7.003
X195.709 Z-7.042
X195.891 Z-7.089
X196.247 Z-7.22
X196.505 Z-7.339
X196.765 Z-7.488
X196.934 Z-7.507
X197.157 Z-7.513
X198.129 Z-7.502
X198.494 Z-7.505
X198.97 Z-7.548
X199.139 Z-7.573
X199.514 Z-7.644
X199.793 Z-7.71
X200.255 Z-7.832
X200.569 Z-7.933
X200.792 Z-8.034
X201.011 Z-8.072
X202.176 Z-8.375
X203.099 Z-8.623
X203.801 Z-8.811
X204.509 Z-8.97
X206.123 Z-9.274
X207.02 Z-9.464
X207.835 Z-9.692
X208.24 Z-9.835
X208.374 Z-9.729
X208.596 Z-9.583
X208.874 Z-9.456
X209.082 Z-9.392
X209.252 Z-9.364
X209.533 Z-9.342
X209.823 Z-9.349
X210.147 Z-9.393
X210.546 Z-9.503
X210.903 Z-9.633
X211.338 Z-9.828
X211.488 Z-9.862
X211.75 Z-9.937
X211.948 Z-9.98
X212.673 Z-10.129
X212.874 Z-10.191
X213.03 Z-10.26
X213.281 Z-10.346
X213.546 Z-10.442
X213.677 Z-10.509
X213.976 Z-10.649
X214.287 Z-10.82
X214.691 Z-11.073
X214.846 Z-11.177
X215.104 Z-11.364
X215.623 Z-11.802
X215.881 Z-11.997
X270.009 Z-12.
X270.079 Z-11.984
X270.149 Z-11.968
X270.275 Y8.173
X270.149 Y8.299
X270.079 Z-11.984
X270.009 Z-12.
X215.902
X215.557 Z-11.652
X215.069 Z-11.236
X214.846 Z-11.061
X214.444 Z-10.816
X214.031 Z-10.582
X213.796 Z-10.469
X213.629 Z-10.374
X213.368 Z-10.262
X213.201 Z-10.182
X213.055 Z-10.132
X212.863 Z-10.049
X212.232 Z-9.872
X211.768 Z-9.754
X211.419 Z-9.651
X210.981 Z-9.537
X210.672 Z-9.494
X210.474 Z-9.421
X210.084 Z-9.315
X209.826 Z-9.266
X209.543 Z-9.234
X209.352 Z-9.226
X209.157 Z-9.241
X208.883 Z-9.302
X208.635 Z-9.373
X208.473 Z-9.442
X208.246 Z-9.573
X208.089 Z-9.692
X207.704 Z-9.569
X207.222 Z-9.434
X207.013 Z-9.378
X206.641 Z-9.293
X205.771 Z-9.113
X204.261 Z-8.821
X203.535 Z-8.644
X202.088 Z-8.236
X201.008 Z-7.947
X200.81 Z-7.912
X200.602 Z-7.817
X200.195 Z-7.688
X199.47 Z-7.492
X199.143 Z-7.431
X198.609 Z-7.376
X198.418 Z-7.364
X197.931 Z-7.365
X196.84 Z-7.392
X196.568 Z-7.373
X196.305 Z-7.225
X195.894 Z-7.044
X195.668 Z-6.979
X195.341 Z-6.917
X195.152 Z-6.903
X194.59 Z-6.925
X194.324 Z-6.957
X193.925 Z-6.978
X193.627 Z-7.029
X193.377 Z-7.095
X193.092 Z-7.201
X192.738 Z-7.359
X192.586 Z-7.451
X192.411 Z-7.591
X192.197 Z-7.814
X192.068 Z-7.992
X191.95 Z-8.213
X191.852 Z-8.477
X191.8 Z-8.66
X191.777 Z-8.782
X191.762 Z-8.983
X191.759 Z-9.41
X191.71 Z-9.516
X191.642 Z-9.721
X191.614 Z-9.848
X191.428 Z-9.813
X191.239 Z-9.799
X191.044 Z-9.805
X190.873 Z-9.83
X190.704 Z-9.875
X190.482 Z-9.966
X190.297 Z-10.048
X190.052 Z-10.191
X189.859 Z-10.199
X189.688 Z-10.227
X189.52 Z-10.273
X189.202 Z-10.406
X189.029 Z-10.501
X188.838 Z-10.642
X188.798 Z-10.676
X188.544 Z-10.719
X188.296 Z-10.802
X187.982 Z-10.953
X187.913 Z-10.992
X187.734 Z-10.934
X187.55 Z-10.894
X187.267 Z-10.86
X186.803 Z-10.853
X186.054 Z-10.898
X185.009 Z-10.932
X184.087 Z-10.98
X182.083 Z-11.046
X181.79 Z-11.065
X180.888 Z-11.171
X180.741 Z-10.993
X180.609 Z-10.869
X180.24 Z-10.588
X180.006 Z-10.445
X179.71 Z-10.31
X179.576 Z-10.264
X179.328 Z-10.204
X179.059 Z-10.076
X178.883 Z-10.013
X178.515 Z-9.923
X177.972 Z-9.815
X177.747 Z-9.805
X177.609 Z-9.806
X177.259 Z-9.79
X176.772 Z-9.777
X176.332 Z-9.742
X176.017 Z-9.749
X175.604 Z-9.792
X175.264 Z-9.851
X174.718 Z-10.019
X174.527 Z-10.098
X173.984 Z-10.362
X173.418 Z-10.661
X172.978 Z-10.937
X172.63 Z-11.202
X172.389 Z-11.4
X172.094 Z-11.699
X171.859 Z-11.96
X171.827 Z-12.
X169.421
X169.01 Z-11.855
X168.749 Z-11.684
X168.024 Z-11.318
X167.912 Z-11.271
X167.594 Z-11.105
X167.062 Z-10.872
X166.311 Z-10.626
X166.128 Z-10.56
X165.877 Z-10.467
X165.249 Z-10.304
X164.754 Z-10.201
X163.966 Z-10.124
X163.287 Z-10.101
X162.6 Z-10.147
X161.761 Z-10.231
X161.009 Z-10.341
X160.463 Z-10.461
X159.861 Z-10.63
X159.442 Z-10.789
X159.286 Z-10.874
X159.141 Z-10.979
X159.009 Z-11.105
X158.893 Z-11.251
X158.796 Z-11.417
X158.685 Z-11.665
X158.626 Z-11.858
X158.601 Z-12.
X34.907 Z-12.003
X34.359 Z-12.033
X33.799 Z-12.111
X33.234 Z-12.242
X32.846 Z-12.364
X32.664 Z-12.43
X32.329 Z-12.569
X32.152 Z-12.649
X31.746 Z-12.861
X31.519 Z-13.
X31.436 Z-13.024
X31.31 Y8.425
X31.436 Y8.551
X31.519 Z-13.
X31.744 Z-12.861
X32.151 Z-12.649
X32.328 Z-12.569
X32.663 Z-12.431
X32.845 Z-12.365
X33.191 Z-12.256
X33.378 Z-12.205
X33.817 Z-12.108
X34.39 Z-12.029
X34.901 Z-12.003
X158.495 Z-12.
X158.516 Z-11.874
X158.591 Z-11.586
X158.661 Z-11.4
X158.751 Z-11.232
X158.859 Z-11.081
X158.981 Z-10.947
X159.115 Z-10.828
X159.293 Z-10.705
X159.496 Z-10.607
X159.742 Z-10.525
X160.387 Z-10.348
X160.948 Z-10.224
X161.414 Z-10.147
X162.415 Z-10.037
X163.174 Z-9.985
X163.491 Z-9.984
X163.972 Z-10.004
X164.333 Z-10.042
X164.834 Z-10.082
X165.28 Z-10.153
X165.745 Z-10.258
X166.65 Z-10.495
X166.993 Z-10.609
X167.258 Z-10.685
X167.72 Z-10.86
X168.331 Z-11.149
X168.531 Z-11.261
X168.797 Z-11.453
X169.033 Z-11.67
X169.163 Z-11.826
X169.306 Z-11.908
X169.609 Z-12.
X171.94
X171.998 Z-11.924
X172.255 Z-11.614
X172.637 Z-11.256
X172.986 Z-10.98
X173.455 Z-10.667
X173.83 Z-10.463
X174.273 Z-10.205
X174.667 Z-10.023
X175.169 Z-9.836
X175.418 Z-9.766
X175.756 Z-9.696
X176.012 Z-9.666
X176.293 Z-9.65
X176.609 Z-9.669
X177.028 Z-9.707
X177.343 Z-9.728
X177.834 Z-9.727
X178.29 Z-9.773
X178.762 Z-9.834
X178.946 Z-9.875
X179.305 Z-9.999
X179.563 Z-10.11
X179.729 Z-10.204
X179.987 Z-10.346
X180.123 Z-10.417
X180.412 Z-10.577
X180.627 Z-10.705
X180.775 Z-10.811
X180.882 Z-10.908
X181.053 Z-11.054
X181.313 Z-11.01
X181.825 Z-10.957
X182.278 Z-10.929
X183.985 Z-10.89
X185.333 Z-10.843
X186.189 Z-10.838
X186.468 Z-10.847
X186.639 Z-10.841
X187.223 Z-10.849
X187.602 Z-10.89
X187.897 Z-10.958
X188.018 Z-10.894
X188.277 Z-10.777
X188.509 Z-10.695
X188.789 Z-10.641
X188.945 Z-10.519
X189.172 Z-10.385
X189.411 Z-10.28
X189.658 Z-10.201
X189.829 Z-10.169
X190.022 Z-10.156
X190.3 Z-10.003
X190.573 Z-9.887
X190.822 Z-9.813
X190.993 Z-9.785
X191.188 Z-9.775
X191.378 Z-9.788
X191.563 Z-9.822
X191.578 Z-9.744
X191.636 Z-9.539
X191.638 Z-8.967
X191.651 Z-8.767
X191.703 Z-8.505
X191.772 Z-8.283
X191.891 Z-8.029
X191.992 Z-7.87
X192.118 Z-7.721
X192.38 Z-7.472
X192.523 Z-7.364
X192.676 Z-7.275
X192.954 Z-7.154
X193.243 Z-7.062
X193.538 Z-6.997
X193.758 Z-6.965
X193.917 Z-6.94
X194.3 Z-6.877
X194.58 Z-6.856
X195.153 Z-6.866
X195.342 Z-6.88
X195.528 Z-6.916
X195.846 Z-7.01
X196.062 Z-7.098
X196.356 Z-7.257
X196.388 Z-7.264
X196.758 Z-7.279
X197.891 Z-7.228
X198.329 Z-7.231
X198.642 Z-7.251
X199.304 Z-7.338
X200.026 Z-7.518
X200.392 Z-7.622
X200.657 Z-7.718
X200.819 Z-7.8
X201.042 Z-7.839
X202.395 Z-8.217
X203.212 Z-8.451
X203.994 Z-8.67
X204.64 Z-8.805
X206.073 Z-9.089
X206.952 Z-9.279
X207.176 Z-9.346
X207.477 Z-9.419
X207.947 Z-9.561
X208.102 Z-9.45
X208.292 Z-9.338
X208.495 Z-9.254
X208.662 Z-9.21
X209.003 Z-9.157
X209.284 Z-9.139
X209.474 Z-9.146
X209.662 Z-9.172
X210.144 Z-9.272
X210.268 Z-9.277
X210.58 Z-9.318
X210.699 Z-9.331
X210.908 Z-9.365
X211.265 Z-9.463
X211.703 Z-9.605
X212.244 Z-9.765
X212.834 Z-9.957
X213.057 Z-10.046
X213.297 Z-10.137
X213.794 Z-10.395
X214.041 Z-10.518
X214.437 Z-10.74
X214.912 Z-11.045
X215.482 Z-11.514
X215.685 Z-11.71
X215.772 Z-11.711
X216.042 Z-11.724
X216.318 Z-11.785
X216.495 Z-11.844
X216.818 Z-11.998
X270.009 Z-12.
X270.079 Z-11.984
X270.149 Z-11.968
X270.275 Y8.677
X270.149 Y8.803
X270.079 Z-11.984
X270.009 Z-12.
X217.115
X216.933 Z-11.864
X216.713 Z-11.723
X216.547 Z-11.639
X216.19 Z-11.52
X216.006 Z-11.485
X215.675 Z-11.453
X215.605 Z-11.447
X215.374 Z-11.297
X215.106 Z-11.163
X215.002 Z-11.102
X214.697 Z-10.882
X214.458 Z-10.727
X213.898 Z-10.401
X213.476 Z-10.18
X213.216 Z-10.063
X213.083 Z-10.01
X212.773 Z-9.873
X212.345 Z-9.73
X211.799 Z-9.551
X211.373 Z-9.385
X210.869 Z-9.247
X210.682 Z-9.213
X210.456 Z-9.159
X210.183 Z-9.129
X209.68 Z-9.13
X209.408 Z-9.079
X209.123 Z-9.063
X208.785 Z-9.071
X208.566 Z-9.107
X208.318 Z-9.186
X208.02 Z-9.316
X207.792 Z-9.443
X207.3 Z-9.301
X207.149 Z-9.265
X206.798 Z-9.169
X206.333 Z-9.066
X204.329 Z-8.659
X203.808 Z-8.535
X203.439 Z-8.436
X202.634 Z-8.186
X201.312 Z-7.808
X200.991 Z-7.722
X200.853 Z-7.7
X200.694 Z-7.613
X200.498 Z-7.538
X199.461 Z-7.26
X199.228 Z-7.22
X198.583 Z-7.133
X198.076 Z-7.106
X197.541 Z-7.124
X196.979 Z-7.156
X196.484 Z-7.184
X196.129 Z-7.162
X195.923 Z-7.063
X195.613 Z-6.944
X195.431 Z-6.898
X194.883 Z-6.832
X194.477 Z-6.809
X194.111 Z-6.818
X193.855 Z-6.847
X193.603 Z-6.91
X193.438 Z-6.958
X193.113 Z-7.026
X192.736 Z-7.138
X192.575 Z-7.207
X192.421 Z-7.294
X192.158 Z-7.492
X192.01 Z-7.631
X191.893 Z-7.775
X191.794 Z-7.938
X191.644 Z-8.268
X191.577 Z-8.464
X191.544 Z-8.623
X191.527 Z-8.84
X191.522 Z-9.632
X191.489 Z-9.805
X191.303 Z-9.774
X191.113 Z-9.764
X190.918 Z-9.776
X190.664 Z-9.827
X190.498 Z-9.876
X190.257 Z-9.984
X189.994 Z-10.124
X189.799 Z-10.142
X189.588 Z-10.189
X189.301 Z-10.289
X189.143 Z-10.365
X188.992 Z-10.459
X188.803 Z-10.613
X188.53 Z-10.663
X188.303 Z-10.741
X187.972 Z-10.901
X187.912 Z-10.932
X187.636 Z-10.87
X187.161 Z-10.824
X186.597 Z-10.805
X186.402 Z-10.79
X185.784 Z-10.763
X184.906 Z-10.778
X182.378 Z-10.833
X182.105 Z-10.846
X181.76 Z-10.875
X181.228 Z-10.943
X181.169 Z-10.953
X180.885 Z-10.749
X180.639 Z-10.58
X180.508 Z-10.477
X180.198 Z-10.257
X180.038 Z-10.167
X179.777 Z-10.051
X179.443 Z-9.91
X179.078 Z-9.807
X178.799 Z-9.744
X178.516 Z-9.717
X177.725 Z-9.692
X177.246 Z-9.619
X176.722 Z-9.577
X176.283 Z-9.576
X175.929 Z-9.615
X175.643 Z-9.668
X175.26 Z-9.777
X174.779 Z-9.969
X174.391 Z-10.162
X174.092 Z-10.336
X173.546 Z-10.671
X173.189 Z-10.915
X172.702 Z-11.306
X172.311 Z-11.698
X172.109 Z-11.96
X172.079 Z-12.
X169.794
X169.427 Z-11.582
X169.294 Z-11.46
X168.767 Z-11.089
X168.605 Z-10.997
X168.259 Z-10.846
X167.635 Z-10.609
X167.247 Z-10.483
X166.692 Z-10.342
X165.637 Z-10.114
X164.883 Z-9.992
X164.311 Z-9.95
X163.56 Z-9.914
X163.17
X162.307 Z-9.964
X161.88 Z-10.005
X161.625 Z-10.038
X161.264 Z-10.085
X160.38 Z-10.244
X159.533 Z-10.477
X159.369 Z-10.541
X159.214 Z-10.625
X159.067 Z-10.727
X158.933 Z-10.847
X158.812 Z-10.985
X158.706 Z-11.139
X158.618 Z-11.304
X158.544 Z-11.48
X158.485 Z-11.683
X158.438 Z-12.
X34.872 Z-12.004
X34.369 Z-12.031
X33.796 Z-12.112
X33.378 Z-12.205
X33.191 Z-12.256
X32.845 Z-12.365
X32.663 Z-12.431
X32.328 Z-12.569
X32.151 Z-12.649
X31.744 Z-12.861
X31.519 Z-13.
X31.436 Z-13.024
X31.31 Y8.929
X31.436 Y9.055
X31.519 Z-13.
X31.746 Z-12.861
X32.152 Z-12.649
X32.329 Z-12.569
X32.664 Z-12.43
X32.846 Z-12.364
X33.234 Z-12.242
X33.799 Z-12.111
X34.361 Z-12.032
X34.914 Z-12.002
X158.412 Z-12.
X158.435 Z-11.751
X158.477 Z-11.541
X158.537 Z-11.346
X158.617 Z-11.171
X158.715 Z-11.011
X158.828 Z-10.867
X158.956 Z-10.739
X159.095 Z-10.627
X159.246 Z-10.533
X159.404 Z-10.457
X159.752 Z-10.34
X160.482 Z-10.161
X160.839 Z-10.092
X161.134 Z-10.039
X161.645 Z-9.968
X162.287 Z-9.912
X163.188 Z-9.872
X164.185 Z-9.885
X164.899 Z-9.944
X165.649 Z-10.045
X166.385 Z-10.179
X167.035 Z-10.289
X167.292 Z-10.36
X167.663 Z-10.45
X168.119 Z-10.586
X168.74 Z-10.827
X168.996 Z-10.95
X169.236 Z-11.093
X169.543 Z-11.31
X169.753 Z-11.49
X170.215 Z-11.998
X172.236 Z-12.
X172.432 Z-11.748
X172.673 Z-11.472
X172.969 Z-11.146
X173.446 Z-10.735
X173.752 Z-10.533
X174.201 Z-10.238
X174.434 Z-10.123
X174.763 Z-9.985
X175.16 Z-9.819
X175.527 Z-9.691
X175.901 Z-9.592
X176.156 Z-9.545
X176.621 Z-9.506
X177.216 Z-9.516
X177.529 Z-9.547
X178.099 Z-9.607
X178.47 Z-9.667
X178.534 Z-9.673
X178.763 Z-9.688
X179.289 Z-9.78
X179.667 Z-9.884
X180.022 Z-10.018
X180.277 Z-10.138
X180.676 Z-10.387
X180.825 Z-10.498
X181.086 Z-10.729
X181.285 Z-10.863
X181.537 Z-10.834
X181.928 Z-10.78
X182.412 Z-10.748
X184.754 Z-10.704
X185.729 Z-10.69
X186.095 Z-10.707
X186.478 Z-10.738
X187.009 Z-10.782
X187.654 Z-10.847
X187.933 Z-10.904
X188.142 Z-10.8
X188.382 Z-10.691
X188.548 Z-10.64
X188.799 Z-10.589
X188.947 Z-10.462
X189.15 Z-10.329
X189.309 Z-10.253
X189.474 Z-10.196
X189.812 Z-10.122
X189.97 Z-10.106
X190.068 Z-10.052
X190.46 Z-9.865
X190.626 Z-9.811
X190.795 Z-9.775
X191.021 Z-9.754
X191.211 Z-9.76
X191.399 Z-9.788
X191.408 Z-9.725
X191.411 Z-8.828
X191.426 Z-8.639
X191.449 Z-8.518
X191.503 Z-8.322
X191.605 Z-8.075
X191.724 Z-7.818
X191.825 Z-7.66
X191.943 Z-7.52
X192.074 Z-7.399
X192.287 Z-7.243
X192.459 Z-7.146
X192.678 Z-7.057
X193.578 Z-6.827
X193.918 Z-6.776
X194.156 Z-6.763
X194.537 Z-6.786
X195.085 Z-6.869
X195.364 Z-6.922
X195.592 Z-6.982
X195.803 Z-7.067
X195.825 Z-7.071
X196.237 Z-7.091
X196.525 Z-7.087
X196.886 Z-7.057
X197.248 Z-7.028
X197.848 Z-6.994
X198.62 Z-7.029
X199.108 Z-7.096
X199.482 Z-7.172
X199.666 Z-7.217
X200.201 Z-7.361
X200.511 Z-7.446
X200.74 Z-7.535
X200.899 Z-7.623
X201.185 Z-7.677
X202.249 Z-7.984
X203.408 Z-8.342
X204.025 Z-8.514
X204.38 Z-8.597
X205.673 Z-8.86
X206.589 Z-9.05
X207.128 Z-9.186
X207.665 Z-9.341
X207.803 Z-9.261
X207.963 Z-9.189
X208.221 Z-9.106
X208.566 Z-9.028
X208.748 Z-9.001
X208.918 Z-8.993
X209.141 Z-9.007
X209.308 Z-8.984
X209.525 Z-8.97
X209.793 Z-8.994
X210.131 Z-9.007
X210.365 Z-9.043
X210.856 Z-9.166
X211.377 Z-9.324
X211.651 Z-9.435
X212.219 Z-9.636
X212.789 Z-9.844
X213.429 Z-10.142
X213.891 Z-10.388
X214.257 Z-10.609
X214.397 Z-10.628
X214.77 Z-10.7
X214.948 Z-10.752
X215.107 Z-10.828
X215.464 Z-11.047
X215.612 Z-11.152
X215.697 Z-11.228
X215.99 Z-11.274
X216.265 Z-11.337
X216.437 Z-11.404
X216.605 Z-11.499
X216.689 Z-11.545
X217.066 Z-11.78
X217.225 Z-11.915
X217.307 Z-12.
X270.009
X270.079 Z-11.984
X270.149 Z-11.968
X270.275 Y9.181
X270.149 Y9.307
X270.079 Z-11.984
X270.009 Z-12.
X217.502
X217.359 Z-11.916
X217.197 Z-11.761
X216.799 Z-11.461
X216.557 Z-11.317
X216.35 Z-11.226
X216.08 Z-11.127
X215.756 Z-11.049
X215.465 Z-10.824
X215.305 Z-10.698
X215.122 Z-10.591
X214.772 Z-10.454
X214.564 Z-10.402
X214.261 Z-10.365
X213.733 Z-10.315
X213.186 Z-10.023
X212.687 Z-9.798
X212.178 Z-9.596
X211.255 Z-9.249
X210.951 Z-9.087
X210.637 Z-8.957
X210.457 Z-8.908
X210.243 Z-8.882
X209.915 Z-8.886
X209.846 Z-8.891
X209.663 Z-8.863
X209.472 Z-8.856
X209.277 Z-8.871
X209.096 Z-8.87
X208.922 Z-8.889
X208.655 Z-8.955
X208.387 Z-8.977
X208.132 Z-9.022
X207.964 Z-9.068
X207.762 Z-9.152
X207.584 Z-9.254
X206.998 Z-9.086
X206.627 Z-8.995
X205.598 Z-8.777
X204.213 Z-8.49
X203.558 Z-8.314
X203.35 Z-8.244
X202.045 Z-7.84
X201.264 Z-7.616
X201.032 Z-7.569
X200.935 Z-7.551
X200.781 Z-7.464
X200.565 Z-7.376
X200.43 Z-7.331
X200.248 Z-7.279
X199.713 Z-7.141
X199.34 Z-7.058
X198.89 Z-6.974
X198.32 Z-6.915
X197.81 Z-6.893
X197.31 Z-6.918
X196.968 Z-6.948
X196.607 Z-6.99
X196.191 Z-7.018
X195.629 Z-6.998
X195.404 Z-6.929
X195.053 Z-6.842
X194.818 Z-6.805
X194.592 Z-6.791
X194.333 Z-6.75
X194.048 Z-6.731
X193.572 Z-6.75
X193.317 Z-6.797
X192.634 Z-6.982
X192.43 Z-7.06
X192.235 Z-7.154
X192.084 Z-7.246
X191.944 Z-7.358
X191.816 Z-7.487
X191.704 Z-7.633
X191.598 Z-7.818
X191.454 Z-8.135
X191.383 Z-8.337
X191.327 Z-8.6
X191.308 Z-8.776
X191.305 Z-9.696
X191.296 Z-9.754
X191.107 Z-9.737
X190.912 Z-9.743
X190.741 Z-9.769
X190.573 Z-9.812
X190.25 Z-9.941
X190.029 Z-10.056
X189.968 Z-10.09
X189.792 Z-10.107
X189.622 Z-10.142
X189.334 Z-10.239
X189.135 Z-10.331
X188.984 Z-10.423
X188.798 Z-10.573
X188.53 Z-10.637
X188.302 Z-10.716
X187.993 Z-10.869
X187.559 Z-10.793
X186.922 Z-10.714
X186.371 Z-10.652
X185.99 Z-10.627
X185.418 Z-10.618
X183.858 Z-10.644
X182.701 Z-10.668
X182.082 Z-10.711
X181.55 Z-10.772
X181.435 Z-10.793
X181.276 Z-10.683
X181.066 Z-10.49
X180.732 Z-10.263
X180.363 Z-10.052
X180.15 Z-9.957
X179.743 Z-9.828
X179.426 Z-9.752
X179.087 Z-9.647
X178.784 Z-9.587
X178.331 Z-9.516
X177.302 Z-9.447
X176.747 Z-9.459
X176.451 Z-9.493
X176.02 Z-9.566
X175.769 Z-9.636
X175.675 Z-9.664
X175.356 Z-9.723
X174.945 Z-9.857
X174.55 Z-10.034
X174.17 Z-10.237
X173.811 Z-10.484
X173.414 Z-10.782
X173.265 Z-10.92
X172.888 Z-11.315
X172.436 Z-11.869
X172.351 Z-12.
X170.647
X170.523 Z-11.803
X170.408 Z-11.672
X170.251 Z-11.542
X170.112 Z-11.421
X169.887 Z-11.268
X169.524 Z-11.008
X169.278 Z-10.877
X168.865 Z-10.682
X168.69 Z-10.618
X168.036 Z-10.417
X167.464 Z-10.3
X167.018 Z-10.202
X165.949 Z-10.049
X165.42 Z-9.975
X165.042 Z-9.924
X164.19 Z-9.868
X163.186 Z-9.856
X162.355 Z-9.879
X161.973 Z-9.916
X161.639 Z-9.937
X161.054 Z-10.023
X160.57 Z-10.113
X160.316 Z-10.179
X159.77 Z-10.297
X159.41 Z-10.411
X159.251 Z-10.486
X159.1 Z-10.578
X158.959 Z-10.688
X158.83 Z-10.815
X158.715 Z-10.957
X158.616 Z-11.115
X158.534 Z-11.288
X158.47 Z-11.477
X158.426 Z-11.695
X158.413 Z-11.904
X158.412 Z-12.
X34.912 Z-12.003
X34.361 Z-12.032
X33.799 Z-12.111
X33.234 Z-12.242
X32.846 Z-12.364
X32.664 Z-12.43
X32.329 Z-12.569
X32.152 Z-12.649
X31.746 Z-12.861
X31.519 Z-13.
X31.436 Z-13.024
X31.31 Y9.433
X31.436 Y9.558
X31.519 Z-13.
X31.746 Z-12.861
X32.152 Z-12.649
X32.329 Z-12.569
X32.664 Z-12.43
X32.846 Z-12.364
X33.234 Z-12.242
X33.799 Z-12.111
X34.361 Z-12.032
X34.914 Z-12.002
X158.412 Z-12.
X158.413 Z-11.914
X158.428 Z-11.677
X158.474 Z-11.448
X158.542 Z-11.257
X158.627 Z-11.085
X158.73 Z-10.929
X158.848 Z-10.789
X158.979 Z-10.665
X159.122 Z-10.558
X159.275 Z-10.468
X159.438 Z-10.395
X159.626 Z-10.303
X160.364 Z-10.07
X161.17 Z-9.859
X161.614 Z-9.791
X162.212 Z-9.71
X163.016 Z-9.692
X164.005 Z-9.771
X165.104 Z-9.914
X165.291 Z-9.93
X165.416 Z-9.955
X166.227 Z-10.053
X167.241 Z-10.185
X168.04 Z-10.329
X168.641 Z-10.479
X168.913 Z-10.564
X169.353 Z-10.743
X169.61 Z-10.864
X169.945 Z-11.051
X170.223 Z-11.183
X170.422 Z-11.306
X170.697 Z-11.509
X170.855 Z-11.65
X170.917 Z-11.725
X171.101 Z-11.997
X172.477 Z-12.
X172.558 Z-11.873
X172.729 Z-11.642
X173.006 Z-11.281
X173.371 Z-10.892
X173.786 Z-10.521
X173.97 Z-10.389
X174.397 Z-10.116
X174.711 Z-9.948
X174.946 Z-9.838
X175.191 Z-9.747
X175.606 Z-9.632
X176.114 Z-9.537
X176.298 Z-9.527
X176.427 Z-9.491
X176.682 Z-9.447
X177.314 Z-9.403
X177.704 Z-9.401
X178.383 Z-9.428
X179.047 Z-9.502
X179.418 Z-9.577
X179.798 Z-9.713
X180.015 Z-9.81
X180.192 Z-9.876
X180.341 Z-9.95
X180.581 Z-10.055
X180.834 Z-10.181
X181.034 Z-10.304
X181.254 Z-10.466
X181.492 Z-10.663
X181.594 Z-10.73
X182.11 Z-10.665
X183.143 Z-10.587
X184.392 Z-10.557
X185.27 Z-10.546
X186.048 Z-10.554
X186.591 Z-10.595
X187.433 Z-10.711
X187.621 Z-10.743
X188.073 Z-10.833
X188.131 Z-10.8
X188.328 Z-10.704
X188.562 Z-10.621
X188.825 Z-10.555
X189.001 Z-10.416
X189.192 Z-10.306
X189.467 Z-10.178
X189.634 Z-10.127
X189.804 Z-10.094
X189.966 Z-10.08
X189.991 Z-10.066
X190.219 Z-9.944
X190.624 Z-9.79
X190.793 Z-9.75
X190.997 Z-9.727
X191.186 Z-9.729
X191.212 Z-9.517
X191.217 Z-8.743
X191.256 Z-8.423
X191.308 Z-8.227
X191.395 Z-8.012
X191.561 Z-7.693
X191.687 Z-7.5
X191.808 Z-7.362
X191.942 Z-7.241
X192.088 Z-7.138
X192.28 Z-7.034
X192.48 Z-6.943
X192.749 Z-6.868
X192.919 Z-6.82
X193.163 Z-6.755
X193.601 Z-6.697
X193.832 Z-6.694
X194.213 Z-6.726
X194.5 Z-6.727
X194.784 Z-6.757
X195.155 Z-6.838
X195.417 Z-6.925
X195.906 Z-6.948
X196.271 Z-6.942
X197.162 Z-6.832
X198.022 Z-6.805
X198.818 Z-6.879
X199.164 Z-6.939
X199.816 Z-7.084
X200.184 Z-7.184
X200.638 Z-7.328
X200.81 Z-7.398
X200.975 Z-7.486
X201.039 Z-7.496
X201.254 Z-7.54
X202.246 Z-7.826
X203.14 Z-8.1
X203.549 Z-8.25
X204.2 Z-8.421
X205.28 Z-8.654
X206.22 Z-8.851
X206.779 Z-8.978
X207.148 Z-9.072
X207.514 Z-9.18
X207.754 Z-9.068
X208.001 Z-8.985
X208.243 Z-8.935
X208.441 Z-8.877
X208.872 Z-8.791
X209.067 Z-8.771
X209.459 Z-8.783
X209.627 Z-8.752
X209.896 Z-8.721
X210.122 Z-8.723
X210.452 Z-8.771
X210.635 Z-8.816
X210.808 Z-8.883
X211.083 Z-9.02
X211.304 Z-9.156
X211.539 Z-9.328
X211.969 Z-9.497
X212.049 Z-9.503
X212.327 Z-9.535
X212.556 Z-9.589
X212.733 Z-9.655
X212.99 Z-9.768
X213.454 Z-10.065
X214.123 Z-10.125
X214.662 Z-10.233
X214.865 Z-10.288
X215.036 Z-10.363
X215.364 Z-10.544
X215.508 Z-10.653
X215.655 Z-10.769
X215.797 Z-10.905
X215.928 Z-10.937
X216.198 Z-11.022
X216.456 Z-11.134
X216.619 Z-11.229
X216.93 Z-11.438
X217.204 Z-11.675
X217.345 Z-11.776
X217.713 Z-12.
X270.009
X270.079 Z-11.984
X270.149 Z-11.968
X270.275 Y9.684
X270.149 Y9.81
X270.079 Z-11.984
X270.009 Z-12.
X218.052 Z-11.998
X217.715 Z-11.829
X217.4 Z-11.656
X217.153 Z-11.533
X217.055 Z-11.474
X216.855 Z-11.306
X216.627 Z-11.14
X216.424 Z-11.028
X216.122 Z-10.89
X215.828 Z-10.779
X215.729 Z-10.678
X215.574 Z-10.528
X215.427 Z-10.421
X215.1 Z-10.226
X214.932 Z-10.149
X214.568 Z-10.046
X214.169 Z-9.952
X214.028 Z-9.932
X213.489 Z-9.867
X213.056 Z-9.596
X212.643 Z-9.422
X212.441 Z-9.359
X212.103 Z-9.294
X211.687 Z-9.258
X211.543 Z-9.256
X211.257 Z-9.043
X210.932 Z-8.854
X210.763 Z-8.774
X210.495 Z-8.69
X210.216 Z-8.628
X209.932 Z-8.607
X209.64 Z-8.61
X209.457 Z-8.625
X209.245 Z-8.67
X209.144 Z-8.7
X208.844 Z-8.71
X208.501 Z-8.749
X208.29 Z-8.799
X207.924 Z-8.929
X207.764 Z-8.997
X207.542 Z-9.083
X207.471 Z-9.116
X207.042 Z-8.989
X206.177 Z-8.785
X205.616 Z-8.667
X204.698 Z-8.478
X203.62 Z-8.221
X203.456 Z-8.166
X203.049 Z-8.002
X202.386 Z-7.794
X201.257 Z-7.468
X201.025 Z-7.42
X200.978 Z-7.409
X200.821 Z-7.329
X200.566 Z-7.238
X200.024 Z-7.076
X199.822 Z-7.022
X199.518 Z-6.943
X199. Z-6.839
X198.815 Z-6.809
X198.435 Z-6.769
X197.959 Z-6.727
X197.299 Z-6.743
X196.946 Z-6.775
X196.249 Z-6.867
X196.141 Z-6.88
X195.943 Z-6.886
X195.211 Z-6.861
X194.92 Z-6.755
X194.691 Z-6.698
X194.503 Z-6.667
X194.314 Z-6.655
X193.987 Z-6.667
X193.838 Z-6.681
X193.462 Z-6.668
X193.181 Z-6.684
X192.942 Z-6.735
X192.68 Z-6.813
X192.506 Z-6.859
X192.293 Z-6.943
X192.097 Z-7.038
X191.946 Z-7.132
X191.806 Z-7.244
X191.679 Z-7.374
X191.542 Z-7.557
X191.335 Z-7.914
X191.255 Z-8.102
X191.172 Z-8.376
X191.141 Z-8.535
X191.124 Z-8.76
X191.12 Z-9.417
X191.082 Z-9.624
X191.074 Z-9.727
X190.876 Z-9.74
X190.705 Z-9.772
X190.498 Z-9.837
X190.217 Z-9.947
X189.973 Z-10.073
X189.784 Z-10.091
X189.615 Z-10.127
X189.449 Z-10.181
X189.289 Z-10.254
X189.061 Z-10.382
X188.916 Z-10.484
X188.832 Z-10.555
X188.61 Z-10.612
X188.287 Z-10.736
X188.18 Z-10.788
X187.764 Z-10.686
X187.079 Z-10.567
X186.7 Z-10.52
X186.129 Z-10.481
X185.546 Z-10.468
X184.586 Z-10.477
X183.53 Z-10.511
X182.655 Z-10.584
X182.058 Z-10.651
X181.759 Z-10.7
X181.464 Z-10.484
X181.199 Z-10.276
X180.909 Z-10.112
X180.677 Z-9.949
X180.476 Z-9.833
X180.164 Z-9.699
X179.632 Z-9.525
X179.356 Z-9.452
X179.169 Z-9.424
X178.522 Z-9.369
X177.744 Z-9.355
X177.383 Z-9.377
X176.936 Z-9.418
X176.704 Z-9.454
X176.424 Z-9.465
X175.991 Z-9.532
X175.572 Z-9.627
X174.891 Z-9.857
X174.722 Z-9.931
X174.492 Z-10.052
X174.043 Z-10.312
X173.764 Z-10.523
X173.586 Z-10.689
X173.451 Z-10.835
X173.285 Z-11.015
X172.982 Z-11.381
X172.832 Z-11.61
X172.613 Z-12.
X171.48
X171.395 Z-11.84
X171.291 Z-11.704
X171.164 Z-11.582
X171.062 Z-11.507
X170.937 Z-11.382
X170.771 Z-11.262
X170.336 Z-11.026
X169.994 Z-10.881
X169.696 Z-10.76
X169.451 Z-10.65
X169.001 Z-10.494
X168.726 Z-10.424
X168.278 Z-10.325
X167.359 Z-10.166
X166.819 Z-10.01
X166.633 Z-9.965
X165.909 Z-9.801
X165.627 Z-9.745
X165.367 Z-9.681
X165.084 Z-9.649
X164.342 Z-9.581
X163.838 Z-9.526
X162.973 Z-9.484
X162.389 Z-9.498
X161.594 Z-9.575
X160.353 Z-9.824
X159.803 Z-9.985
X159.574 Z-10.058
X159.414 Z-10.135
X159.265 Z-10.233
X159.081 Z-10.395
X158.948 Z-10.553
X158.85 Z-10.716
X158.74 Z-10.976
X158.643 Z-11.129
X158.559 Z-11.3
X158.491 Z-11.486
X158.442 Z-11.704
X158.414 Z-11.988
X158.407 Z-12.
X34.915 Z-12.002
X34.361 Z-12.032
X33.799 Z-12.111
X33.234 Z-12.242
X32.846 Z-12.364
X32.664 Z-12.43
X32.329 Z-12.569
X32.152 Z-12.649
X31.746 Z-12.861
X31.519 Z-13.
X31.436 Z-13.024
X31.31 Y9.936
X31.436 Y10.062
X31.519 Z-13.
X31.746 Z-12.861
X32.152 Z-12.649
X32.329 Z-12.569
X32.664 Z-12.43
X32.846 Z-12.364
X33.234 Z-12.242
X33.799 Z-12.111
X34.361 Z-12.032
X34.924 Z-12.002
X158.424 Z-12.
X158.449 Z-11.834
X158.508 Z-11.588
X158.553 Z-11.187
X158.624 Z-10.885
X158.694 Z-10.7
X158.826 Z-10.46
X158.945 Z-10.291
X159.103 Z-10.123
X159.263 Z-9.999
X159.417 Z-9.911
X159.579 Z-9.845
X160.182 Z-9.693
X160.537 Z-9.616
X161.231 Z-9.485
X161.929 Z-9.372
X162.949 Z-9.321
X163.862 Z-9.365
X164.175 Z-9.397
X164.823 Z-9.458
X164.966 Z-9.471
X165.346 Z-9.5
X166.077 Z-9.643
X166.879 Z-9.817
X167.226 Z-9.918
X167.549 Z-9.991
X168.056 Z-10.168
X168.354 Z-10.256
X168.636 Z-10.352
X168.915 Z-10.413
X169.376 Z-10.534
X169.63 Z-10.622
X169.813 Z-10.681
X170.047 Z-10.761
X170.546 Z-10.964
X170.84 Z-11.112
X171.096 Z-11.281
X171.278 Z-11.401
X171.411 Z-11.519
X171.652 Z-11.79
X171.819 Z-12.
X172.733
X172.878 Z-11.701
X172.99 Z-11.495
X173.266 Z-11.101
X173.45 Z-10.882
X173.691 Z-10.621
X173.912 Z-10.431
X174.169 Z-10.246
X174.499 Z-10.036
X174.85 Z-9.861
X175.481 Z-9.633
X175.926 Z-9.512
X176.312 Z-9.452
X176.566 Z-9.41
X176.806 Z-9.391
X177.763 Z-9.329
X178.676 Z-9.333
X179.065 Z-9.357
X179.289 Z-9.379
X179.804 Z-9.482
X180.388 Z-9.663
X180.691 Z-9.795
X180.996 Z-9.96
X181.235 Z-10.13
X181.451 Z-10.306
X181.59 Z-10.451
X181.91 Z-10.671
X182.696 Z-10.558
X182.739 Z-10.451
X182.841 Z-10.271
X182.92 Z-10.191
X182.999 Z-10.146
X183.233 Z-10.06
X183.355 Z-10.039
X183.409 Z-10.042
X183.529 Z-10.076
X183.825 Z-10.261
X183.913 Z-10.338
X183.965 Z-10.425
X184.98 Z-10.39
X185.928
X186.606 Z-10.415
X187.223 Z-10.479
X187.907 Z-10.61
X188.348 Z-10.731
X188.559 Z-10.639
X188.836 Z-10.552
X188.979 Z-10.442
X189.202 Z-10.305
X189.438 Z-10.191
X189.603 Z-10.135
X189.772 Z-10.096
X190.015 Z-10.059
X190.05 Z-10.044
X190.293 Z-9.927
X190.616 Z-9.8
X190.784 Z-9.757
X190.955 Z-9.734
X190.989 Z-9.462
X191.04 Z-9.241
X191.042 Z-8.749
X191.058 Z-8.53
X191.09 Z-8.371
X191.179 Z-8.088
X191.265 Z-7.894
X191.456 Z-7.569
X191.589 Z-7.384
X191.713 Z-7.251
X191.92 Z-7.081
X192.071 Z-6.987
X192.307 Z-6.875
X192.636 Z-6.766
X192.97 Z-6.678
X193.23 Z-6.642
X193.441 Z-6.637
X193.598 Z-6.649
X193.695 Z-6.634
X193.976 Z-6.604
X194.241 Z-6.609
X194.572 Z-6.645
X194.801 Z-6.701
X195.058 Z-6.801
X195.381 Z-6.816
X195.994 Z-6.824
X196.772 Z-6.715
X197.333 Z-6.662
X197.984
X198.442 Z-6.7
X198.819 Z-6.753
X199.383 Z-6.858
X200.012 Z-7.015
X200.594 Z-7.181
X200.828 Z-7.267
X200.99 Z-7.351
X201.227 Z-7.405
X202.723 Z-7.831
X203.008 Z-7.928
X203.459 Z-8.12
X203.72 Z-8.196
X204.991 Z-8.492
X206.309 Z-8.765
X206.866 Z-8.897
X207.234 Z-8.998
X207.393 Z-9.047
X207.583 Z-8.934
X207.804 Z-8.842
X208.094 Z-8.754
X208.485 Z-8.678
X208.863 Z-8.651
X208.921 Z-8.634
X209.213 Z-8.557
X209.456 Z-8.519
X209.674 Z-8.507
X209.864 Z-8.52
X210.241 Z-8.571
X210.425 Z-8.612
X210.78 Z-8.74
X210.948 Z-8.818
X211.342 Z-9.07
X211.513 Z-9.072
X211.759 Z-9.084
X212.295 Z-9.176
X212.613 Z-9.268
X212.744 Z-9.318
X213.216 Z-9.537
X213.449 Z-9.683
X214.011 Z-9.773
X214.682 Z-9.941
X215.016 Z-10.051
X215.183 Z-10.132
X215.336 Z-10.231
X215.474 Z-10.347
X215.549 Z-10.401
X215.647 Z-10.447
X215.791 Z-10.536
X216.104 Z-10.728
X216.299 Z-10.874
X216.435 Z-10.955
X216.764 Z-11.178
X216.956 Z-11.277
X217.401 Z-11.522
X217.509 Z-11.572
X217.737 Z-11.707
X217.841 Z-11.758
X218.249 Z-12.
X270.009
X270.079 Z-11.984
X270.149 Z-11.968
X270.275 Y10.188
X270.149 Y10.314
X270.079 Z-11.984
X270.009 Z-12.
X218.348
X217.996 Z-11.76
X217.747 Z-11.627
X217.287 Z-11.356
X217.075 Z-11.248
X216.92 Z-11.154
X216.761 Z-11.
X216.474 Z-10.752
X216.095 Z-10.465
X215.707 Z-10.238
X215.535 Z-10.169
X215.165 Z-10.039
X214.995 Z-9.946
X214.822 Z-9.878
X213.949 Z-9.64
X213.392 Z-9.528
X213.105 Z-9.369
X212.85 Z-9.241
X212.586 Z-9.142
X212.314 Z-9.056
X212.014 Z-8.986
X211.66 Z-8.932
X211.071 Z-8.896
X210.9 Z-8.796
X210.557 Z-8.637
X210.286 Z-8.555
X209.915 Z-8.472
X209.679 Z-8.449
X209.344 Z-8.454
X209.053 Z-8.488
X208.746 Z-8.566
X208.562 Z-8.618
X208.211 Z-8.641
X208.019 Z-8.676
X207.598 Z-8.803
X207.429 Z-8.877
X207.268 Z-8.965
X207.085 Z-8.913
X206.484 Z-8.756
X204.606 Z-8.356
X203.433 Z-8.08
X203.094 Z-7.915
X202.715 Z-7.78
X201.283 Z-7.372
X201.005 Z-7.308
X200.805 Z-7.205
X200.567 Z-7.121
X199.357 Z-6.803
X198.654 Z-6.673
X198.181 Z-6.607
X197.794 Z-6.598
X197.196 Z-6.606
X196.94 Z-6.629
X196.218 Z-6.727
X195.943 Z-6.766
X195.9 Z-6.77
X194.899 Z-6.747
X194.705 Z-6.682
X194.334 Z-6.602
X194.05 Z-6.57
X193.76
X193.503 Z-6.598
X193.341 Z-6.629
X193.063 Z-6.634
X192.802 Z-6.67
X192.449 Z-6.771
X192.146 Z-6.888
X191.99 Z-6.971
X191.801 Z-7.106
X191.612 Z-7.278
X191.464 Z-7.453
X191.231 Z-7.802
X191.135 Z-7.988
X191.065 Z-8.19
X190.994 Z-8.472
X190.972 Z-8.69
X190.968 Z-9.126
X190.918 Z-9.301
X190.863 Z-9.591
X190.851 Z-9.759
X190.653 Z-9.801
X190.428 Z-9.883
X190.044 Z-10.062
X189.693 Z-10.126
X189.526 Z-10.174
X189.232 Z-10.303
X189.054 Z-10.401
X188.861 Z-10.545
X188.842 Z-10.559
X188.557 Z-10.658
X188.38 Z-10.601
X188.012 Z-10.502
X187.827 Z-10.457
X187.451 Z-10.39
X187.263 Z-10.364
X186.806 Z-10.324
X186.342 Z-10.303
X186.002 Z-10.302
X184.978 Z-10.309
X184.744 Z-10.317
X184.664 Z-10.16
X184.579 Z-10.037
X184.37 Z-9.781
X184.268 Z-9.698
X184.074 Z-9.573
X183.786 Z-9.418
X183.611 Z-9.358
X183.211 Z-9.321
X183.09 Z-9.327
X182.951 Z-9.36
X182.75 Z-9.45
X182.597 Z-9.533
X182.45 Z-9.654
X182.327 Z-9.776
X182.265 Z-9.853
X182.19 Z-9.983
X182.074 Z-10.298
X182.035 Z-10.487
X182.018 Z-10.618
X181.758 Z-10.348
X181.561 Z-10.181
X181.094 Z-9.871
X180.853 Z-9.75
X180.452 Z-9.598
X180.042 Z-9.478
X179.716 Z-9.412
X179.243 Z-9.35
X179.026 Z-9.319
X178.835 Z-9.309
X178.465 Z-9.26
X178.177
X177.503 Z-9.278
X176.818 Z-9.329
X176.488 Z-9.373
X175.953 Z-9.485
X175.578 Z-9.593
X175.347 Z-9.664
X174.878 Z-9.854
X174.571 Z-10.02
X174.135 Z-10.302
X173.93 Z-10.475
X173.566 Z-10.844
X173.382 Z-11.066
X173.098 Z-11.483
X172.98 Z-11.707
X172.854 Z-12.
X172.067
X171.879 Z-11.761
X171.611 Z-11.473
X171.481 Z-11.359
X171.214 Z-11.187
X170.943 Z-11.029
X170.6 Z-10.867
X170.424 Z-10.805
X170.24 Z-10.748
X169.902 Z-10.623
X169.799 Z-10.596
X169.283 Z-10.377
X169.148 Z-10.33
X168.765 Z-10.186
X168.401 Z-10.075
X168.05 Z-9.98
X167.521 Z-9.822
X167.358 Z-9.795
X166.984 Z-9.704
X166.629 Z-9.624
X166.465 Z-9.575
X165.62 Z-9.428
X165.242 Z-9.374
X165.052 Z-9.358
X164.692 Z-9.31
X163.567 Z-9.234
X163.033 Z-9.212
X162.375 Z-9.228
X161.773 Z-9.268
X161.178 Z-9.357
X160.419 Z-9.508
X159.649 Z-9.687
X159.463 Z-9.747
X159.304 Z-9.821
X159.153 Z-9.914
X159.013 Z-10.026
X158.887 Z-10.157
X158.775 Z-10.304
X158.681 Z-10.468
X158.573 Z-10.736
X158.518 Z-10.919
X158.475 Z-11.154
X158.446 Z-11.482
X158.42 Z-11.98
X158.418 Z-12.
X34.92 Z-12.002
X34.361 Z-12.032
X33.799 Z-12.111
X33.234 Z-12.242
X32.846 Z-12.364
X32.664 Z-12.43
X32.329 Z-12.569
X32.152 Z-12.649
X31.746 Z-12.861
X31.519 Z-13.
X31.436 Z-13.024
X31.31 Y10.44
X31.436 Y10.566
X31.519 Z-13.
X31.746 Z-12.861
X32.152 Z-12.649
X32.329 Z-12.569
X32.664 Z-12.43
X32.846 Z-12.364
X33.234 Z-12.242
X33.799 Z-12.111
X34.361 Z-12.032
X34.912 Z-12.003
X158.41 Z-12.
X158.413 Z-11.827
X158.424 Z-11.213
X158.449 Z-10.986
X158.506 Z-10.708
X158.58 Z-10.496
X158.646 Z-10.364
X158.77 Z-10.171
X158.886 Z-10.03
X159.016 Z-9.904
X159.184 Z-9.778
X159.39 Z-9.666
X159.554 Z-9.604
X159.889 Z-9.522
X160.518 Z-9.402
X161.149 Z-9.271
X161.702 Z-9.193
X162.387 Z-9.143
X163.07 Z-9.128
X163.437 Z-9.141
X164.639 Z-9.224
X165.018 Z-9.265
X166.37 Z-9.461
X166.935 Z-9.603
X167.147 Z-9.64
X167.38 Z-9.695
X167.567 Z-9.728
X168.01 Z-9.849
X168.196 Z-9.892
X169.081 Z-10.128
X169.953 Z-10.411
X170.391 Z-10.592
X170.799 Z-10.789
X171.38 Z-11.153
X171.61 Z-11.31
X171.886 Z-11.536
X172.014 Z-11.661
X172.294 Z-11.997
X172.994 Z-12.
X173.096 Z-11.741
X173.198 Z-11.53
X173.476 Z-11.083
X173.606 Z-10.912
X173.961 Z-10.535
X174.127 Z-10.384
X174.704 Z-9.987
X174.934 Z-9.865
X175.38 Z-9.673
X175.922 Z-9.489
X176.297 Z-9.393
X176.975 Z-9.278
X177.617 Z-9.217
X178.299 Z-9.194
X178.587 Z-9.203
X179.155 Z-9.276
X179.661 Z-9.378
X180.002 Z-9.422
X180.496 Z-9.539
X180.984 Z-9.713
X181.241 Z-9.83
X181.73 Z-10.119
X181.815 Z-9.88
X181.9 Z-9.706
X182.082 Z-9.421
X182.19 Z-9.296
X182.259 Z-9.236
X182.476 Z-9.081
X182.636 Z-9.004
X182.885 Z-8.927
X183.067 Z-8.892
X183.164 Z-8.889
X183.449 Z-8.912
X183.634 Z-8.94
X183.992 Z-9.059
X184.241 Z-9.184
X184.517 Z-9.364
X184.79 Z-9.59
X184.918 Z-9.728
X185.118 Z-10.014
X185.225 Z-10.204
X185.585 Z-10.196
X186.17 Z-10.188
X186.837 Z-10.197
X187.218 Z-10.223
X187.545 Z-10.26
X188.047 Z-10.349
X188.596 Z-10.506
X188.799 Z-10.584
X188.937 Z-10.534
X189.135 Z-10.391
X189.366 Z-10.262
X189.527 Z-10.197
X189.776 Z-10.124
X190.086 Z-10.071
X190.362 Z-9.945
X190.588 Z-9.85
X190.756 Z-9.804
X190.761 Z-9.659
X190.79 Z-9.433
X190.839 Z-9.225
X190.905 Z-9.009
X190.907 Z-8.717
X190.918 Z-8.532
X190.941 Z-8.393
X190.999 Z-8.186
X191.092 Z-7.941
X191.183 Z-7.774
X191.345 Z-7.535
X191.5 Z-7.341
X191.724 Z-7.127
X191.917 Z-6.979
X192.128 Z-6.857
X192.328 Z-6.774
X192.618 Z-6.686
X192.872 Z-6.639
X193.126 Z-6.622
X193.464 Z-6.553
X193.723 Z-6.533
X194.008 Z-6.55
X194.383 Z-6.617
X194.657 Z-6.692
X195.814 Z-6.715
X195.97 Z-6.706
X196.413 Z-6.633
X197.01 Z-6.559
X197.486 Z-6.543
X197.971 Z-6.548
X198.351 Z-6.584
X198.633 Z-6.628
X199.009 Z-6.701
X199.382 Z-6.78
X199.754 Z-6.867
X200.475 Z-7.053
X200.654 Z-7.109
X200.99 Z-7.262
X201.101 Z-7.285
X202.673 Z-7.719
X203.118 Z-7.881
X203.414 Z-8.033
X204.52 Z-8.297
X205.786 Z-8.565
X206.515 Z-8.724
X207.145 Z-8.887
X207.501 Z-8.735
X207.715 Z-8.672
X207.941 Z-8.637
X208.21 Z-8.592
X208.425 Z-8.523
X208.846 Z-8.444
X209.166 Z-8.406
X209.394 Z-8.399
X209.741 Z-8.428
X210.021 Z-8.478
X210.293 Z-8.561
X210.639 Z-8.695
X210.971 Z-8.768
X211.103 Z-8.772
X211.556 Z-8.801
X211.861 Z-8.851
X212.231 Z-8.934
X212.68 Z-9.091
X213.063 Z-9.261
X213.28 Z-9.388
X213.472 Z-9.428
X213.948 Z-9.538
X214.663 Z-9.762
X214.781 Z-9.785
X215.034 Z-9.843
X215.684 Z-10.07
X215.894 Z-10.175
X216.217 Z-10.367
X216.478 Z-10.566
X216.87 Z-10.912
X217.236 Z-11.284
X217.339 Z-11.335
X217.688 Z-11.545
X217.978 Z-11.713
X218.402 Z-12.
X270.009
X270.079 Z-11.984
X270.149 Z-11.968
X270.275 Y10.692
X270.149 Y10.818
X270.079 Z-11.984
X270.009 Z-12.
X218.388 Z-11.995
X217.714 Z-11.531
X217.51 Z-11.413
X217.35 Z-11.271
X216.989 Z-10.87
X216.652 Z-10.549
X216.463 Z-10.385
X216.271 Z-10.262
X216.227 Z-10.237
X216.072 Z-10.136
X215.675 Z-9.941
X215.314 Z-9.828
X214.947 Z-9.723
X214.669 Z-9.659
X214.428 Z-9.623
X213.921 Z-9.455
X213.53 Z-9.355
X213.157 Z-9.265
X212.83 Z-9.088
X212.365 Z-8.892
X212.123 Z-8.82
X211.75 Z-8.739
X211.563 Z-8.707
X211.231 Z-8.667
X210.795 Z-8.639
X210.412 Z-8.563
X209.967 Z-8.483
X209.622 Z-8.404
X209.355 Z-8.374
X209.065 Z-8.367
X208.827 Z-8.385
X208.603 Z-8.397
X208.421 Z-8.427
X208.254 Z-8.476
X208.014 Z-8.579
X207.768 Z-8.6
X207.514 Z-8.659
X207.35 Z-8.696
X207.14 Z-8.769
X207.037 Z-8.817
X206.482 Z-8.677
X205.922 Z-8.553
X204.641 Z-8.285
X203.739 Z-8.071
X203.396 Z-8.001
X203.219 Z-7.894
X202.875 Z-7.741
X202.696 Z-7.686
X201.534 Z-7.37
X201.185 Z-7.273
X200.97 Z-7.23
X200.669 Z-7.091
X200.49 Z-7.032
X199.493 Z-6.777
X198.839 Z-6.635
X198.37 Z-6.545
X197.92 Z-6.5
X197.081 Z-6.503
X196.529 Z-6.561
X195.872 Z-6.663
X194.406 Z-6.642
X194.131 Z-6.569
X193.851 Z-6.519
X193.661 Z-6.506
X193.466 Z-6.512
X193.21 Z-6.549
X192.83 Z-6.64
X192.577 Z-6.673
X192.408 Z-6.712
X192.243 Z-6.769
X192.085 Z-6.844
X191.826 Z-7.011
X191.645 Z-7.156
X191.4 Z-7.393
X191.252 Z-7.582
X191.088 Z-7.831
X191.003 Z-8.002
X190.937 Z-8.186
X190.877 Z-8.436
X190.854 Z-8.658
X190.85 Z-8.893
X190.749 Z-9.197
X190.7 Z-9.435
X190.67 Z-9.733
X190.668 Z-9.891
X190.385 Z-9.988
X190.205 Z-10.062
X190.028 Z-10.101
X189.795 Z-10.151
X189.628 Z-10.203
X189.289 Z-10.35
X189.076 Z-10.482
X189.054 Z-10.495
X188.759 Z-10.376
X188.54 Z-10.304
X188.19 Z-10.213
X188.004 Z-10.172
X187.627 Z-10.113
X187.247 Z-10.077
X186.841 Z-10.051
X186.036 Z-10.049
X185.557 Z-10.08
X185.49 Z-9.923
X185.389 Z-9.77
X185.159 Z-9.497
X184.969 Z-9.299
X184.776 Z-9.127
X184.542 Z-8.979
X184.229 Z-8.8
X184.057 Z-8.732
X183.606 Z-8.586
X183.42 Z-8.559
X183.131 Z-8.551
X182.947 Z-8.565
X182.571 Z-8.662
X182.409 Z-8.73
X182.22 Z-8.85
X182.049 Z-8.99
X181.918 Z-9.138
X181.843 Z-9.242
X181.712 Z-9.451
X181.599 Z-9.672
X181.532 Z-9.871
X181.269 Z-9.742
X181.004 Z-9.646
X180.454 Z-9.484
X180.223 Z-9.436
X180.081 Z-9.413
X179.376 Z-9.235
X178.856 Z-9.167
X178.521 Z-9.15
X177.847 Z-9.169
X177.378 Z-9.217
X176.993 Z-9.221
X176.649 Z-9.254
X176.142 Z-9.351
X175.892 Z-9.42
X175.564 Z-9.527
X175.265 Z-9.657
X175.094 Z-9.756
X174.506 Z-10.156
X174.299 Z-10.331
X173.861 Z-10.776
X173.65 Z-11.039
X173.402 Z-11.41
X173.302 Z-11.613
X173.199 Z-11.871
X173.163 Z-11.983
X173.114 Z-12.
X172.489 Z-11.997
X172.454 Z-11.944
X172.343 Z-11.73
X172.253 Z-11.598
X172.135 Z-11.472
X172.091 Z-11.433
X171.936 Z-11.252
X171.808 Z-11.135
X171.66 Z-11.031
X171.173 Z-10.743
X170.917 Z-10.611
X170.587 Z-10.474
X170.317 Z-10.381
X169.973 Z-10.261
X169.627 Z-10.157
X169.349 Z-10.088
X169.109 Z-10.016
X168.675 Z-9.927
X168.185 Z-9.799
X167.55 Z-9.665
X166.986 Z-9.547
X166.323 Z-9.407
X165.377 Z-9.251
X164.231 Z-9.136
X163.157 Z-9.086
X162.326 Z-9.105
X161.728 Z-9.151
X161.195 Z-9.216
X159.87 Z-9.458
X159.535 Z-9.54
X159.372 Z-9.601
X159.215 Z-9.681
X159.067 Z-9.779
X158.929 Z-9.894
X158.805 Z-10.026
X158.694 Z-10.173
X158.582 Z-10.375
X158.524 Z-10.515
X158.466 Z-10.708
X158.427 Z-10.924
X158.413 Z-11.211
X158.412 Z-12.
X34.914 Z-12.002
X34.361 Z-12.032
X33.799 Z-12.111
X33.234 Z-12.242
X32.846 Z-12.364
X32.664 Z-12.43
X32.329 Z-12.569
X32.152 Z-12.649
X31.746 Z-12.861
X31.519 Z-13.
X31.436 Z-13.024
X31.31 Y10.944
X31.436 Y11.07
X31.519 Z-13.
X31.746 Z-12.861
X32.152 Z-12.649
X32.329 Z-12.569
X32.664 Z-12.43
X32.846 Z-12.364
X33.234 Z-12.242
X33.799 Z-12.111
X34.361 Z-12.032
X34.912 Z-12.003
X158.412 Z-12.
X158.413 Z-10.986
X158.435 Z-10.767
X158.485 Z-10.559
X158.555 Z-10.375
X158.643 Z-10.207
X158.748 Z-10.055
X158.868 Z-9.918
X159.001 Z-9.797
X159.145 Z-9.692
X159.299 Z-9.606
X159.46 Z-9.537
X159.626 Z-9.487
X160.19 Z-9.364
X160.863 Z-9.22
X161.538 Z-9.093
X162.24 Z-9.009
X162.753 Z-8.966
X163.325 Z-8.944
X164.349 Z-8.975
X165.013 Z-9.042
X165.805 Z-9.206
X166.337 Z-9.381
X166.614 Z-9.432
X167.136 Z-9.546
X167.682 Z-9.647
X167.962 Z-9.705
X169.094 Z-9.941
X169.447 Z-10.028
X169.623 Z-10.065
X169.875 Z-10.129
X170.125 Z-10.19
X170.538 Z-10.303
X170.931 Z-10.44
X171.387 Z-10.651
X171.888 Z-10.946
X172.152 Z-11.137
X172.363 Z-11.323
X172.614 Z-11.588
X172.76 Z-11.782
