(H1_01_T1_OUTER_PROFILE_CONTOUR)
(T1  Spiral O 3.175*25mm  Makera    D=3.175 CR=0. - ZMIN=-45. - flat end mill)
( =================================================== )
(   Z Origin Set To   : Stock Top )
(   Stock Height                    : 50. mm )
(   Toolpath Z Maximum from Stock Top: 15. mm )
(   Toolpath Z Min from Stock Top: -45. mm )
(  )
( =================================================== )

( The following values are based on the part position info used in fusion and can be used to roughly align the machine offset from anchor 1 if you use that feature. )
(   X Offset   : 15. mm )
(   Y Offset   : 60. mm )

( =================================================== )

G90 G94
G17
G21
(When using Fusion for Personal Use, the feedrate of rapid)
(moves is reduced to match the feedrate of cutting moves,)
(which can increase machining time. Unrestricted rapid moves)
(are available with a Fusion Subscription.)

(H1_T1_OUTER_PROFILE_CONTOUR)
M6 T1 
(5)
M400
M851 S100
S13000 M3
G54
G0 X34.682 Y25.54
Z15.
G1 Z5. F600.
Z0.635 F300.
Z-1.183
Y25.222 Z-1.5 F1000.
Y24.905
X35. Y24.587
X218.413 F600.
Y29.
G2 X220. Y30.587 I1.587 J0.
G1 X270.
G2 X271.587 Y29. I0. J-1.587
G1 Y1.
G2 X270. Y-0.587 I-1.587 J0.
G1 X220.
G2 X218.413 Y1. I0. J1.587
G1 Y5.412
X35.
G2 X33.412 Y7. I0. J1.588
G1 Y23.
G2 X35. Y24.587 I1.588 J0.
G1 X35.318 Y24.905 F1000.
Y25.222
Y25.54 Z-1.183
Z5. F600.
X34.682
Z-0.865 F300.
Z-2.683
Y25.222 Z-3. F1000.
Y24.905
X35. Y24.587
X218.413 F600.
Y29.
G2 X220. Y30.587 I1.587 J0.
G1 X270.
G2 X271.587 Y29. I0. J-1.587
G1 Y1.
G2 X270. Y-0.587 I-1.587 J0.
G1 X220.
G2 X218.413 Y1. I0. J1.587
G1 Y5.412
X35.
G2 X33.412 Y7. I0. J1.588
G1 Y23.
G2 X35. Y24.587 I1.588 J0.
G1 X35.318 Y24.905 F1000.
Y25.222
Y25.54 Z-2.683
Z5. F600.
X34.682
Z-2.365 F300.
Z-4.183
Y25.222 Z-4.5 F1000.
Y24.905
X35. Y24.587
X218.413 F600.
Y29.
G2 X220. Y30.587 I1.587 J0.
G1 X270.
G2 X271.587 Y29. I0. J-1.587
G1 Y1.
G2 X270. Y-0.587 I-1.587 J0.
G1 X220.
G2 X218.413 Y1. I0. J1.587
G1 Y5.412
X35.
G2 X33.412 Y7. I0. J1.588
G1 Y23.
G2 X35. Y24.587 I1.588 J0.
G1 X35.318 Y24.905 F1000.
Y25.222
Y25.54 Z-4.183
Z5. F600.
X34.682
Z-3.865 F300.
Z-5.683
Y25.222 Z-6. F1000.
Y24.905
X35. Y24.587
X218.413 F600.
Y29.
G2 X220. Y30.587 I1.587 J0.
G1 X270.
G2 X271.587 Y29. I0. J-1.587
G1 Y1.
G2 X270. Y-0.587 I-1.587 J0.
G1 X220.
G2 X218.413 Y1. I0. J1.587
G1 Y5.412
X35.
G2 X33.412 Y7. I0. J1.588
G1 Y23.
G2 X35. Y24.587 I1.588 J0.
G1 X35.318 Y24.905 F1000.
Y25.222
Y25.54 Z-5.683
Z5. F600.
X34.682
Z-5.365 F300.
Z-7.183
Y25.222 Z-7.5 F1000.
Y24.905
X35. Y24.587
X218.413 F600.
Y29.
G2 X220. Y30.587 I1.587 J0.
G1 X270.
G2 X271.587 Y29. I0. J-1.587
G1 Y1.
G2 X270. Y-0.587 I-1.587 J0.
G1 X220.
G2 X218.413 Y1. I0. J1.587
G1 Y5.412
X35.
G2 X33.412 Y7. I0. J1.588
G1 Y23.
G2 X35. Y24.587 I1.588 J0.
G1 X35.318 Y24.905 F1000.
Y25.222
Y25.54 Z-7.183
Z5. F600.
X34.682
Z-6.865 F300.
Z-8.683
Y25.222 Z-9. F1000.
Y24.905
X35. Y24.587
X218.413 F600.
Y29.
G2 X220. Y30.587 I1.587 J0.
G1 X270.
G2 X271.587 Y29. I0. J-1.587
G1 Y1.
G2 X270. Y-0.587 I-1.587 J0.
G1 X220.
G2 X218.413 Y1. I0. J1.587
G1 Y5.412
X35.
G2 X33.412 Y7. I0. J1.588
G1 Y23.
G2 X35. Y24.587 I1.588 J0.
G1 X35.318 Y24.905 F1000.
Y25.222
Y25.54 Z-8.683
Z5. F600.
X34.682
Z-8.365 F300.
Z-10.183
Y25.222 Z-10.5 F1000.
Y24.905
X35. Y24.587
X218.413 F600.
Y29.
G2 X220. Y30.587 I1.587 J0.
G1 X270.
G2 X271.587 Y29. I0. J-1.587
G1 Y1.
G2 X270. Y-0.587 I-1.587 J0.
G1 X220.
G2 X218.413 Y1. I0. J1.587
G1 Y5.412
X35.
G2 X33.412 Y7. I0. J1.588
G1 Y23.
G2 X35. Y24.587 I1.588 J0.
G1 X35.318 Y24.905 F1000.
Y25.222
Y25.54 Z-10.183
Z5. F600.
X34.682
Z-9.865 F300.
Z-11.683
Y25.222 Z-12. F1000.
Y24.905
X35. Y24.587
X218.413 F600.
Y29.
G2 X220. Y30.587 I1.587 J0.
G1 X270.
G2 X271.587 Y29. I0. J-1.587
G1 Y1.
G2 X270. Y-0.587 I-1.587 J0.
G1 X220.
G2 X218.413 Y1. I0. J1.587
G1 Y5.412
X35.
G2 X33.412 Y7. I0. J1.588
G1 Y23.
G2 X35. Y24.587 I1.588 J0.
G1 X35.318 Y24.905 F1000.
Y25.222
Y25.54 Z-11.683
Z5. F600.
X34.682
Z-11.365 F300.
Z-13.183
Y25.222 Z-13.5 F1000.
Y24.905
X35. Y24.587
X218.413 F600.
Y29.
G2 X220. Y30.587 I1.587 J0.
G1 X270.
G2 X271.587 Y29. I0. J-1.587
G1 Y1.
G2 X270. Y-0.587 I-1.587 J0.
G1 X220.
G2 X218.413 Y1. I0. J1.587
G1 Y5.412
X35.
G2 X33.412 Y7. I0. J1.588
G1 Y23.
G2 X35. Y24.587 I1.588 J0.
G1 X35.318 Y24.905 F1000.
Y25.222
Y25.54 Z-13.183
Z5. F600.
X34.682
Z-12.865 F300.
Z-14.683
Y25.222 Z-15. F1000.
Y24.905
X35. Y24.587
X218.413 F600.
Y29.
G2 X220. Y30.587 I1.587 J0.
G1 X270.
G2 X271.587 Y29. I0. J-1.587
G1 Y1.
G2 X270. Y-0.587 I-1.587 J0.
G1 X220.
G2 X218.413 Y1. I0. J1.587
G1 Y5.412
X35.
G2 X33.412 Y7. I0. J1.588
G1 Y23.
G2 X35. Y24.587 I1.588 J0.
G1 X35.318 Y24.905 F1000.
Y25.222
Y25.54 Z-14.683
Z5. F600.
X34.682
Z-14.365 F300.
Z-16.183
Y25.222 Z-16.5 F1000.
Y24.905
X35. Y24.587
X218.413 F600.
Y29.
G2 X220. Y30.587 I1.587 J0.
G1 X270.
G2 X271.587 Y29. I0. J-1.587
G1 Y1.
G2 X270. Y-0.587 I-1.587 J0.
G1 X220.
G2 X218.413 Y1. I0. J1.587
G1 Y5.412
X35.
G2 X33.412 Y7. I0. J1.588
G1 Y23.
G2 X35. Y24.587 I1.588 J0.
G1 X35.318 Y24.905 F1000.
Y25.222
Y25.54 Z-16.183
Z5. F600.
X34.682
Z-15.865 F300.
Z-17.683
Y25.222 Z-18. F1000.
Y24.905
X35. Y24.587
X218.413 F600.
Y29.
G2 X220. Y30.587 I1.587 J0.
G1 X270.
G2 X271.587 Y29. I0. J-1.587
G1 Y1.
G2 X270. Y-0.587 I-1.587 J0.
G1 X220.
G2 X218.413 Y1. I0. J1.587
G1 Y5.412
X35.
G2 X33.412 Y7. I0. J1.588
G1 Y23.
G2 X35. Y24.587 I1.588 J0.
G1 X35.318 Y24.905 F1000.
Y25.222
Y25.54 Z-17.683
Z5. F600.
X34.682
Z-17.365 F300.
Z-19.183
Y25.222 Z-19.5 F1000.
Y24.905
X35. Y24.587
X218.413 F600.
Y29.
G2 X220. Y30.587 I1.587 J0.
G1 X270.
G2 X271.587 Y29. I0. J-1.587
G1 Y1.
G2 X270. Y-0.587 I-1.587 J0.
G1 X220.
G2 X218.413 Y1. I0. J1.587
G1 Y5.412
X35.
G2 X33.412 Y7. I0. J1.588
G1 Y23.
G2 X35. Y24.587 I1.588 J0.
G1 X35.318 Y24.905 F1000.
Y25.222
Y25.54 Z-19.183
Z5. F600.
X34.682
Z-18.865 F300.
Z-20.683
Y25.222 Z-21. F1000.
Y24.905
X35. Y24.587
X218.413 F600.
Y29.
G2 X220. Y30.587 I1.587 J0.
G1 X270.
G2 X271.587 Y29. I0. J-1.587
G1 Y1.
G2 X270. Y-0.587 I-1.587 J0.
G1 X220.
G2 X218.413 Y1. I0. J1.587
G1 Y5.412
X35.
G2 X33.412 Y7. I0. J1.588
G1 Y23.
G2 X35. Y24.587 I1.588 J0.
G1 X35.318 Y24.905 F1000.
Y25.222
Y25.54 Z-20.683
Z5. F600.
X34.682
Z-20.365 F300.
Z-22.183
Y25.222 Z-22.5 F1000.
Y24.905
X35. Y24.587
X218.413 F600.
Y29.
G2 X220. Y30.587 I1.587 J0.
G1 X270.
G2 X271.587 Y29. I0. J-1.587
G1 Y1.
G2 X270. Y-0.587 I-1.587 J0.
G1 X220.
G2 X218.413 Y1. I0. J1.587
G1 Y5.412
X35.
G2 X33.412 Y7. I0. J1.588
G1 Y23.
G2 X35. Y24.587 I1.588 J0.
G1 X35.318 Y24.905 F1000.
Y25.222
Y25.54 Z-22.183
Z5. F600.
X34.682
Z-21.865 F300.
Z-23.683
Y25.222 Z-24. F1000.
Y24.905
X35. Y24.587
X218.413 F600.
Y29.
G2 X220. Y30.587 I1.587 J0.
G1 X270.
G2 X271.587 Y29. I0. J-1.587
G1 Y1.
G2 X270. Y-0.587 I-1.587 J0.
G1 X220.
G2 X218.413 Y1. I0. J1.587
G1 Y5.412
X35.
G2 X33.412 Y7. I0. J1.588
G1 Y23.
G2 X35. Y24.587 I1.588 J0.
G1 X35.318 Y24.905 F1000.
Y25.222
Y25.54 Z-23.683
Z5. F600.
X34.682
Z-23.365 F300.
Z-25.183
Y25.222 Z-25.5 F1000.
Y24.905
X35. Y24.587
X218.413 F600.
Y29.
G2 X220. Y30.587 I1.587 J0.
G1 X270.
G2 X271.587 Y29. I0. J-1.587
G1 Y1.
G2 X270. Y-0.587 I-1.587 J0.
G1 X220.
G2 X218.413 Y1. I0. J1.587
G1 Y5.412
X35.
G2 X33.412 Y7. I0. J1.588
G1 Y23.
G2 X35. Y24.587 I1.588 J0.
G1 X35.318 Y24.905 F1000.
Y25.222
Y25.54 Z-25.183
Z5. F600.
X34.682
Z-24.865 F300.
Z-26.683
Y25.222 Z-27. F1000.
Y24.905
X35. Y24.587
X218.413 F600.
Y29.
G2 X220. Y30.587 I1.587 J0.
G1 X270.
G2 X271.587 Y29. I0. J-1.587
G1 Y1.
G2 X270. Y-0.587 I-1.587 J0.
G1 X220.
G2 X218.413 Y1. I0. J1.587
G1 Y5.412
X35.
G2 X33.412 Y7. I0. J1.588
G1 Y23.
G2 X35. Y24.587 I1.588 J0.
G1 X35.318 Y24.905 F1000.
Y25.222
Y25.54 Z-26.683
Z5. F600.
X34.682
Z-26.365 F300.
Z-28.183
Y25.222 Z-28.5 F1000.
Y24.905
X35. Y24.587
X218.413 F600.
Y29.
G2 X220. Y30.587 I1.587 J0.
G1 X270.
G2 X271.587 Y29. I0. J-1.587
G1 Y1.
G2 X270. Y-0.587 I-1.587 J0.
G1 X220.
G2 X218.413 Y1. I0. J1.587
G1 Y5.412
X35.
G2 X33.412 Y7. I0. J1.588
G1 Y23.
G2 X35. Y24.587 I1.588 J0.
G1 X35.318 Y24.905 F1000.
Y25.222
Y25.54 Z-28.183
Z5. F600.
X34.682
Z-27.865 F300.
Z-29.683
Y25.222 Z-30. F1000.
Y24.905
X35. Y24.587
X218.413 F600.
Y29.
G2 X220. Y30.587 I1.587 J0.
G1 X270.
G2 X271.587 Y29. I0. J-1.587
G1 Y1.
G2 X270. Y-0.587 I-1.587 J0.
G1 X220.
G2 X218.413 Y1. I0. J1.587
G1 Y5.412
X35.
G2 X33.412 Y7. I0. J1.588
G1 Y23.
G2 X35. Y24.587 I1.588 J0.
G1 X35.318 Y24.905 F1000.
Y25.222
Y25.54 Z-29.683
Z5. F600.
X34.682
Z-29.365 F300.
Z-31.183
Y25.222 Z-31.5 F1000.
Y24.905
X35. Y24.587
X218.413 F600.
Y29.
G2 X220. Y30.587 I1.587 J0.
G1 X270.
G2 X271.587 Y29. I0. J-1.587
G1 Y1.
G2 X270. Y-0.587 I-1.587 J0.
G1 X220.
G2 X218.413 Y1. I0. J1.587
G1 Y5.412
X35.
G2 X33.412 Y7. I0. J1.588
G1 Y23.
G2 X35. Y24.587 I1.588 J0.
G1 X35.318 Y24.905 F1000.
Y25.222
Y25.54 Z-31.183
Z5. F600.
X34.682
Z-30.865 F300.
Z-32.683
Y25.222 Z-33. F1000.
Y24.905
X35. Y24.587
X218.413 F600.
Y29.
G2 X220. Y30.587 I1.587 J0.
G1 X270.
G2 X271.587 Y29. I0. J-1.587
G1 Y1.
G2 X270. Y-0.587 I-1.587 J0.
G1 X220.
G2 X218.413 Y1. I0. J1.587
G1 Y5.412
X35.
G2 X33.412 Y7. I0. J1.588
G1 Y23.
G2 X35. Y24.587 I1.588 J0.
G1 X35.318 Y24.905 F1000.
Y25.222
Y25.54 Z-32.683
Z5. F600.
X34.682
Z-32.365 F300.
Z-34.183
Y25.222 Z-34.5 F1000.
Y24.905
X35. Y24.587
X218.413 F600.
Y29.
G2 X220. Y30.587 I1.587 J0.
G1 X270.
G2 X271.587 Y29. I0. J-1.587
G1 Y1.
G2 X270. Y-0.587 I-1.587 J0.
G1 X220.
G2 X218.413 Y1. I0. J1.587
G1 Y5.412
X35.
G2 X33.412 Y7. I0. J1.588
G1 Y23.
G2 X35. Y24.587 I1.588 J0.
G1 X35.318 Y24.905 F1000.
Y25.222
Y25.54 Z-34.183
Z5. F600.
X34.682
Z-33.865 F300.
Z-35.683
Y25.222 Z-36. F1000.
Y24.905
X35. Y24.587
X218.413 F600.
Y29.
G2 X220. Y30.587 I1.587 J0.
G1 X270.
G2 X271.587 Y29. I0. J-1.587
G1 Y1.
G2 X270. Y-0.587 I-1.587 J0.
G1 X220.
G2 X218.413 Y1. I0. J1.587
G1 Y5.412
X35.
G2 X33.412 Y7. I0. J1.588
G1 Y23.
G2 X35. Y24.587 I1.588 J0.
G1 X35.318 Y24.905 F1000.
Y25.222
Y25.54 Z-35.683
Z5. F600.
X34.682
Z-35.365 F300.
Z-37.183
Y25.222 Z-37.5 F1000.
Y24.905
X35. Y24.587
X218.413 F600.
Y29.
G2 X220. Y30.587 I1.587 J0.
G1 X270.
G2 X271.587 Y29. I0. J-1.587
G1 Y1.
G2 X270. Y-0.587 I-1.587 J0.
G1 X220.
G2 X218.413 Y1. I0. J1.587
G1 Y5.412
X35.
G2 X33.412 Y7. I0. J1.588
G1 Y23.
G2 X35. Y24.587 I1.588 J0.
G1 X35.318 Y24.905 F1000.
Y25.222
Y25.54 Z-37.183
Z5. F600.
X34.682
Z-36.865 F300.
Z-38.683
Y25.222 Z-39. F1000.
Y24.905
X35. Y24.587
X218.413 F600.
Y29.
G2 X220. Y30.587 I1.587 J0.
G1 X270.
G2 X271.587 Y29. I0. J-1.587
G1 Y1.
G2 X270. Y-0.587 I-1.587 J0.
G1 X220.
G2 X218.413 Y1. I0. J1.587
G1 Y5.412
X35.
G2 X33.412 Y7. I0. J1.588
G1 Y23.
G2 X35. Y24.587 I1.588 J0.
G1 X35.318 Y24.905 F1000.
Y25.222
Y25.54 Z-38.683
Z5. F600.
X34.682
Z-38.365 F300.
Z-40.183
Y25.222 Z-40.5 F1000.
Y24.905
X35. Y24.587
X218.413 F600.
Y29.
G2 X220. Y30.587 I1.587 J0.
G1 X270.
G2 X271.587 Y29. I0. J-1.587
G1 Y1.
G2 X270. Y-0.587 I-1.587 J0.
G1 X220.
G2 X218.413 Y1. I0. J1.587
G1 Y5.412
X35.
G2 X33.412 Y7. I0. J1.588
G1 Y23.
G2 X35. Y24.587 I1.588 J0.
G1 X35.318 Y24.905 F1000.
Y25.222
Y25.54 Z-40.183
Z5. F600.
X34.682
Z-39.865 F300.
Z-41.683
Y25.222 Z-42. F1000.
Y24.905
X35. Y24.587
X218.413 F600.
Y29.
G2 X220. Y30.587 I1.587 J0.
G1 X270.
G2 X271.587 Y29. I0. J-1.587
G1 Y1.
G2 X270. Y-0.587 I-1.587 J0.
G1 X220.
G2 X218.413 Y1. I0. J1.587
G1 Y5.412
X35.
G2 X33.412 Y7. I0. J1.588
G1 Y23.
G2 X35. Y24.587 I1.588 J0.
G1 X35.318 Y24.905 F1000.
Y25.222
Y25.54 Z-41.683
Z5. F600.
X34.682
Z-41.365 F300.
Z-43.183
Y25.222 Z-43.5 F1000.
Y24.905
X35. Y24.587
X218.413 F600.
Y29.
G2 X220. Y30.587 I1.587 J0.
G1 X270.
G2 X271.587 Y29. I0. J-1.587
G1 Y1.
G2 X270. Y-0.587 I-1.587 J0.
G1 X220.
G2 X218.413 Y1. I0. J1.587
G1 Y5.412
X35.
G2 X33.412 Y7. I0. J1.588
G1 Y23.
G2 X35. Y24.587 I1.588 J0.
G1 X35.318 Y24.905 F1000.
Y25.222
Y25.54 Z-43.183
Z5. F600.
X34.682
Z-42.865 F300.
Z-44.683
Y25.222 Z-45. F1000.
Y24.905
X35. Y24.587
X218.413 F600.
Y29.
G2 X220. Y30.587 I1.587 J0.
G1 X270.
G2 X271.587 Y29. I0. J-1.587
G1 Y1.
G2 X270. Y-0.587 I-1.587 J0.
G1 X220.
G2 X218.413 Y1. I0. J1.587
G1 Y5.412
X35.
G2 X33.412 Y7. I0. J1.588
G1 Y23.
G2 X35. Y24.587 I1.588 J0.
G1 X35.318 Y24.905 F1000.
Y25.222
Y25.54 Z-44.683
Z5. F600.
X45.525 Y14.807
Z0.635 F300.
Z-1.183
X45.832 Y14.886 Z-1.5 F1000.
X46.14 Y14.965
X46.368 Y15.351
G3 X43.632 Y14.649 I-1.368 J-0.351 F600.
X46.368 Y15.351 I1.368 J0.351
G1 X45.982 Y15.58 F1000.
X45.674 Y15.501
X45.367 Y15.422 Z-1.183
Z5. F600.
X45.525 Y14.807
Z-0.865 F300.
Z-2.683
X45.832 Y14.886 Z-3. F1000.
X46.14 Y14.965
X46.368 Y15.351
G3 X43.632 Y14.649 I-1.368 J-0.351 F600.
X46.368 Y15.351 I1.368 J0.351
G1 X45.982 Y15.58 F1000.
X45.674 Y15.501
X45.367 Y15.422 Z-2.683
Z5. F600.
X45.525 Y14.807
Z-2.365 F300.
Z-4.183
X45.832 Y14.886 Z-4.5 F1000.
X46.14 Y14.965
X46.368 Y15.351
G3 X43.632 Y14.649 I-1.368 J-0.351 F600.
X46.368 Y15.351 I1.368 J0.351
G1 X45.982 Y15.58 F1000.
X45.674 Y15.501
X45.367 Y15.422 Z-4.183
Z5. F600.
X45.525 Y14.807
Z-3.865 F300.
Z-5.683
X45.832 Y14.886 Z-6. F1000.
X46.14 Y14.965
X46.368 Y15.351
G3 X43.632 Y14.649 I-1.368 J-0.351 F600.
X46.368 Y15.351 I1.368 J0.351
G1 X45.982 Y15.58 F1000.
X45.674 Y15.501
X45.367 Y15.422 Z-5.683
Z5. F600.
X45.525 Y14.807
Z-5.365 F300.
Z-7.183
X45.832 Y14.886 Z-7.5 F1000.
X46.14 Y14.965
X46.368 Y15.351
G3 X43.632 Y14.649 I-1.368 J-0.351 F600.
X46.368 Y15.351 I1.368 J0.351
G1 X45.982 Y15.58 F1000.
X45.674 Y15.501
X45.367 Y15.422 Z-7.183
Z5. F600.
X45.525 Y14.807
Z-6.865 F300.
Z-8.683
X45.832 Y14.886 Z-9. F1000.
X46.14 Y14.965
X46.368 Y15.351
G3 X43.632 Y14.649 I-1.368 J-0.351 F600.
X46.368 Y15.351 I1.368 J0.351
G1 X45.982 Y15.58 F1000.
X45.674 Y15.501
X45.367 Y15.422 Z-8.683
Z5. F600.
X45.525 Y14.807
Z-8.365 F300.
Z-10.183
X45.832 Y14.886 Z-10.5 F1000.
X46.14 Y14.965
X46.368 Y15.351
G3 X43.632 Y14.649 I-1.368 J-0.351 F600.
X46.368 Y15.351 I1.368 J0.351
G1 X45.982 Y15.58 F1000.
X45.674 Y15.501
X45.367 Y15.422 Z-10.183
Z5. F600.
X45.525 Y14.807
Z-9.865 F300.
Z-11.683
X45.832 Y14.886 Z-12. F1000.
X46.14 Y14.965
X46.368 Y15.351
G3 X43.632 Y14.649 I-1.368 J-0.351 F600.
X46.368 Y15.351 I1.368 J0.351
G1 X45.982 Y15.58 F1000.
X45.674 Y15.501
X45.367 Y15.422 Z-11.683
Z5. F600.
X45.525 Y14.807
Z-11.365 F300.
Z-13.183
X45.832 Y14.886 Z-13.5 F1000.
X46.14 Y14.965
X46.368 Y15.351
G3 X43.632 Y14.649 I-1.368 J-0.351 F600.
X46.368 Y15.351 I1.368 J0.351
G1 X45.982 Y15.58 F1000.
X45.674 Y15.501
X45.367 Y15.422 Z-13.183
Z5. F600.
X45.525 Y14.807
Z-12.865 F300.
Z-14.683
X45.832 Y14.886 Z-15. F1000.
X46.14 Y14.965
X46.368 Y15.351
G3 X43.632 Y14.649 I-1.368 J-0.351 F600.
X46.368 Y15.351 I1.368 J0.351
G1 X45.982 Y15.58 F1000.
X45.674 Y15.501
X45.367 Y15.422 Z-14.683
Z5. F600.
X45.525 Y14.807
Z-14.365 F300.
Z-16.183
X45.832 Y14.886 Z-16.5 F1000.
X46.14 Y14.965
X46.368 Y15.351
G3 X43.632 Y14.649 I-1.368 J-0.351 F600.
X46.368 Y15.351 I1.368 J0.351
G1 X45.982 Y15.58 F1000.
X45.674 Y15.501
X45.367 Y15.422 Z-16.183
Z5. F600.
X45.525 Y14.807
Z-15.865 F300.
Z-17.683
X45.832 Y14.886 Z-18. F1000.
X46.14 Y14.965
X46.368 Y15.351
G3 X43.632 Y14.649 I-1.368 J-0.351 F600.
X46.368 Y15.351 I1.368 J0.351
G1 X45.982 Y15.58 F1000.
X45.674 Y15.501
X45.367 Y15.422 Z-17.683
Z5. F600.
X45.525 Y14.807
Z-17.365 F300.
Z-19.183
X45.832 Y14.886 Z-19.5 F1000.
X46.14 Y14.965
X46.368 Y15.351
G3 X43.632 Y14.649 I-1.368 J-0.351 F600.
X46.368 Y15.351 I1.368 J0.351
G1 X45.982 Y15.58 F1000.
X45.674 Y15.501
X45.367 Y15.422 Z-19.183
Z5. F600.
X45.525 Y14.807
Z-18.865 F300.
Z-20.683
X45.832 Y14.886 Z-21. F1000.
X46.14 Y14.965
X46.368 Y15.351
G3 X43.632 Y14.649 I-1.368 J-0.351 F600.
X46.368 Y15.351 I1.368 J0.351
G1 X45.982 Y15.58 F1000.
X45.674 Y15.501
X45.367 Y15.422 Z-20.683
Z5. F600.
X45.525 Y14.807
Z-20.365 F300.
Z-22.183
X45.832 Y14.886 Z-22.5 F1000.
X46.14 Y14.965
X46.368 Y15.351
G3 X43.632 Y14.649 I-1.368 J-0.351 F600.
X46.368 Y15.351 I1.368 J0.351
G1 X45.982 Y15.58 F1000.
X45.674 Y15.501
X45.367 Y15.422 Z-22.183
Z5. F600.
X45.525 Y14.807
Z-21.865 F300.
Z-23.683
X45.832 Y14.886 Z-24. F1000.
X46.14 Y14.965
X46.368 Y15.351
G3 X43.632 Y14.649 I-1.368 J-0.351 F600.
X46.368 Y15.351 I1.368 J0.351
G1 X45.982 Y15.58 F1000.
X45.674 Y15.501
X45.367 Y15.422 Z-23.683
Z5. F600.
X45.525 Y14.807
Z-23.365 F300.
Z-25.183
X45.832 Y14.886 Z-25.5 F1000.
X46.14 Y14.965
X46.368 Y15.351
G3 X43.632 Y14.649 I-1.368 J-0.351 F600.
X46.368 Y15.351 I1.368 J0.351
G1 X45.982 Y15.58 F1000.
X45.674 Y15.501
X45.367 Y15.422 Z-25.183
Z5. F600.
X45.525 Y14.807
Z-24.865 F300.
Z-26.683
X45.832 Y14.886 Z-27. F1000.
X46.14 Y14.965
X46.368 Y15.351
G3 X43.632 Y14.649 I-1.368 J-0.351 F600.
X46.368 Y15.351 I1.368 J0.351
G1 X45.982 Y15.58 F1000.
X45.674 Y15.501
X45.367 Y15.422 Z-26.683
Z5. F600.
X45.525 Y14.807
Z-26.365 F300.
Z-28.183
X45.832 Y14.886 Z-28.5 F1000.
X46.14 Y14.965
X46.368 Y15.351
G3 X43.632 Y14.649 I-1.368 J-0.351 F600.
X46.368 Y15.351 I1.368 J0.351
G1 X45.982 Y15.58 F1000.
X45.674 Y15.501
X45.367 Y15.422 Z-28.183
Z5. F600.
X45.525 Y14.807
Z-27.865 F300.
Z-29.683
X45.832 Y14.886 Z-30. F1000.
X46.14 Y14.965
X46.368 Y15.351
G3 X43.632 Y14.649 I-1.368 J-0.351 F600.
X46.368 Y15.351 I1.368 J0.351
G1 X45.982 Y15.58 F1000.
X45.674 Y15.501
X45.367 Y15.422 Z-29.683
Z5. F600.
X45.525 Y14.807
Z-29.365 F300.
Z-31.183
X45.832 Y14.886 Z-31.5 F1000.
X46.14 Y14.965
X46.368 Y15.351
G3 X43.632 Y14.649 I-1.368 J-0.351 F600.
X46.368 Y15.351 I1.368 J0.351
G1 X45.982 Y15.58 F1000.
X45.674 Y15.501
X45.367 Y15.422 Z-31.183
Z5. F600.
X45.525 Y14.807
Z-30.865 F300.
Z-32.683
X45.832 Y14.886 Z-33. F1000.
X46.14 Y14.965
X46.368 Y15.351
G3 X43.632 Y14.649 I-1.368 J-0.351 F600.
X46.368 Y15.351 I1.368 J0.351
G1 X45.982 Y15.58 F1000.
X45.674 Y15.501
X45.367 Y15.422 Z-32.683
Z5. F600.
X45.525 Y14.807
Z-32.365 F300.
Z-34.183
X45.832 Y14.886 Z-34.5 F1000.
X46.14 Y14.965
X46.368 Y15.351
G3 X43.632 Y14.649 I-1.368 J-0.351 F600.
X46.368 Y15.351 I1.368 J0.351
G1 X45.982 Y15.58 F1000.
X45.674 Y15.501
X45.367 Y15.422 Z-34.183
Z5. F600.
X45.525 Y14.807
Z-33.865 F300.
Z-35.683
X45.832 Y14.886 Z-36. F1000.
X46.14 Y14.965
X46.368 Y15.351
G3 X43.632 Y14.649 I-1.368 J-0.351 F600.
X46.368 Y15.351 I1.368 J0.351
G1 X45.982 Y15.58 F1000.
X45.674 Y15.501
X45.367 Y15.422 Z-35.683
Z5. F600.
X45.525 Y14.807
Z-35.365 F300.
Z-37.183
X45.832 Y14.886 Z-37.5 F1000.
X46.14 Y14.965
X46.368 Y15.351
G3 X43.632 Y14.649 I-1.368 J-0.351 F600.
X46.368 Y15.351 I1.368 J0.351
G1 X45.982 Y15.58 F1000.
X45.674 Y15.501
X45.367 Y15.422 Z-37.183
Z5. F600.
X45.525 Y14.807
Z-36.865 F300.
Z-38.683
X45.832 Y14.886 Z-39. F1000.
X46.14 Y14.965
X46.368 Y15.351
G3 X43.632 Y14.649 I-1.368 J-0.351 F600.
X46.368 Y15.351 I1.368 J0.351
G1 X45.982 Y15.58 F1000.
X45.674 Y15.501
X45.367 Y15.422 Z-38.683
Z5. F600.
X45.525 Y14.807
Z-38.365 F300.
Z-40.183
X45.832 Y14.886 Z-40.5 F1000.
X46.14 Y14.965
X46.368 Y15.351
G3 X43.632 Y14.649 I-1.368 J-0.351 F600.
X46.368 Y15.351 I1.368 J0.351
G1 X45.982 Y15.58 F1000.
X45.674 Y15.501
X45.367 Y15.422 Z-40.183
Z5. F600.
X45.525 Y14.807
Z-39.865 F300.
Z-41.683
X45.832 Y14.886 Z-42. F1000.
X46.14 Y14.965
X46.368 Y15.351
G3 X43.632 Y14.649 I-1.368 J-0.351 F600.
X46.368 Y15.351 I1.368 J0.351
G1 X45.982 Y15.58 F1000.
X45.674 Y15.501
X45.367 Y15.422 Z-41.683
Z5. F600.
X45.525 Y14.807
Z-41.365 F300.
Z-43.183
X45.832 Y14.886 Z-43.5 F1000.
X46.14 Y14.965
X46.368 Y15.351
G3 X43.632 Y14.649 I-1.368 J-0.351 F600.
X46.368 Y15.351 I1.368 J0.351
G1 X45.982 Y15.58 F1000.
X45.674 Y15.501
X45.367 Y15.422 Z-43.183
Z5. F600.
X45.525 Y14.807
Z-42.865 F300.
Z-44.683
X45.832 Y14.886 Z-45. F1000.
X46.14 Y14.965
X46.368 Y15.351
G3 X43.632 Y14.649 I-1.368 J-0.351 F600.
X46.368 Y15.351 I1.368 J0.351
G1 X45.982 Y15.58 F1000.
X45.674 Y15.501
X45.367 Y15.422 Z-44.683
Z15. F600.
M5
M400
M852
G28
M30
