(H1_06_T2_15_ODIN_FINE)
(T10  2 Flute Ball Nose 1.5*8mm      D=1.5 CR=0.75 - ZMIN=-13.15 - ball end mill)
( =================================================== )
(   Z Origin Set To   : Stock Top )
(   Stock Height                    : 50. mm )
(   Toolpath Z Maximum from Stock Top: 15. mm )
(   Toolpath Z Min from Stock Top: -13.15 mm )
(  )
( =================================================== )

( The following values are based on the part position info used in fusion and can be used to roughly align the machine offset from anchor 1 if you use that feature. )
(   X Offset   : 15. mm )
(   Y Offset   : 60. mm )

( =================================================== )

G90 G94
G17
G21
(When using Fusion for Personal Use, the feedrate of rapid)
(moves is reduced to match the feedrate of cutting moves,)
(which can increase machining time. Unrestricted rapid moves)
(are available with a Fusion Subscription.)

(H1_T2_15_ODIN_FINE)
M6 T10 
(6)
M400
M851 S100
S20000 M3
G54
G0 X270.148 Y0.991
Z15.
G1 Z-10.004 F1000.
Z-11.85 F200.
X269.998 Z-12. F1000.
X219.938 Z-12.003
X219.813 Z-12.024
X219.699 Z-12.063
X219.592 Z-12.121
X219.493 Z-12.197
X219.407 Z-12.291
X219.335 Z-12.403
X219.288 Z-12.513
X219.26 Z-12.629
X219.25 Z-12.748
Z-13.
Y1.077
Y1.164
Z-12.748
X219.258 Z-12.638
X219.286 Z-12.52
X219.333 Z-12.408
X219.403 Z-12.296
X219.489 Z-12.201
X219.587 Z-12.124
X219.694 Z-12.065
X219.808 Z-12.025
X219.936 Z-12.003
X270.009 Z-12.
X270.042 Z-11.993
X270.075 Z-11.985
Y1.337
X270.042 Z-11.993
X270.009 Z-12.
X219.936 Z-12.003
X219.808 Z-12.025
X219.694 Z-12.065
X219.587 Z-12.124
X219.489 Z-12.201
X219.403 Z-12.296
X219.333 Z-12.408
X219.286 Z-12.52
X219.258 Z-12.638
X219.25 Z-12.748
Z-13.
Y1.51
Z-12.748
X219.258 Z-12.638
X219.286 Z-12.52
X219.333 Z-12.408
X219.403 Z-12.296
X219.489 Z-12.201
X219.587 Z-12.124
X219.694 Z-12.065
X219.808 Z-12.025
X219.936 Z-12.003
X270.009 Z-12.
X270.042 Z-11.993
X270.075 Z-11.985
Y1.683
X270.042 Z-11.993
X270.009 Z-12.
X219.936 Z-12.003
X219.808 Z-12.025
X219.694 Z-12.065
X219.587 Z-12.124
X219.489 Z-12.201
X219.403 Z-12.296
X219.333 Z-12.408
X219.286 Z-12.52
X219.258 Z-12.638
X219.25 Z-12.748
Z-13.
Y1.856
Z-12.748
X219.258 Z-12.638
X219.286 Z-12.52
X219.333 Z-12.408
X219.403 Z-12.296
X219.489 Z-12.201
X219.587 Z-12.124
X219.694 Z-12.065
X219.808 Z-12.025
X219.936 Z-12.003
X270.009 Z-12.
X270.042 Z-11.993
X270.075 Z-11.985
Y2.029
X270.042 Z-11.993
X270.009 Z-12.
X219.936 Z-12.003
X219.808 Z-12.025
X219.694 Z-12.065
X219.587 Z-12.124
X219.489 Z-12.201
X219.403 Z-12.296
X219.333 Z-12.408
X219.286 Z-12.52
X219.258 Z-12.638
X219.25 Z-12.748
Z-13.
Y2.202
Z-12.748
X219.258 Z-12.638
X219.286 Z-12.52
X219.333 Z-12.408
X219.403 Z-12.296
X219.489 Z-12.201
X219.587 Z-12.124
X219.694 Z-12.065
X219.808 Z-12.025
X219.936 Z-12.003
X270.009 Z-12.
X270.042 Z-11.993
X270.075 Z-11.985
Y2.375
X270.042 Z-11.993
X270.009 Z-12.
X219.936 Z-12.003
X219.808 Z-12.025
X219.694 Z-12.065
X219.587 Z-12.124
X219.489 Z-12.201
X219.403 Z-12.296
X219.333 Z-12.408
X219.286 Z-12.52
X219.258 Z-12.638
X219.25 Z-12.748
Z-13.
Y2.548
Z-12.748
X219.258 Z-12.638
X219.286 Z-12.52
X219.333 Z-12.408
X219.403 Z-12.296
X219.489 Z-12.201
X219.587 Z-12.124
X219.694 Z-12.065
X219.808 Z-12.025
X219.936 Z-12.003
X270.009 Z-12.
X270.042 Z-11.993
X270.075 Z-11.985
Y2.721
X270.042 Z-11.993
X270.009 Z-12.
X219.936 Z-12.003
X219.808 Z-12.025
X219.694 Z-12.065
X219.587 Z-12.124
X219.489 Z-12.201
X219.403 Z-12.296
X219.333 Z-12.408
X219.286 Z-12.52
X219.258 Z-12.638
X219.25 Z-12.748
Z-13.
Y2.894
Z-12.748
X219.258 Z-12.638
X219.286 Z-12.52
X219.333 Z-12.408
X219.403 Z-12.296
X219.489 Z-12.201
X219.587 Z-12.124
X219.694 Z-12.065
X219.808 Z-12.025
X219.936 Z-12.003
X270.009 Z-12.
X270.042 Z-11.993
X270.075 Z-11.985
Y3.067
X270.042 Z-11.993
X270.009 Z-12.
X219.936 Z-12.003
X219.808 Z-12.025
X219.694 Z-12.065
X219.587 Z-12.124
X219.489 Z-12.201
X219.403 Z-12.296
X219.333 Z-12.408
X219.286 Z-12.52
X219.258 Z-12.638
X219.25 Z-12.748
Z-13.
Y3.24
Z-12.748
X219.258 Z-12.638
X219.286 Z-12.52
X219.333 Z-12.408
X219.403 Z-12.296
X219.489 Z-12.201
X219.587 Z-12.124
X219.694 Z-12.065
X219.808 Z-12.025
X219.936 Z-12.003
X270.009 Z-12.
X270.042 Z-11.993
X270.075 Z-11.985
Y3.413
X270.042 Z-11.993
X270.009 Z-12.
X219.936 Z-12.003
X219.808 Z-12.025
X219.694 Z-12.065
X219.587 Z-12.124
X219.489 Z-12.201
X219.403 Z-12.296
X219.333 Z-12.408
X219.286 Z-12.52
X219.258 Z-12.638
X219.25 Z-12.748
Z-13.
X219.201
Z5.
X203.929 Y3.24
Z-9.511
Z-12.997 F200.
X203.787 Z-13.14 F1000.
X203.642 Z-13.
X203.637 Z-12.73
X203.595 Z-12.69
X203.451 Z-12.632
X203.281 Z-12.593
X202.809 Z-12.542
X202.269 Z-12.515
X201.487 Z-12.521
X200.934 Z-12.563
X200.53 Z-12.614
X200.316 Z-12.663
X200.205 Z-12.708
X200.176 Z-12.742
X200.175 Z-13.
X200.034 Z-13.14
X199.894 Z-12.999
Z5.
X195.299 Y2.548
Z-7.901
Z-12.998 F200.
X195.15 Z-13.148 F1000.
X194.999 Z-13.
X194.995 Z-12.685
X194.984 Z-12.615
X194.954 Z-12.539
X194.895 Z-12.483
X194.865 Z-12.468
X194.805 Z-12.45
X194.678 Z-12.438
X194.613 Z-12.45
X194.506 Z-12.52
X194.361 Z-12.636
X194.313 Z-12.719
X194.309 Z-13.
X194.205 Y2.574
X194.107 Y2.614
X194.015 Y2.666
X193.924 Y2.721
X193.926 Z-12.712
X193.953 Z-12.602
X193.984 Z-12.531
X194.078 Z-12.37
X194.174 Z-12.237
X194.379 Z-12.055
X194.459 Z-11.998
X194.838 Z-11.846
X194.96 Z-11.824
X195.024 Z-11.83
X195.082 Z-11.848
X195.182 Z-11.902
X195.25 Z-11.978
X195.331 Z-12.126
X195.386 Z-12.239
X195.407 Z-12.347
X195.41 Z-13.
X195.529 Y2.807
X195.649 Y2.894
X195.646 Z-12.13
X195.57 Z-11.764
X195.553 Z-11.714
X195.496 Z-11.616
X195.44 Z-11.541
X195.397 Z-11.498
X195.299 Z-11.435
X195.186 Z-11.369
X195.128 Z-11.347
X195.064 Z-11.341
X194.945 Z-11.368
X194.777 Z-11.438
X194.462 Z-11.603
X194.203 Z-11.749
X194.131 Z-11.822
X194.026 Z-11.987
X193.916 Z-12.172
X193.802 Z-12.365
X193.722 Z-12.58
X193.697 Z-12.704
X193.695 Z-13.
X193.63 Y2.976
X193.576 Y3.067
Z-12.75
X193.583 Z-12.651
X193.665 Z-12.341
X193.768 Z-12.055
X193.932 Z-11.762
X194.045 Z-11.613
X194.174 Z-11.492
X194.56 Z-11.21
X194.794 Z-11.01
X194.895 Z-10.948
X194.981 Z-10.921
X195.203 Z-10.895
X195.33 Z-10.918
X195.444 Z-10.962
X195.636 Z-11.084
X195.706 Z-11.14
X195.793 Z-11.239
X195.89 Z-11.365
X195.922 Z-11.45
X195.968 Z-11.728
X195.97 Z-13.
X196.063 Y3.097
X196.159 Y3.109
X196.257 Y3.114
X196.353 Y3.13
X196.447 Y3.155
X196.54 Y3.179
X196.634 Y3.205
X196.725 Y3.24
X196.721 Z-11.051
X196.701 Z-10.841
X196.667 Z-10.75
X196.591 Z-10.626
X196.551 Z-10.585
X196.51 Z-10.558
X196.453 Z-10.535
X196.346 Z-10.522
X196.264 Z-10.53
X196.177 Z-10.563
X195.948 Z-10.729
X195.922 Z-10.73
X195.814 Z-10.67
X195.653 Z-10.632
X195.28 Z-10.555
X195.165 Z-10.558
X194.876 Z-10.628
X194.767 Z-10.688
X194.438 Z-10.993
X194.236 Z-11.154
X194.059 Z-11.343
X193.958 Z-11.486
X193.892 Z-11.591
X193.757 Z-11.788
X193.699 Z-11.912
X193.617 Z-12.152
X193.275 Z-12.317
X193.065 Z-12.429
X192.914 Z-12.524
X192.861 Z-12.58
X192.824 Z-12.635
X192.796 Z-12.713
X192.793 Z-13.
X192.663 Y3.28
X192.534 Y3.32
X192.406 Y3.365
X192.279 Y3.413
Z-12.75
X192.297 Z-12.652
X192.339 Z-12.573
X192.383 Z-12.518
X192.474 Z-12.434
X193.003 Z-12.052
X193.249 Z-11.912
X193.712 Z-11.692
X193.774 Z-11.594
X193.843 Z-11.448
X193.944 Z-11.239
X194.112 Z-11.027
X194.177 Z-10.936
X194.384 Z-10.669
X194.46 Z-10.598
X194.675 Z-10.463
X194.895 Z-10.351
X195.009 Z-10.308
X195.071 Z-10.299
X195.469 Z-10.304
X195.514 Z-10.295
X195.648 Z-10.278
X195.915 Z-10.296
X195.995 Z-10.214
X196.104 Z-10.117
X196.188 Z-10.076
X196.263 Z-10.059
X196.445 Z-10.048
X196.59 Z-10.071
X196.684 Z-10.106
X196.778 Z-10.179
X196.853 Z-10.264
X196.995 Z-10.5
X197.041 Z-10.61
X197.057 Z-10.827
X197.06 Z-12.272
X197.253 Z-12.31
X197.535 Z-12.343
X198.094 Z-12.388
X198.213 Z-12.413
X198.385 Z-12.464
X198.58 Z-12.382
X198.945 Z-12.306
X199.816 Z-12.261
X201.114 Z-12.205
X202.152 Z-12.206
X202.89 Z-12.228
X203.479 Z-12.258
X203.991 Z-12.297
X204.45 Z-12.356
X204.805 Z-12.426
X205.033 Z-12.495
X205.215 Z-12.58
X205.304 Z-12.651
X205.338 Z-12.7
X205.346 Z-12.725
X205.349 Z-13.
X205.399
Z5.
X174.749 Y3.067
Z-10.042
Z-12.998 F200.
X174.6 Z-13.148 F1000.
X174.449 Z-13.
X174.446 Z-12.712
X174.433 Z-12.665
X174.379 Z-12.572
X174.315 Z-12.516
X174.26 Z-12.489
X174.188 Z-12.472
X174.074 Z-12.432
X174.017 Z-12.425
X173.959 Z-12.428
X173.894 Z-12.444
X173.829 Z-12.475
X173.779 Z-12.514
X173.73 Z-12.575
X173.698 Z-12.64
X173.679 Z-12.734
Z-13.
X173.586 Y3.12
X173.497 Y3.19
X173.39 Y3.177
X173.282 Y3.16
X173.177 Y3.159
X173.076 Y3.173
X172.978 Y3.199
X172.882 Y3.24
Z-12.742
X172.891 Z-12.673
X172.932 Z-12.572
X172.981 Z-12.51
X173.029 Z-12.469
X173.087 Z-12.437
X173.144 Z-12.418
X173.209 Z-12.409
X173.274 Z-12.413
X173.36 Z-12.438
X173.494 Z-12.52
X173.56 Z-12.414
X173.651 Z-12.319
X173.757 Z-12.251
X173.872 Z-12.209
X174.006 Z-12.193
X174.2 Z-12.214
X174.326 Z-12.238
X174.548 Z-12.322
X174.729 Z-12.43
X174.867 Z-12.519
X174.929 Z-12.596
X174.966 Z-12.696
X174.97 Z-13.
X175.08 Y3.287
X175.194 Y3.322
X175.307 Y3.358
X175.414 Y3.413
X175.409 Z-12.692
X175.384 Z-12.601
X175.332 Z-12.51
X175.28 Z-12.455
X175.181 Z-12.392
X175.012 Z-12.308
X174.81 Z-12.215
X174.591 Z-12.152
X174.239 Z-12.079
X174.005 Z-12.075
X173.88 Z-12.088
X173.736 Z-12.132
X173.566 Z-12.225
X173.535 Z-12.246
X173.297 Z-12.191
X173.182 Z-12.188
X173.057 Z-12.211
X172.945 Z-12.259
X172.776 Z-12.363
X172.692 Z-12.442
X172.655 Z-12.494
X172.617 Z-12.568
X172.595 Z-12.637
X172.581 Z-12.75
Z-13.
X172.532
Z5.
X270.159 Y3.586
Z-10.005
Z-11.85 F200.
X270.009 Z-12. F1000.
X219.936 Z-12.003
X219.808 Z-12.025
X219.694 Z-12.065
X219.587 Z-12.124
X219.489 Z-12.201
X219.403 Z-12.296
X219.333 Z-12.408
X219.286 Z-12.52
X219.258 Z-12.638
X219.25 Z-12.748
Z-12.931
X206.242
X206.241 Z-12.734
X206.216 Z-12.653
X206.182 Z-12.608
X206.108 Z-12.542
X206.002 Z-12.477
X205.794 Z-12.389
X205.461 Z-12.297
X205.14 Z-12.237
X204.751 Z-12.174
X204.342 Z-12.114
X203.722 Z-12.051
X203.231 Z-12.01
X202.046 Z-11.958
X200.741 Z-11.944
X200.015 Z-11.96
X199.412 Z-11.952
X198.988 Z-11.974
X198.784 Z-12.022
X198.615 Z-12.08
X198.533 Z-12.036
X198.321 Z-11.963
X198.129 Z-11.937
X197.737 Z-11.89
X197.323 Z-11.816
X197.318 Z-10.57
X197.282 Z-10.327
X197.266 Z-10.263
X197.233 Z-10.19
X197.174 Z-10.115
X196.942 Z-9.882
X196.756 Z-9.725
X196.655 Z-9.669
X196.598 Z-9.654
X196.501 Z-9.652
X196.236 Z-9.705
X196.125 Z-9.755
X196.021 Z-9.82
X195.95 Z-9.887
X195.906 Z-9.942
X195.661 Z-9.938
X195.539 Z-9.968
X195.367 Z-10.038
X195.093 Z-10.074
X194.963 Z-10.103
X194.619 Z-10.225
X194.503 Z-10.298
X194.255 Z-10.498
X194.174 Z-10.603
X194.079 Z-10.772
X193.981 Z-10.962
X193.872 Z-11.147
X193.802 Z-11.3
X193.455 Z-11.456
X193.094 Z-11.637
X192.751 Z-11.872
X192.442 Z-12.098
X192.213 Z-12.305
X192.034 Z-12.484
X191.997 Z-12.535
X191.959 Z-12.605
X191.93 Z-12.714
X191.928 Z-12.931
X175.738
X175.736 Z-12.71
X175.71 Z-12.625
X175.651 Z-12.54
X175.358 Z-12.248
X175.281 Z-12.199
X175.142 Z-12.148
X174.916 Z-12.08
X174.544 Z-12.007
X174.282 Z-11.984
X174.081 Z-11.99
X173.79 Z-12.046
X173.706 Z-12.066
X173.356 Z-12.053
X173.168 Z-12.07
X172.937 Z-12.126
X172.824 Z-12.163
X172.702 Z-12.23
X172.572 Z-12.338
X172.458 Z-12.466
X172.414 Z-12.539
X172.373 Z-12.652
X172.362 Z-12.75
Z-12.931
X34.914 Z-12.935
X34.451 Z-12.963
X34.204 Z-13.
X34.118 Z-12.926
X33.907 Y3.663 Z-12.701
X33.857 Y3.681
X33.646 Y3.759 Z-12.926
Z-12.927
X33.74 Z-13.
X33.933 Z-12.951
X34.063 Z-12.924
X34.44 Z-12.867
X34.568 Z-12.855
X34.964 Z-12.835
X172.077 Z-12.834
X172.082 Z-12.688
X172.121 Z-12.571
X172.16 Z-12.506
X172.249 Z-12.403
X172.382 Z-12.296
X172.556 Z-12.187
X172.81 Z-12.081
X172.965 Z-12.036
X173.252 Z-11.965
X173.581 Z-11.933
X173.746 Z-11.936
X173.936 Z-11.969
X174.013 Z-11.957
X174.307 Z-11.922
X174.575 Z-11.915
X174.836 Z-11.936
X175.286 Z-12.011
X175.464 Z-12.086
X175.624 Z-12.183
X175.788 Z-12.317
X175.936 Z-12.433
X176.013 Z-12.522
X176.054 Z-12.59
X176.088 Z-12.697
X176.092 Z-12.834
X186.655
X186.656 Z-12.748
X186.666 Z-12.687
X186.707 Z-12.607
X186.775 Z-12.534
X186.854 Z-12.478
X186.95 Z-12.443
X187.214 Z-12.394
X187.465 Z-12.372
X187.699 Z-12.392
X187.93 Z-12.458
X188.104 Z-12.563
X188.156 Z-12.619
X188.196 Z-12.711
X188.2 Z-12.834
X191.626
X191.627 Z-12.731
X191.65 Z-12.612
X191.709 Z-12.5
X191.87 Z-12.315
X192.562 Z-11.68
X193.043 Z-11.368
X193.638 Z-11.061
X193.846 Z-10.986
X194.037 Z-10.541
X194.135 Z-10.37
X194.212 Z-10.275
X194.315 Z-10.19
X194.539 Z-10.066
X194.989 Z-9.881
X195.281 Z-9.809
X195.454 Z-9.72
X195.559 Z-9.68
X195.74 Z-9.646
X195.897 Z-9.631
X196.013 Z-9.522
X196.16 Z-9.426
X196.32 Z-9.347
X196.436 Z-9.304
X196.5 Z-9.298
X196.565 Z-9.304
X196.624 Z-9.319
X196.737 Z-9.374
X196.902 Z-9.483
X197.012 Z-9.563
X197.071 Z-9.587
X197.239 Z-9.673
X197.378 Z-9.792
X197.442 Z-9.879
X197.5 Z-10.006
X197.518 Z-10.1
X197.522 Z-11.444
X197.853 Z-11.516
X198.66 Z-11.669
X198.756 Z-11.716
X198.814 Z-11.769
X198.847 Z-11.761
X198.974 Z-11.71
X199.041 Z-11.696
X199.108 Z-11.691
X199.292 Z-11.67
X200.096 Z-11.686
X201.575 Z-11.714
X202.651 Z-11.754
X203.745 Z-11.837
X204.071 Z-11.872
X204.838 Z-11.979
X205.342 Z-12.07
X205.663 Z-12.136
X206.204 Z-12.266
X206.499 Z-12.371
X206.69 Z-12.474
X206.792 Z-12.563
X206.85 Z-12.653
X206.867 Z-12.706
X206.872 Z-12.834
X219.25
Z-12.735
X219.258 Z-12.638
X219.286 Z-12.52
X219.333 Z-12.408
X219.403 Z-12.296
X219.489 Z-12.201
X219.587 Z-12.124
X219.694 Z-12.065
X219.808 Z-12.025
X219.936 Z-12.003
X270.009 Z-12.
X270.042 Z-11.993
X270.075 Z-11.985
Y3.932
X270.042 Z-11.993
X270.009 Z-12.
X219.936 Z-12.003
X219.808 Z-12.025
X219.694 Z-12.065
X219.587 Z-12.124
X219.489 Z-12.201
X219.403 Z-12.296
X219.333 Z-12.408
X219.286 Z-12.52
X219.258 Z-12.638
X219.25 Z-12.738
X207.389
X207.373 Z-12.662
X207.328 Z-12.579
X207.233 Z-12.479
X207.099 Z-12.387
X206.879 Z-12.283
X206.682 Z-12.217
X206.304 Z-12.108
X205.937 Z-12.011
X205.63 Z-11.939
X205.18 Z-11.848
X204.805 Z-11.782
X203.746 Z-11.637
X202.5 Z-11.54
X202.236 Z-11.523
X201.314 Z-11.485
X200.338 Z-11.45
X199.489 Z-11.403
X199.304 Z-11.423
X199.145 Z-11.456
X199.035 Z-11.486
X198.947 Z-11.416
X198.836 Z-11.371
X198.548 Z-11.325
X197.688 Z-11.135
X197.683 Z-10.029
X197.651 Z-9.813
X197.605 Z-9.684
X197.547 Z-9.597
X197.42 Z-9.476
X197.317 Z-9.404
X197.204 Z-9.347
X197.086 Z-9.292
X196.943 Z-9.233
X196.733 Z-9.096
X196.608 Z-9.051
X196.48 Z-9.037
X196.413 Z-9.042
X196.289 Z-9.076
X196.014 Z-9.22
X195.956 Z-9.256
X195.852 Z-9.347
X195.831 Z-9.369
X195.494 Z-9.425
X195.381 Z-9.474
X195.076 Z-9.652
X194.829 Z-9.743
X194.52 Z-9.874
X194.4 Z-9.954
X194.187 Z-10.106
X194.097 Z-10.198
X194.008 Z-10.335
X193.854 Z-10.719
X193.569 Z-10.842
X192.823 Z-11.214
X192.274 Z-11.642
X191.98 Z-11.92
X191.744 Z-12.165
X191.553 Z-12.39
X191.48 Z-12.507
X191.448 Z-12.583
X191.429 Z-12.655
X191.42 Z-12.738
X188.895
X188.873 Z-12.646
X188.814 Z-12.553
X188.705 Z-12.461
X188.584 Z-12.394
X188.051 Z-12.236
X187.807 Z-12.192
X187.509 Z-12.169
X187.093 Z-12.189
X186.857 Z-12.219
X186.629 Z-12.291
X186.466 Z-12.37
X186.318 Z-12.478
X186.233 Z-12.576
X186.185 Z-12.675
X186.174 Z-12.738
X176.41
X176.392 Z-12.62
X176.351 Z-12.516
X176.326 Z-12.473
X176.276 Z-12.408
X176.187 Z-12.332
X176.078 Z-12.276
X176.031 Z-12.257
X175.831 Z-12.097
X175.662 Z-12.008
X175.416 Z-11.93
X175.192 Z-11.885
X174.897 Z-11.859
X174.521 Z-11.863
X174.233 Z-11.89
X173.997 Z-11.852
X173.8 Z-11.844
X173.611 Z-11.856
X173.493 Z-11.872
X173.041 Z-11.95
X172.492 Z-12.111
X172.298 Z-12.182
X171.983 Z-12.346
X171.836 Z-12.458
X171.779 Z-12.525
X171.752 Z-12.572
X171.725 Z-12.643
X171.709 Z-12.738
X34.933 Z-12.74
X34.455 Z-12.768
X33.976 Z-12.843
X33.493 Z-12.968
X33.404 Z-13.
X33.345 Z-12.997
Z-12.996
X33.311 Z-12.989
X33.052
Y4.105
X33.085 Z-12.996
X33.143 Z-13.
X33.312 Z-12.941
X33.551 Z-12.863
X33.969 Z-12.76
X34.451 Z-12.688
X34.932 Z-12.66
X171.515 Z-12.657
X171.523 Z-12.623
X171.569 Z-12.501
X171.642 Z-12.39
X171.731 Z-12.297
X171.835 Z-12.227
X172.002 Z-12.163
X172.68 Z-11.972
X173.108 Z-11.873
X173.483 Z-11.806
X173.614 Z-11.789
X173.745 Z-11.778
X174.079 Z-11.757
X174.257 Z-11.779
X174.42 Z-11.825
X174.477 Z-11.831
X174.622 Z-11.822
X174.986 Z-11.81
X175.217 Z-11.818
X175.656 Z-11.89
X175.873 Z-11.952
X175.999 Z-12.014
X176.165 Z-12.142
X176.26 Z-12.21
X176.372 Z-12.277
X176.483 Z-12.355
X176.589 Z-12.473
X176.649 Z-12.581
X176.674 Z-12.657
X185.897
X185.9 Z-12.647
X185.945 Z-12.531
X186.021 Z-12.422
X186.113 Z-12.333
X186.218 Z-12.267
X186.441 Z-12.185
X186.785 Z-12.096
X186.959 Z-12.067
X187.228 Z-12.038
X187.498 Z-12.036
X187.769 Z-12.055
X188.015 Z-12.094
X188.548 Z-12.177
X188.805 Z-12.248
X189.028 Z-12.344
X189.182 Z-12.439
X189.283 Z-12.543
X189.345 Z-12.654
X191.261
X191.303 Z-12.514
X191.467 Z-12.236
X191.656 Z-11.997
X192.098 Z-11.549
X192.359 Z-11.335
X192.759 Z-11.029
X193.045 Z-10.851
X193.504 Z-10.623
X193.86 Z-10.483
X193.909 Z-10.356
X193.971 Z-10.199
X194.041 Z-10.085
X194.127 Z-9.987
X194.417 Z-9.751
X194.693 Z-9.599
X194.994 Z-9.482
X195.104 Z-9.373
X195.211 Z-9.296
X195.32 Z-9.242
X195.627 Z-9.157
X195.963 Z-8.979
X196.071 Z-8.927
X196.185 Z-8.885
X196.303 Z-8.865
X196.465 Z-8.863
X196.628 Z-8.888
X197.234 Z-9.085
X197.339 Z-9.146
X197.523 Z-9.315
X197.635 Z-9.463
X197.723 Z-9.62
X197.771 Z-9.738
X197.794 Z-9.859
X197.798 Z-10.866
X197.931 Z-10.904
X198.954 Z-11.123
X199.064 Z-11.16
X199.136 Z-11.207
X199.184 Z-11.251
X199.25 Z-11.23
X199.4 Z-11.2
X199.756 Z-11.183
X200.15 Z-11.212
X201.123 Z-11.266
X201.781 Z-11.3
X202.636 Z-11.352
X203.8 Z-11.461
X204.178 Z-11.508
X204.957 Z-11.62
X205.073 Z-11.641
X205.459 Z-11.722
X205.958 Z-11.834
X206.211 Z-11.899
X206.841 Z-12.084
X207.351 Z-12.268
X207.544 Z-12.367
X207.693 Z-12.479
X207.755 Z-12.551
X207.805 Z-12.654
X211.135 Z-12.657
X211.176 Z-12.546
X211.219 Z-12.48
X211.262 Z-12.433
X211.315 Z-12.391
X211.368 Z-12.36
X211.484 Z-12.322
X211.549 Z-12.316
X211.615 Z-12.319
X211.675 Z-12.331
X211.735 Z-12.353
X211.848 Z-12.412
X211.94 Z-12.482
X212.003 Z-12.567
X212.039 Z-12.657
X219.256
X219.286 Z-12.52
X219.333 Z-12.408
X219.403 Z-12.296
X219.489 Z-12.201
X219.587 Z-12.124
X219.694 Z-12.065
X219.808 Z-12.025
X219.936 Z-12.003
X270.009 Z-12.
X270.042 Z-11.993
X270.075 Z-11.985
Y4.278
X270.042 Z-11.993
X270.009 Z-12.
X219.936 Z-12.003
X219.808 Z-12.025
X219.694 Z-12.065
X219.587 Z-12.124
X219.489 Z-12.201
X219.403 Z-12.296
X219.333 Z-12.408
X219.282 Z-12.534
X219.269 Z-12.578
X212.224
X212.182 Z-12.477
X212.12 Z-12.384
X212.038 Z-12.3
X211.936 Z-12.233
X211.698 Z-12.136
X211.574 Z-12.109
X211.443 Z-12.11
X211.312 Z-12.136
X211.199 Z-12.186
X211.149 Z-12.221
X211.068 Z-12.304
X210.939 Z-12.508
X210.907 Z-12.578
X208.134 Z-12.576
X208.07 Z-12.484
X207.959 Z-12.379
X207.8 Z-12.281
X207.594 Z-12.189
X207.29 Z-12.07
X206.919 Z-11.936
X206.544 Z-11.818
X206.293 Z-11.749
X205.669 Z-11.592
X205.541 Z-11.563
X205.04 Z-11.46
X204.391 Z-11.36
X203.74 Z-11.276
X202.587 Z-11.165
X201.538 Z-11.092
X200.369 Z-11.02
X199.825 Z-10.977
X199.482 Z-11.003
X199.347 Z-11.033
X199.239 Z-10.965
X199.067 Z-10.894
X198.013 Z-10.633
X197.869 Z-10.595
X197.866 Z-9.864
X197.838 Z-9.708
X197.759 Z-9.47
X197.688 Z-9.313
X197.624 Z-9.218
X197.519 Z-9.115
X197.344 Z-8.966
X197.237 Z-8.903
X196.873 Z-8.764
X196.619 Z-8.705
X196.421 Z-8.694
X196.086 Z-8.692
X195.962 Z-8.719
X195.793 Z-8.786
X195.471 Z-8.961
X195.225 Z-9.047
X195.068 Z-9.14
X194.962 Z-9.229
X194.873 Z-9.32
X194.672 Z-9.411
X194.452 Z-9.532
X194.162 Z-9.774
X194.03 Z-9.926
X193.932 Z-10.075
X193.858 Z-10.262
X193.852 Z-10.281
X193.566 Z-10.388
X193.139 Z-10.58
X193.003 Z-10.657
X192.624 Z-10.899
X192.129 Z-11.304
X191.835 Z-11.602
X191.634 Z-11.817
X191.414 Z-12.092
X191.3 Z-12.285
X191.206 Z-12.458
X191.157 Z-12.578
X190.174 Z-12.575
X190.105 Z-12.487
X189.987 Z-12.389
X189.908 Z-12.348
X189.847 Z-12.329
X189.72 Z-12.317
X189.47 Z-12.311
X189.356 Z-12.282
X189.08 Z-12.178
X188.798 Z-12.109
X188.67 Z-12.082
X188.472 Z-12.054
X188.247 Z-12.029
X188.095 Z-12.
X187.914 Z-11.962
X187.583 Z-11.91
X187.392 Z-11.914
X186.907 Z-11.944
X186.757 Z-11.972
X186.402 Z-12.07
X186.194 Z-12.137
X186.003 Z-12.231
X185.853 Z-12.338
X185.764 Z-12.428
X185.688 Z-12.54
X185.668 Z-12.578
X176.863 Z-12.575
X176.816 Z-12.478
X176.747 Z-12.385
X176.624 Z-12.27
X176.421 Z-12.143
X176.351 Z-12.095
X176.194 Z-11.986
X176.022 Z-11.903
X175.838 Z-11.841
X175.319 Z-11.775
X175.086 Z-11.771
X174.805 Z-11.784
X174.55 Z-11.725
X174.356 Z-11.7
X174.043 Z-11.676
X173.85 Z-11.698
X173.4 Z-11.747
X172.894 Z-11.826
X172.778 Z-11.851
X171.985 Z-12.059
X171.817 Z-12.123
X171.659 Z-12.21
X171.537 Z-12.305
X171.473 Z-12.376
X171.402 Z-12.492
X171.369 Z-12.578
X34.927 Z-12.58
X34.466 Z-12.606
X33.967 Z-12.681
X33.552 Z-12.782
X33.313 Z-12.861
X33.065 Z-12.947
X32.942 Z-13.
X32.88 Z-12.998
X32.848 Z-12.991
X32.669
Y4.451
X32.701 Z-12.998
X32.703 Z-12.999
X32.767 Z-13.
X33.004 Z-12.892
X33.477 Z-12.725
X33.961 Z-12.603
X34.458 Z-12.529
X34.92 Z-12.504
X171.296 Z-12.501
X171.358 Z-12.38
X171.438 Z-12.275
X171.532 Z-12.189
X171.637 Z-12.123
X171.813 Z-12.048
X172.089 Z-11.941
X172.693 Z-11.763
X173.003 Z-11.691
X173.369 Z-11.638
X173.562 Z-11.625
X173.827
X174.068 Z-11.618
X174.474 Z-11.62
X174.722 Z-11.632
X174.98 Z-11.678
X175.229 Z-11.748
X175.363 Z-11.747
X175.556 Z-11.751
X175.874 Z-11.788
X176.189 Z-11.874
X176.369 Z-11.943
X176.573 Z-12.069
X176.867 Z-12.295
X176.975 Z-12.403
X177.039 Z-12.499
X185.499 Z-12.501
X185.542 Z-12.429
X185.626 Z-12.327
X185.725 Z-12.247
X185.83 Z-12.188
X186.24 Z-12.004
X186.726 Z-11.859
X186.864 Z-11.832
X187.35 Z-11.8
X187.616 Z-11.808
X187.907 Z-11.85
X188.303 Z-11.953
X188.526 Z-11.964
X188.689 Z-11.976
X189.291 Z-12.117
X189.436 Z-12.137
X189.753 Z-12.143
X189.88 Z-12.157
X190.066 Z-12.217
X190.179 Z-12.269
X190.275 Z-12.341
X190.352 Z-12.427
X190.381 Z-12.43
X190.508 Z-12.453
X190.662 Z-12.498
X191.073 Z-12.501
X191.101 Z-12.442
X191.381 Z-11.974
X191.655 Z-11.598
X191.822 Z-11.417
X192.252 Z-10.989
X192.647 Z-10.684
X193.02 Z-10.452
X193.35 Z-10.287
X193.593 Z-10.18
X193.838 Z-10.085
X193.894 Z-9.959
X194.098 Z-9.646
X194.185 Z-9.546
X194.417 Z-9.341
X194.521 Z-9.28
X194.76 Z-9.164
X194.823 Z-9.097
X194.933 Z-9.002
X195.168 Z-8.863
X195.362 Z-8.769
X195.458 Z-8.693
X195.568 Z-8.634
X195.798 Z-8.579
X195.981 Z-8.547
X196.581 Z-8.562
X196.838 Z-8.608
X196.961 Z-8.647
X197.077 Z-8.691
X197.318 Z-8.799
X197.418 Z-8.869
X197.672 Z-9.14
X197.736 Z-9.239
X197.815 Z-9.412
X197.875 Z-9.625
X197.913 Z-9.848
X197.921 Z-10.354
X198.28 Z-10.455
X198.663 Z-10.55
X199.157 Z-10.683
X199.4 Z-10.777
X199.502 Z-10.835
X199.588 Z-10.812
X199.739 Z-10.791
X199.94 Z-10.79
X200.738 Z-10.85
X202.616 Z-10.989
X203.586 Z-11.084
X204.367 Z-11.187
X204.938 Z-11.272
X205.491 Z-11.382
X206.116 Z-11.537
X206.861 Z-11.747
X206.983 Z-11.79
X207.582 Z-12.021
X207.824 Z-12.123
X208.05 Z-12.226
X208.163 Z-12.285
X208.313 Z-12.391
X208.412 Z-12.499
X210.089 Z-12.501
X210.116 Z-12.48
X210.196 Z-12.428
X210.263 Z-12.404
X210.33 Z-12.395
X210.393 Z-12.398
X210.582 Z-12.449
X210.691 Z-12.496
X210.719 Z-12.348
X210.744 Z-12.281
X210.784 Z-12.213
X210.824 Z-12.164
X210.921 Z-12.08
X211.031 Z-12.021
X211.261 Z-11.957
X211.395 Z-11.947
X211.587 Z-11.976
X211.742 Z-12.022
X211.975 Z-12.135
X212.105 Z-12.22
X212.19 Z-12.303
X212.258 Z-12.397
X212.309 Z-12.501
X219.292
X219.333 Z-12.408
X219.403 Z-12.296
X219.489 Z-12.201
X219.587 Z-12.124
X219.694 Z-12.065
X219.808 Z-12.025
X219.936 Z-12.003
X270.009 Z-12.
X270.042 Z-11.993
X270.075 Z-11.985
Y4.624
X270.042 Z-11.993
X270.009 Z-12.
X219.936 Z-12.003
X219.808 Z-12.025
X219.694 Z-12.065
X219.587 Z-12.124
X219.489 Z-12.201
X219.403 Z-12.296
X219.321 Z-12.433
X219.301 Z-12.437
X212.337
X212.278 Z-12.334
X212.204 Z-12.242
X212.114 Z-12.161
X211.785 Z-11.961
X211.608 Z-11.88
X211.422 Z-11.833
X211.225 Z-11.817
X210.975 Z-11.837
X210.853 Z-11.872
X210.746 Z-11.934
X210.605 Z-12.057
X210.564 Z-12.105
X210.508 Z-12.196
X210.378 Z-12.181
X210.244 Z-12.189
X210.111 Z-12.231
X209.915 Z-12.338
X209.797 Z-12.434
X208.656 Z-12.435
X208.538 Z-12.328
X208.378 Z-12.23
X208.146 Z-12.108
X207.862 Z-11.975
X207.068 Z-11.666
X206.642 Z-11.527
X206.065 Z-11.363
X205.824 Z-11.305
X205.326 Z-11.191
X204.953 Z-11.116
X204.577 Z-11.058
X203.927 Z-10.966
X203.288 Z-10.894
X202.269 Z-10.791
X200.597 Z-10.657
X200.107 Z-10.612
X199.806 Z-10.606
X199.672 Z-10.621
X199.605 Z-10.639
X199.498 Z-10.58
X199.303 Z-10.502
X198.218 Z-10.207
X197.978 Z-10.129
X197.951 Z-9.736
X197.892 Z-9.46
X197.838 Z-9.311
X197.76 Z-9.143
X197.676 Z-9.023
X197.483 Z-8.811
X197.362 Z-8.714
X196.987 Z-8.528
X196.867 Z-8.489
X196.608 Z-8.452
X196.478 Z-8.437
X195.808 Z-8.411
X195.543 Z-8.426
X195.427 Z-8.461
X195.306 Z-8.529
X195.133 Z-8.675
X194.851 Z-8.818
X194.619 Z-9.011
X194.367 Z-9.162
X194.258 Z-9.248
X194.079 Z-9.436
X193.991 Z-9.575
X193.883 Z-9.757
X193.819 Z-9.898
X193.477 Z-10.037
X192.973 Z-10.287
X192.613 Z-10.519
X192.212 Z-10.848
X191.905 Z-11.144
X191.623 Z-11.474
X191.334 Z-11.889
X191.135 Z-12.236
X191.019 Z-12.253
X190.927 Z-12.255
X190.744 Z-12.238
X190.402 Z-12.197
X190.281 Z-12.194
X190.15 Z-12.125
X190.003 Z-12.084
X189.843 Z-12.045
X189.713 Z-12.034
X189.307 Z-12.024
X188.805 Z-11.916
X188.676 Z-11.893
X188.479 Z-11.879
X188.33 Z-11.873
X188.148 Z-11.804
X187.788 Z-11.718
X187.3 Z-11.688
X186.787 Z-11.738
X186.657 Z-11.764
X186.26 Z-11.882
X185.804 Z-12.085
X185.599 Z-12.205
X185.457 Z-12.322
X185.365 Z-12.437
X177.191 Z-12.434
X177.07 Z-12.299
X176.973 Z-12.214
X176.902 Z-12.137
X176.701 Z-11.984
X176.532 Z-11.894
X176.351 Z-11.829
X175.967 Z-11.745
X175.792 Z-11.727
X175.414 Z-11.617
X175.157 Z-11.572
X174.762 Z-11.539
X174.677 Z-11.536
X174.421 Z-11.482
X174.149 Z-11.466
X173.741 Z-11.454
X173.389 Z-11.512
X173.142 Z-11.541
X172.993 Z-11.585
X172.837 Z-11.615
X172.554 Z-11.701
X171.816 Z-11.997
X171.587 Z-12.099
X171.482 Z-12.163
X171.387 Z-12.244
X171.303 Z-12.342
X171.244 Z-12.437
X34.926 Z-12.44
X34.466 Z-12.464
X34.037 Z-12.524
X33.792 Z-12.579
X33.55 Z-12.636
X33.31 Z-12.713
X32.977 Z-12.83
X32.595 Z-12.999
X32.49 Z-12.931
X32.426 Y4.71 Z-12.823
X32.362 Y4.797 Z-12.931
Z-12.934
X32.473 Z-13.
X32.539 Z-12.964
X33. Z-12.757
X33.479 Z-12.592
X33.969 Z-12.473
X34.459 Z-12.401
X34.952 Z-12.375
X171.192 Z-12.373
X171.255 Z-12.293
X171.345 Z-12.205
X171.484 Z-12.111
X171.973 Z-11.89
X172.604 Z-11.618
X172.983 Z-11.497
X173.163 Z-11.45
X173.356 Z-11.431
X173.47 Z-11.401
X173.702 Z-11.35
X174.23 Z-11.313
X174.565 Z-11.325
X174.756 Z-11.354
X174.92 Z-11.383
X175.072 Z-11.406
X175.211 Z-11.45
X175.468 Z-11.495
X175.73 Z-11.534
X176.029 Z-11.619
X176.268 Z-11.72
X176.323 Z-11.735
X176.627 Z-11.83
X176.818 Z-11.907
X176.972 Z-12.016
X177.185 Z-12.229
X177.341 Z-12.372
X185.26 Z-12.373
X185.338 Z-12.286
X185.434 Z-12.204
X185.773 Z-11.992
X186.139 Z-11.829
X186.53 Z-11.693
X186.71 Z-11.645
X187.024 Z-11.614
X187.389 Z-11.59
X187.731 Z-11.619
X187.924 Z-11.652
X188.177 Z-11.717
X188.387 Z-11.804
X188.623 Z-11.806
X188.914 Z-11.854
X189.288 Z-11.94
X189.435 Z-11.932
X189.667 Z-11.936
X189.861 Z-11.958
X190.214 Z-12.078
X190.366 Z-12.075
X190.699 Z-12.097
X190.937 Z-12.11
X191.138 Z-12.098
X191.265 Z-11.888
X191.498 Z-11.509
X191.637 Z-11.304
X191.924 Z-10.97
X192.101 Z-10.785
X192.323 Z-10.583
X192.665 Z-10.323
X192.919 Z-10.15
X193.399 Z-9.91
X193.777 Z-9.754
X193.82 Z-9.642
X193.968 Z-9.359
X194.115 Z-9.175
X194.203 Z-9.079
X194.556 Z-8.835
X194.78 Z-8.654
X194.984 Z-8.537
X195.138 Z-8.418
X195.258 Z-8.347
X195.401 Z-8.303
X195.535 Z-8.288
X195.803
X196.457 Z-8.326
X196.714 Z-8.369
X196.968 Z-8.434
X197.086 Z-8.479
X197.315 Z-8.599
X197.468 Z-8.705
X197.579 Z-8.819
X197.751 Z-9.039
X197.847 Z-9.218
X197.97 Z-9.576
X198.002 Z-9.701
X198.029 Z-9.938
X199.429 Z-10.336
X199.548 Z-10.377
X199.715 Z-10.474
X199.816 Z-10.452
X199.989 Z-10.433
X200.153 Z-10.442
X202.053 Z-10.619
X202.565 Z-10.664
X203.074 Z-10.716
X203.974 Z-10.819
X204.708 Z-10.926
X205.257 Z-11.024
X205.964 Z-11.185
X206.618 Z-11.366
X207.213 Z-11.566
X207.579 Z-11.709
X207.942 Z-11.862
X208.178 Z-11.974
X208.632 Z-12.209
X208.742 Z-12.272
X208.868 Z-12.37
X209.612 Z-12.373
X209.684 Z-12.311
X209.878 Z-12.176
X210.045 Z-12.104
X210.161 Z-12.077
X210.353 Z-12.061
X210.415 Z-11.969
X210.507 Z-11.88
X210.66 Z-11.781
X210.774 Z-11.734
X211.012 Z-11.696
X211.21 Z-11.704
X211.369 Z-11.731
X211.583 Z-11.805
X211.754 Z-11.891
X212.161 Z-12.187
X212.248 Z-12.278
X212.313 Z-12.371
X219.351 Z-12.373
X219.403 Z-12.296
X219.489 Z-12.201
X219.587 Z-12.124
X219.694 Z-12.065
X219.808 Z-12.025
X219.936 Z-12.003
X270.009 Z-12.
X270.042 Z-11.993
X270.075 Z-11.985
Y4.97
X270.042 Z-11.993
X270.009 Z-12.
X219.936 Z-12.003
X219.808 Z-12.025
X219.694 Z-12.065
X219.587 Z-12.124
X219.489 Z-12.201
X219.388 Z-12.314
X212.238
X212.13 Z-12.192
X211.981 Z-12.07
X211.843 Z-11.94
X211.688 Z-11.826
X211.486 Z-11.711
X211.283 Z-11.637
X210.997 Z-11.574
X210.849 Z-11.571
X210.708 Z-11.594
X210.537 Z-11.654
X210.376 Z-11.734
X210.278 Z-11.815
X210.198 Z-11.924
X210.175 Z-11.971
X210.027 Z-11.987
X209.926 Z-12.018
X209.764 Z-12.101
X209.514 Z-12.266
X209.455 Z-12.314
X209.063 Z-12.312
X208.849 Z-12.178
X208.387 Z-11.933
X208.005 Z-11.745
X207.808 Z-11.656
X207.323 Z-11.455
X207.076 Z-11.373
X206.387 Z-11.157
X205.944 Z-11.036
X205.445 Z-10.922
X205.059 Z-10.846
X204.542 Z-10.754
X203.84 Z-10.655
X202.888 Z-10.552
X201.935 Z-10.454
X200.112 Z-10.272
X200.013 Z-10.274
X199.821 Z-10.308
X199.723 Z-10.24
X199.607 Z-10.193
X199.356 Z-10.119
X198.069 Z-9.759
X198.034 Z-9.578
X197.98 Z-9.422
X197.858 Z-9.139
X197.758 Z-8.965
X197.684 Z-8.869
X197.535 Z-8.7
X197.422 Z-8.594
X197.15 Z-8.425
X197.003 Z-8.367
X196.655 Z-8.277
X196.441 Z-8.234
X195.612 Z-8.159
X195.411 Z-8.163
X195.294 Z-8.185
X195.069 Z-8.27
X194.962 Z-8.333
X194.845 Z-8.428
X194.63 Z-8.547
X194.487 Z-8.661
X194.388 Z-8.77
X194.15 Z-8.942
X194.033 Z-9.061
X193.904 Z-9.227
X193.835 Z-9.348
X193.737 Z-9.614
X193.311 Z-9.787
X192.975 Z-9.96
X192.823 Z-10.056
X192.43 Z-10.334
X192.182 Z-10.557
X191.938 Z-10.819
X191.629 Z-11.19
X191.408 Z-11.564
X191.161 Z-11.971
X191.046 Z-11.994
X190.778 Z-12.006
X190.327 Z-11.985
X190.141 Z-11.995
X190.02 Z-11.961
X189.848 Z-11.903
X189.657 Z-11.867
X189.461 Z-11.852
X189.259 Z-11.868
X188.879 Z-11.764
X188.62 Z-11.737
X188.459 Z-11.74
X188.335 Z-11.676
X188.212 Z-11.637
X188.086 Z-11.602
X187.959 Z-11.575
X187.7 Z-11.531
X187.234 Z-11.507
X186.74 Z-11.542
X186.594 Z-11.571
X186.206 Z-11.707
X186.082 Z-11.755
X185.883 Z-11.843
X185.647 Z-11.976
X185.39 Z-12.138
X185.238 Z-12.254
X185.178 Z-12.314
X177.448 Z-12.313
X177.387 Z-12.245
X177.302 Z-12.137
X177.162 Z-12.013
X177.045 Z-11.928
X176.874 Z-11.84
X176.654 Z-11.753
X176.478 Z-11.631
X176.191 Z-11.5
X176.037 Z-11.451
X175.785 Z-11.417
X175.633 Z-11.363
X175.45 Z-11.314
X175.136 Z-11.228
X174.973 Z-11.215
X174.37 Z-11.204
X174.173 Z-11.214
X173.617 Z-11.286
X172.998 Z-11.439
X172.773 Z-11.515
X171.96 Z-11.851
X171.384 Z-12.114
X171.282 Z-12.183
X171.171 Z-12.293
X171.152 Z-12.314
X34.913 Z-12.317
X34.446 Z-12.343
X33.979 Z-12.409
X33.479 Z-12.529
X33.118 Z-12.65
X32.994 Z-12.696
X32.645 Z-12.849
X32.525 Z-12.907
X32.358 Z-13.
X32.322 Z-13.009
X32.209
X32.192 Y4.971
X32.176 Y4.976
X32.161 Y4.984
X32.148 Y4.995
X32.137 Y5.008
X32.129 Y5.023
X32.124 Y5.039
X32.123 Y5.056
X32.124 Y5.073
X32.129 Y5.089
X32.137 Y5.104
X32.148 Y5.117
X32.161 Y5.128
X32.176 Y5.136
X32.192 Y5.141
X32.209 Y5.143
X32.245 Z-13.
X32.514 Z-12.854
X32.635 Z-12.796
X32.972 Z-12.651
X33.097 Z-12.604
X33.446 Z-12.49
X33.574 Z-12.454
X33.945 Z-12.368
X34.075 Z-12.345
X34.469 Z-12.292
X34.917 Z-12.269
X171.162 Z-12.266
X171.259 Z-12.171
X171.361 Z-12.1
X171.582 Z-11.997
X171.853 Z-11.865
X172.614 Z-11.549
X173.136 Z-11.361
X173.496 Z-11.275
X173.814 Z-11.208
X174.207 Z-11.154
X174.577 Z-11.123
X175.008 Z-11.111
X175.357 Z-11.143
X175.537 Z-11.181
X175.859 Z-11.24
X175.976 Z-11.284
X176.079 Z-11.348
X176.202 Z-11.376
X176.514 Z-11.463
X176.644 Z-11.524
X176.889 Z-11.707
X177.001 Z-11.802
X177.182 Z-11.881
X177.32 Z-11.953
X177.416 Z-12.031
X177.496 Z-12.119
X177.573 Z-12.243
X177.595 Z-12.262
X185.108 Z-12.266
X185.147 Z-12.231
X185.377 Z-12.052
X185.71 Z-11.849
X185.826 Z-11.785
X186.094 Z-11.653
X186.511 Z-11.519
X186.666 Z-11.475
X186.874 Z-11.448
X187.092 Z-11.429
X187.242 Z-11.432
X187.644 Z-11.443
X187.774 Z-11.459
X188.158 Z-11.534
X188.368 Z-11.619
X188.503 Z-11.693
X188.707 Z-11.697
X188.868 Z-11.711
X189.204 Z-11.8
X189.345 Z-11.779
X189.525 Z-11.788
X189.716 Z-11.828
X190.026 Z-11.926
X190.208 Z-11.907
X190.363 Z-11.902
X190.761 Z-11.916
X190.856 Z-11.893
X190.986 Z-11.863
X191.219 Z-11.819
X191.567 Z-11.21
X191.666 Z-11.051
X191.962 Z-10.68
X192.303 Z-10.311
X192.437 Z-10.19
X192.637 Z-10.035
X192.846 Z-9.895
X193.22 Z-9.667
X193.683 Z-9.483
X193.728 Z-9.354
X193.836 Z-9.167
X193.962 Z-8.995
X194.044 Z-8.902
X194.425 Z-8.496
X194.533 Z-8.42
X194.689 Z-8.347
X194.799 Z-8.247
X194.915 Z-8.168
X195.085 Z-8.106
X195.317 Z-8.058
X195.442 Z-8.047
X195.785 Z-8.076
X196.08 Z-8.123
X196.308 Z-8.149
X196.664 Z-8.209
X196.903 Z-8.261
X197.068 Z-8.32
X197.339 Z-8.462
X197.474 Z-8.567
X197.73 Z-8.845
X197.927 Z-9.154
X198.016 Z-9.362
X198.091 Z-9.579
X198.429 Z-9.675
X199.685 Z-10.023
X199.831 Z-10.082
X199.928 Z-10.15
X200.024 Z-10.132
X200.224 Z-10.124
X202.573 Z-10.378
X203.59 Z-10.488
X204.586 Z-10.626
X205.263 Z-10.749
X205.777 Z-10.86
X206.206 Z-10.965
X206.661 Z-11.104
X207.285 Z-11.305
X207.406 Z-11.35
X207.756 Z-11.496
X208.233 Z-11.713
X208.572 Z-11.883
X209.033 Z-12.132
X209.255 Z-12.263
X209.334 Z-12.266
X209.428 Z-12.175
X209.477 Z-12.135
X209.616 Z-12.044
X209.794 Z-11.962
X209.973 Z-11.911
X210.017 Z-11.835
X210.102 Z-11.736
X210.201 Z-11.66
X210.357 Z-11.572
X210.527 Z-11.508
X210.718 Z-11.477
X210.917 Z-11.483
X211.108 Z-11.518
X211.29 Z-11.587
X211.464 Z-11.672
X211.656 Z-11.797
X212.024 Z-12.134
X212.146 Z-12.265
X219.427 Z-12.266
X219.489 Z-12.201
X219.587 Z-12.124
X219.694 Z-12.065
X219.808 Z-12.025
X219.936 Z-12.003
X270.009 Z-12.
X270.042 Z-11.993
X270.075 Z-11.985
Y5.316
X270.042 Z-11.993
X270.009 Z-12.
X219.936 Z-12.003
X219.808 Z-12.025
X219.694 Z-12.065
X219.587 Z-12.124
X219.471 Z-12.217
X212.045 Z-12.214
X211.892 Z-12.047
X211.592 Z-11.768
X211.413 Z-11.633
X211.202 Z-11.518
X210.974 Z-11.437
X210.783 Z-11.401
X210.586 Z-11.391
X210.402 Z-11.418
X210.287 Z-11.455
X210.056 Z-11.579
X209.975 Z-11.641
X209.887 Z-11.739
X209.826 Z-11.849
X209.599 Z-11.919
X209.489 Z-11.972
X209.309 Z-12.113
X209.292 Z-12.129
X208.849 Z-11.889
X208.396 Z-11.653
X207.92 Z-11.433
X207.573 Z-11.28
X207.327 Z-11.192
X206.83 Z-11.024
X206.327 Z-10.872
X205.773 Z-10.729
X204.92 Z-10.551
X203.966 Z-10.41
X203.283 Z-10.32
X201.365 Z-10.106
X200.364 Z-9.982
X200.188 Z-9.979
X200.008 Z-10.003
X199.84 Z-9.906
X199.725 Z-9.86
X199.535 Z-9.821
X198.073 Z-9.398
X198.02 Z-9.224
X197.944 Z-9.08
X197.794 Z-8.869
X197.715 Z-8.77
X197.497 Z-8.525
X197.403 Z-8.444
X197.242 Z-8.35
X196.979 Z-8.22
X196.824 Z-8.179
X196.245 Z-8.07
X195.854 Z-8.017
X195.535 Z-7.967
X195.347 Z-7.954
X195.079 Z-7.967
X194.934 Z-7.999
X194.782 Z-8.068
X194.657 Z-8.155
X194.489 Z-8.304
X194.256 Z-8.471
X194.161 Z-8.567
X193.983 Z-8.809
X193.838 Z-9.006
X193.708 Z-9.229
X193.658 Z-9.348
X193.296 Z-9.5
X193.174 Z-9.557
X192.718 Z-9.831
X192.461 Z-10.04
X192.272 Z-10.208
X191.901 Z-10.645
X191.687 Z-10.946
X191.486 Z-11.296
X191.323 Z-11.603
X191.29 Z-11.656
X191.092 Z-11.645
X190.958 Z-11.657
X190.784 Z-11.698
X190.673 Z-11.746
X190.578 Z-11.817
X190.208 Z-11.815
X190.016 Z-11.84
X189.917 Z-11.858
X189.542 Z-11.742
X189.414 Z-11.721
X189.283 Z-11.72
X189.161 Z-11.735
X188.846 Z-11.661
X188.541 Z-11.649
X188.401 Z-11.567
X188.145 Z-11.468
X187.949 Z-11.419
X187.755 Z-11.382
X187.625 Z-11.372
X187.296 Z-11.365
X187.122 Z-11.347
X186.867 Z-11.368
X186.627 Z-11.407
X186.505 Z-11.441
X186.032 Z-11.602
X185.87 Z-11.677
X185.751 Z-11.736
X185.447 Z-11.926
X185.337 Z-12.
X185.053 Z-12.217
X177.744 Z-12.214
X177.682 Z-12.117
X177.601 Z-12.029
X177.452 Z-11.915
X177.302 Z-11.829
X177.19 Z-11.709
X177.029 Z-11.584
X176.81 Z-11.45
X176.634 Z-11.366
X176.511 Z-11.33
X176.384 Z-11.315
X176.271 Z-11.241
X176.095 Z-11.165
X175.855 Z-11.103
X175.466 Z-11.054
X174.995 Z-11.052
X174.361 Z-11.087
X174.023 Z-11.134
X173.749 Z-11.185
X173.27 Z-11.298
X173.065 Z-11.365
X172.473 Z-11.582
X171.973 Z-11.8
X171.598 Z-12.003
X171.353 Z-12.125
X171.232 Z-12.217
X34.963 Z-12.218
X34.563 Z-12.236
X34.431 Z-12.248
X34.054 Z-12.3
X33.924 Z-12.325
X33.553 Z-12.41
X33.313 Z-12.485
X32.998 Z-12.591
X32.538 Z-12.792
X32.154 Z-13.
X32.044 Z-12.934
X31.959 Y5.489
Z-12.937
X32.075 Z-13.
X32.11 Z-12.977
X32.538 Z-12.744
X32.995 Z-12.544
X33.48 Z-12.382
X33.968 Z-12.269
X34.448 Z-12.202
X34.908 Z-12.177
X171.351 Z-12.173
X171.5 Z-12.084
X171.997 Z-11.794
X172.607 Z-11.519
X173.074 Z-11.341
X173.199 Z-11.299
X173.425 Z-11.23
X173.912 Z-11.116
X174.418 Z-11.036
X175.067 Z-10.991
X175.426 Z-10.985
X175.675 Z-10.993
X176.098 Z-11.05
X176.32 Z-11.1
X176.451 Z-11.151
X176.642 Z-11.272
X176.936 Z-11.39
X177.168 Z-11.504
X177.33 Z-11.604
X177.422 Z-11.685
X177.571 Z-11.871
X177.645 Z-11.917
X177.791 Z-12.031
X177.919 Z-12.173
X184.997
X185.291 Z-11.954
X185.525 Z-11.798
X185.807 Z-11.634
X186.024 Z-11.531
X186.542 Z-11.352
X186.965 Z-11.277
X187.131 Z-11.268
X187.465 Z-11.326
X187.667 Z-11.31
X187.798 Z-11.319
X187.989 Z-11.359
X188.36 Z-11.486
X188.476 Z-11.537
X188.585 Z-11.607
X188.864 Z-11.617
X189.115 Z-11.671
X189.146 Z-11.669
X189.311 Z-11.664
X189.44 Z-11.682
X189.8 Z-11.791
X189.927 Z-11.748
X190.043 Z-11.727
X190.387 Z-11.722
X190.472 Z-11.643
X190.656 Z-11.534
X190.784 Z-11.49
X190.947 Z-11.474
X191.385 Z-11.49
X191.536 Z-11.188
X191.726 Z-10.834
X191.919 Z-10.529
X192.11 Z-10.274
X192.298 Z-10.067
X192.581 Z-9.814
X192.847 Z-9.625
X193.048 Z-9.498
X193.166 Z-9.435
X193.272 Z-9.383
X193.393 Z-9.328
X193.635 Z-9.227
X193.681 Z-9.124
X193.768 Z-8.967
X193.844 Z-8.821
X193.991 Z-8.623
X194.056 Z-8.502
X194.114 Z-8.43
X194.234 Z-8.326
X194.562 Z-8.025
X194.682 Z-7.954
X194.895 Z-7.882
X195.016 Z-7.865
X195.205 Z-7.864
X195.395 Z-7.872
X196.15 Z-8.
X196.733 Z-8.107
X196.918 Z-8.158
X197.095 Z-8.242
X197.32 Z-8.369
X197.498 Z-8.499
X197.641 Z-8.635
X197.78 Z-8.8
X197.86 Z-8.905
X197.969 Z-9.065
X198.045 Z-9.229
X198.715 Z-9.42
X199.472 Z-9.637
X199.754 Z-9.71
X199.94 Z-9.784
X200.064 Z-9.861
X200.226 Z-9.832
X200.325
X200.801 Z-9.888
X201.295 Z-9.958
X202.833 Z-10.143
X203.615 Z-10.239
X204.395 Z-10.347
X205.029 Z-10.454
X205.488 Z-10.543
X205.788 Z-10.608
X206.41 Z-10.769
X206.661 Z-10.844
X207.551 Z-11.143
X207.943 Z-11.308
X208.477 Z-11.557
X209.279 Z-11.977
X209.369 Z-11.904
X209.476 Z-11.844
X209.67 Z-11.78
X209.747 Z-11.652
X209.822 Z-11.572
X210.015 Z-11.437
X210.152 Z-11.372
X210.326 Z-11.328
X210.519 Z-11.315
X210.713 Z-11.335
X210.902 Z-11.383
X211.081 Z-11.454
X211.251 Z-11.546
X211.409 Z-11.656
X211.607 Z-11.82
X211.836 Z-12.045
X211.938 Z-12.172
X219.52 Z-12.173
X219.587 Z-12.124
X219.694 Z-12.065
X219.808 Z-12.025
X219.936 Z-12.003
X270.009 Z-12.
X270.042 Z-11.993
X270.075 Z-11.985
Y5.662
X270.042 Z-11.993
X270.009 Z-12.
X219.936 Z-12.003
X219.808 Z-12.025
X219.694 Z-12.065
X219.564 Z-12.139
X214.412 Z-12.137
X214.299 Z-12.089
X214.174 Z-12.066
X213.981 Z-12.075
X213.472 Z-12.139
X211.832 Z-12.136
X211.584 Z-11.846
X211.399 Z-11.685
X211.287 Z-11.6
X211.072 Z-11.458
X210.901 Z-11.368
X210.721 Z-11.3
X210.531 Z-11.257
X210.336 Z-11.241
X210.172 Z-11.255
X210. Z-11.306
X209.81 Z-11.392
X209.66 Z-11.504
X209.573 Z-11.596
X209.499 Z-11.709
X209.388 Z-11.757
X209.271 Z-11.834
X208.829 Z-11.604
X208.252 Z-11.322
X208.014 Z-11.216
X207.541 Z-11.018
X206.56 Z-10.688
X205.798 Z-10.496
X205.413 Z-10.413
X204.911 Z-10.319
X204.549 Z-10.257
X203.509 Z-10.108
X202.61 Z-9.993
X201.491 Z-9.85
X200.608 Z-9.718
X200.412 Z-9.695
X200.28 Z-9.697
X200.125 Z-9.725
X199.997 Z-9.639
X199.912 Z-9.604
X199.551 Z-9.496
X198.091 Z-9.097
X197.988 Z-9.07
X197.862 Z-8.855
X197.717 Z-8.673
X197.566 Z-8.538
X197.465 Z-8.453
X197.365 Z-8.376
X197.147 Z-8.233
X196.854 Z-8.094
X196.651 Z-8.028
X196.415 Z-7.98
X196.286 Z-7.96
X196.038 Z-7.924
X195.225 Z-7.779
X194.959 Z-7.766
X194.833 Z-7.776
X194.633 Z-7.836
X194.495 Z-7.894
X194.392 Z-7.962
X194.301 Z-8.052
X194.164 Z-8.241
X194.036 Z-8.367
X193.916 Z-8.535
X193.812 Z-8.689
X193.739 Z-8.832
X193.618 Z-9.11
X193.346 Z-9.22
X192.969 Z-9.425
X192.566 Z-9.704
X192.317 Z-9.934
X192.071 Z-10.229
X191.88 Z-10.538
X191.687 Z-10.874
X191.463 Z-11.349
X191.253 Z-11.365
X190.87 Z-11.344
X190.736 Z-11.359
X190.508 Z-11.428
X190.398 Z-11.482
X190.287 Z-11.573
X190.244 Z-11.619
X189.946 Z-11.631
X189.8 Z-11.659
X189.636 Z-11.712
X189.388 Z-11.633
X189.26 Z-11.613
X189.102 Z-11.62
X188.84 Z-11.57
X188.585 Z-11.562
X188.484 Z-11.494
X188.369 Z-11.44
X187.94 Z-11.283
X187.814 Z-11.254
X187.683 Z-11.249
X187.461 Z-11.27
X187.229 Z-11.216
X187.057 Z-11.208
X186.848 Z-11.235
X186.545 Z-11.293
X186.162 Z-11.404
X185.971 Z-11.487
X185.656 Z-11.654
X185.278 Z-11.884
X184.951 Z-12.131
X184.94 Z-12.139
X178.099 Z-12.137
X178.013 Z-12.044
X177.9 Z-11.944
X177.814 Z-11.831
X177.658 Z-11.668
X177.507 Z-11.556
X177.175 Z-11.379
X176.957 Z-11.296
X176.819 Z-11.196
X176.621 Z-11.096
X176.471 Z-11.034
X176.284 Z-10.988
X176.155 Z-10.966
X175.96 Z-10.941
X175.629 Z-10.922
X175.1 Z-10.933
X174.523 Z-10.98
X174.001 Z-11.063
X173.601 Z-11.154
X173.081 Z-11.317
X172.668 Z-11.48
X172.348 Z-11.635
X172.01 Z-11.803
X171.838 Z-11.891
X171.53 Z-12.088
X171.449 Z-12.139
X164.575
X164.32 Z-12.071
X164.081 Z-12.009
X163.46 Z-11.893
X162.849 Z-11.868
X162.389 Z-11.893
X162.155 Z-11.93
X162.04 Z-11.962
X161.652 Z-12.094
X161.568 Z-12.139
X34.942 Z-12.141
X34.44 Z-12.168
X34.043 Z-12.222
X33.798 Z-12.273
X33.455 Z-12.356
X33.014 Z-12.5
X32.601 Z-12.674
X32.127 Z-12.923
X32.006 Z-13.
X31.966 Z-13.012
X31.912
X31.896 Y5.663
X31.879 Y5.668
X31.864 Y5.676
X31.851 Y5.687
X31.841 Y5.7
X31.833 Y5.715
X31.828 Y5.731
X31.826 Y5.748
X31.828 Y5.765
X31.833 Y5.781
X31.841 Y5.796
X31.851 Y5.809
X31.864 Y5.82
X31.879 Y5.828
X31.896 Y5.833
X31.912 Y5.835
X31.953 Z-13.
X32.096 Z-12.908
X32.539 Z-12.669
X33.003 Z-12.47
X33.479 Z-12.314
X33.966 Z-12.201
X34.455 Z-12.132
X34.915 Z-12.108
X160.769 Z-12.104
X160.881 Z-12.021
X161.114 Z-11.917
X161.283 Z-11.86
X161.697 Z-11.755
X161.93 Z-11.711
X162.405 Z-11.67
X162.736 Z-11.663
X163.294 Z-11.689
X163.582 Z-11.746
X163.747 Z-11.755
X164.321 Z-11.855
X164.943 Z-12.01
X165.229 Z-12.104
X171.494
X171.886 Z-11.865
X172.309 Z-11.624
X172.468 Z-11.546
X172.667 Z-11.45
X173.094 Z-11.291
X173.661 Z-11.11
X174.108 Z-10.99
X174.658 Z-10.89
X175.173 Z-10.843
X175.481 Z-10.854
X175.688 Z-10.858
X176.153 Z-10.885
X176.508 Z-10.946
X176.662 Z-10.99
X176.981 Z-11.14
X177.144 Z-11.263
X177.341 Z-11.336
X177.566 Z-11.429
X177.762 Z-11.543
X177.927 Z-11.665
X178.061 Z-11.798
X178.18 Z-11.977
X178.285 Z-12.104
X184.879
X184.915 Z-12.075
X185.142 Z-11.906
X185.429 Z-11.728
X185.747 Z-11.539
X185.905 Z-11.459
X186.177 Z-11.338
X186.418 Z-11.269
X186.647 Z-11.21
X186.931 Z-11.165
X187.148 Z-11.154
X187.278 Z-11.162
X187.531 Z-11.224
X187.686 Z-11.214
X187.818 Z-11.216
X187.944 Z-11.238
X188.253 Z-11.348
X188.445 Z-11.427
X188.583 Z-11.515
X188.647 Z-11.516
X188.833 Z-11.531
X188.945 Z-11.559
X189.073 Z-11.593
X189.167 Z-11.591
X189.328 Z-11.598
X189.414 Z-11.616
X189.487 Z-11.639
X189.575 Z-11.595
X189.689 Z-11.559
X189.865 Z-11.534
X190.13 Z-11.521
X190.267 Z-11.392
X190.374 Z-11.327
X190.488 Z-11.287
X190.734 Z-11.244
X191.115 Z-11.241
X191.556 Z-11.194
X191.681 Z-10.891
X191.839 Z-10.563
X192.062 Z-10.175
X192.2 Z-9.992
X192.448 Z-9.709
X192.595 Z-9.577
X192.862 Z-9.385
X193.144 Z-9.222
X193.355 Z-9.113
X193.587 Z-9.019
X193.623 Z-8.921
X193.674 Z-8.776
X193.737 Z-8.619
X193.836 Z-8.454
X194.001 Z-8.247
X194.095 Z-8.051
X194.178 Z-7.945
X194.277 Z-7.865
X194.385 Z-7.807
X194.555 Z-7.748
X194.846 Z-7.693
X194.98 Z-7.689
X195.292 Z-7.726
X195.485 Z-7.761
X195.858 Z-7.838
X196.175 Z-7.871
X196.369 Z-7.893
X196.609 Z-7.958
X196.792 Z-8.018
X197.14 Z-8.19
X197.404 Z-8.369
X197.605 Z-8.538
X197.815 Z-8.768
X197.907 Z-8.916
X198.615 Z-9.094
X199.552 Z-9.347
X199.853 Z-9.435
X199.978 Z-9.48
X200.094 Z-9.527
X200.194 Z-9.594
X200.219 Z-9.588
X200.363 Z-9.562
X200.495 Z-9.566
X201.645 Z-9.742
X203.615 Z-10.008
X204.769 Z-10.181
X205.336 Z-10.29
X205.786 Z-10.383
X206.36 Z-10.525
X206.801 Z-10.65
X207.144 Z-10.761
X207.716 Z-10.968
X208.08 Z-11.119
X208.319 Z-11.227
X209.014 Z-11.569
X209.243 Z-11.686
X209.33 Z-11.647
X209.448 Z-11.509
X209.64 Z-11.364
X209.771 Z-11.283
X209.94 Z-11.222
X210.117 Z-11.189
X210.312 Z-11.182
X210.473 Z-11.203
X210.689 Z-11.271
X210.862 Z-11.354
X211.286 Z-11.628
X211.427 Z-11.754
X211.597 Z-11.949
X211.687 Z-11.877
X211.772 Z-11.841
X211.831 Z-11.831
X211.898 Z-11.83
X212.096 Z-11.835
X212.416 Z-11.887
X212.724 Z-11.996
X212.839 Z-12.051
X212.963 Z-12.072
X213.193 Z-11.995
X213.441 Z-11.956
X213.887 Z-11.933
X214.226 Z-11.946
X214.349 Z-11.978
X214.462 Z-12.031
X214.561 Z-12.101
X219.618 Z-12.104
X219.694 Z-12.065
X219.808 Z-12.025
X219.936 Z-12.003
X270.009 Z-12.
X270.042 Z-11.993
X270.075 Z-11.985
Y6.008
X270.042 Z-11.993
X270.009 Z-12.
X219.936 Z-12.003
X219.808 Z-12.025
X219.671 Z-12.075
X214.648 Z-12.073
X214.537 Z-11.969
X214.441 Z-11.908
X214.295 Z-11.852
X214.122 Z-11.826
X213.824 Z-11.803
X213.618 Z-11.793
X213.329 Z-11.8
X213.166 Z-11.806
X212.954 Z-11.841
X212.8 Z-11.807
X212.198 Z-11.611
X211.913 Z-11.536
X211.849 Z-11.525
X211.735 Z-11.528
X211.602 Z-11.564
X211.561 Z-11.573
X211.492 Z-11.571
X211.441 Z-11.58
X211.39 Z-11.598
X211.336 Z-11.631
X211.281 Z-11.684
X211.159 Z-11.582
X210.71 Z-11.284
X210.596 Z-11.226
X210.412 Z-11.171
X210.219 Z-11.141
X210.004 Z-11.137
X209.837 Z-11.16
X209.666 Z-11.213
X209.557 Z-11.267
X209.362 Z-11.412
X209.234 Z-11.551
X208.424 Z-11.152
X208.003 Z-10.969
X207.711 Z-10.854
X207.094 Z-10.631
X206.464 Z-10.445
X206.212 Z-10.377
X205.438 Z-10.201
X204.594 Z-10.051
X204.072 Z-9.969
X203.11 Z-9.828
X201.784 Z-9.641
X200.643 Z-9.458
X200.426 Z-9.442
X200.326 Z-9.446
X200.234 Z-9.463
X200.101 Z-9.384
X199.881 Z-9.292
X199.4 Z-9.163
X199.147 Z-9.095
X197.936 Z-8.796
X197.814 Z-8.769
X197.695 Z-8.616
X197.499 Z-8.406
X197.453 Z-8.369
X197.05 Z-8.09
X196.937 Z-8.032
X196.699 Z-7.923
X196.577 Z-7.883
X196.261 Z-7.797
X196.068 Z-7.773
X195.802 Z-7.758
X195.731 Z-7.76
X195.433 Z-7.688
X195.108 Z-7.647
X194.918 Z-7.628
X194.759 Z-7.639
X194.421 Z-7.692
X194.251 Z-7.756
X194.146 Z-7.819
X194.049 Z-7.898
X193.964 Z-7.998
X193.931 Z-8.053
X193.881 Z-8.178
X193.841 Z-8.28
X193.7 Z-8.476
X193.626 Z-8.627
X193.56 Z-8.841
X193.538 Z-8.941
X193.214 Z-9.082
X192.815 Z-9.312
X192.534 Z-9.537
X192.329 Z-9.76
X192.165 Z-9.956
X192.064 Z-10.114
X191.839 Z-10.559
X191.668 Z-11.023
X191.519 Z-11.045
X191.21 Z-11.114
X190.998 Z-11.141
X190.694 Z-11.143
X190.435 Z-11.172
X190.292 Z-11.224
X190.16 Z-11.302
X190.025 Z-11.422
X189.886 Z-11.426
X189.651 Z-11.451
X189.504 Z-11.493
X189.315 Z-11.576
X189.037 Z-11.567
X188.852 Z-11.503
X188.725 Z-11.477
X188.575 Z-11.475
X188.411 Z-11.369
X188.174 Z-11.27
X188.002 Z-11.21
X187.875 Z-11.188
X187.68 Z-11.191
X187.61 Z-11.194
X187.372 Z-11.116
X187.243 Z-11.101
X186.913 Z-11.112
X186.573 Z-11.167
X186.262 Z-11.257
X185.86 Z-11.426
X185.667 Z-11.52
X185.151 Z-11.833
X184.847 Z-12.042
X184.804 Z-12.075
X178.482
X178.407 Z-11.934
X178.294 Z-11.764
X178.162 Z-11.636
X177.97 Z-11.493
X177.758 Z-11.38
X177.607 Z-11.32
X177.371 Z-11.242
X177.151 Z-11.099
X176.978 Z-11.019
X176.685 Z-10.907
X176.494 Z-10.87
X176.182 Z-10.829
X175.934 Z-10.798
X175.662 Z-10.766
X175.561 Z-10.764
X175.348 Z-10.748
X175.181 Z-10.758
X174.685 Z-10.814
X174.174 Z-10.93
X173.658 Z-11.089
X172.975 Z-11.316
X172.756 Z-11.408
X172.343 Z-11.603
X171.558 Z-12.075
X165.631
X165.01 Z-11.881
X164.752 Z-11.844
X164.316 Z-11.741
X163.787 Z-11.647
X163.592 Z-11.621
X163.345 Z-11.579
X162.964 Z-11.56
X162.48 Z-11.527
X162.18 Z-11.54
X161.879 Z-11.543
X161.477 Z-11.593
X161.131 Z-11.668
X160.932 Z-11.724
X160.654 Z-11.812
X160.433 Z-11.901
X160.304 Z-11.984
X160.183 Z-12.075
X34.932 Z-12.077
X34.463 Z-12.101
X34.086 Z-12.151
X33.956 Z-12.173
X33.597 Z-12.253
X33.469 Z-12.285
X32.992 Z-12.441
X32.519 Z-12.645
X32.096 Z-12.873
X31.9 Z-13.
X31.859 Z-13.012
X31.819
X31.802 Y6.009
X31.786 Y6.014
X31.771 Y6.022
X31.758 Y6.033
X31.747 Y6.046
X31.739 Y6.061
X31.734 Y6.077
X31.733 Y6.094
X31.734 Y6.111
X31.739 Y6.127 Z-13.011
X31.747 Y6.142
X31.758 Y6.155
X31.771 Y6.166
X31.786 Y6.174
X31.802 Y6.179
X31.819 Y6.181
X31.86 Z-12.999
X32.102 Z-12.844
X32.545 Z-12.609
X32.972 Z-12.428
X33.098 Z-12.383
X33.46 Z-12.267
X33.589 Z-12.234
X33.947 Z-12.154
X34.077 Z-12.132
X34.471 Z-12.08
X34.922 Z-12.057
X159.654 Z-12.055
X159.724 Z-11.977
X159.783 Z-11.934
X160.147 Z-11.754
X160.301 Z-11.698
X160.496 Z-11.627
X160.697 Z-11.577
X161.045 Z-11.514
X161.704 Z-11.446
X162.24 Z-11.427
X163.042 Z-11.477
X163.188 Z-11.5
X163.259 Z-11.508
X163.701 Z-11.566
X164.154 Z-11.642
X164.93 Z-11.785
X165.442 Z-11.899
X165.976 Z-12.05
X171.669 Z-12.055
X171.732 Z-12.014
X172.314 Z-11.652
X172.907 Z-11.353
X173.079 Z-11.287
X173.478 Z-11.133
X173.77 Z-11.031
X174.481 Z-10.825
X174.718 Z-10.764
X174.892 Z-10.731
X175.302 Z-10.677
X175.751 Z-10.665
X176.077 Z-10.704
X176.203 Z-10.73
X176.43 Z-10.801
X176.559 Z-10.822
X176.815 Z-10.869
X177.236 Z-11.006
X177.392 Z-11.094
X177.591 Z-11.194
X177.658 Z-11.238
X177.772 Z-11.265
X178.019 Z-11.369
X178.19 Z-11.458
X178.318 Z-11.548
X178.502 Z-11.72
X178.593 Z-11.836
X178.695 Z-12.055
X184.721
X184.753 Z-12.032
X185.09 Z-11.807
X185.416 Z-11.609
X185.623 Z-11.492
X185.73 Z-11.44
X186.311 Z-11.188
X186.599 Z-11.119
X186.877 Z-11.08
X187.274 Z-11.062
X187.434 Z-11.087
X187.676 Z-11.17
X187.88 Z-11.168
X188.056 Z-11.199
X188.243 Z-11.258
X188.36 Z-11.306
X188.58 Z-11.443
X188.667 Z-11.445
X188.794 Z-11.465
X188.985 Z-11.534
X189.117 Z-11.535
X189.152 Z-11.515
X189.477 Z-11.376
X189.623 Z-11.343
X189.916 Z-11.333
X189.962 Z-11.291
X190.06 Z-11.213
X190.245 Z-11.114
X190.388 Z-11.066
X190.674 Z-11.041
X190.988 Z-11.049
X191.279 Z-10.946
X191.609 Z-10.868
X191.769 Z-10.846
X191.796 Z-10.753
X191.89 Z-10.469
X192.095 Z-10.009
X192.196 Z-9.843
X192.326 Z-9.675
X192.542 Z-9.445
X192.784 Z-9.24
X193.169 Z-9.014
X193.465 Z-8.877
X193.474 Z-8.816
X193.551 Z-8.555
X193.611 Z-8.431
X193.705 Z-8.29
X193.735 Z-8.161
X193.781 Z-8.036
X193.854 Z-7.922
X193.943 Z-7.832
X194.044 Z-7.76
X194.207 Z-7.683
X194.437 Z-7.62
X194.696 Z-7.586
X194.887 Z-7.576
X195.148 Z-7.598
X195.591 Z-7.673
X195.767 Z-7.662
X196.163 Z-7.688
X196.482 Z-7.761
X196.662 Z-7.812
X196.952 Z-7.945
X197.262 Z-8.154
X197.357 Z-8.241
X197.537 Z-8.401
X197.622 Z-8.493
X197.733 Z-8.64
X198.041 Z-8.706
X198.605 Z-8.832
X199.306 Z-9.006
X199.986 Z-9.192
X200.162 Z-9.27
X200.263 Z-9.336
X200.322 Z-9.328
X200.496 Z-9.321
X200.628 Z-9.322
X200.822 Z-9.353
X201.831 Z-9.528
X204.116 Z-9.875
X204.62 Z-9.958
X205.138 Z-10.047
X205.524 Z-10.123
X206.036 Z-10.237
X206.516 Z-10.356
X207.222 Z-10.571
X207.656 Z-10.723
X208.001 Z-10.854
X208.491 Z-11.07
X209.194 Z-11.409
X209.226 Z-11.371
X209.312 Z-11.283
X209.414 Z-11.213
X209.579 Z-11.14
X209.753 Z-11.099
X209.946 Z-11.087
X210.141 Z-11.105
X210.331 Z-11.148
X210.575 Z-11.234
X210.854 Z-11.394
X210.998 Z-11.501
X211.023 Z-11.488
X211.083 Z-11.44
X211.189 Z-11.373
X211.304 Z-11.332
X211.438 Z-11.317
X211.738 Z-11.325
X211.949 Z-11.371
X212.143 Z-11.41
X212.445 Z-11.481
X212.706 Z-11.578
X212.941 Z-11.659
X213.244 Z-11.633
X213.408 Z-11.635
X213.915 Z-11.702
X214.173 Z-11.741
X214.356 Z-11.8
X214.525 Z-11.891
X214.622 Z-11.965
X214.704 Z-12.052
X219.717 Z-12.055
X219.808 Z-12.025
X219.936 Z-12.003
X270.009 Z-12.
X270.042 Z-11.993
X270.075 Z-11.985
Y6.354
X270.042 Z-11.993
X270.009 Z-12.
X219.936 Z-12.003
X219.774 Z-12.034
X214.943
X214.817 Z-11.969
X214.565 Z-11.887
X214.407 Z-11.774
X214.252 Z-11.695
X213.998 Z-11.613
X213.733 Z-11.565
X213.293 Z-11.491
X213.094 Z-11.496
X212.96
X212.833 Z-11.461
X212.36 Z-11.275
X212.228 Z-11.236
X211.972 Z-11.187
X211.471 Z-11.137
X211.355 Z-11.129
X211.045 Z-11.135
X210.987 Z-11.148
X210.875 Z-11.2
X210.776 Z-11.28
X210.72 Z-11.349
X210.56 Z-11.246
X210.355 Z-11.154
X210.106 Z-11.08
X209.881 Z-11.044
X209.683 Z-11.043
X209.557 Z-11.059
X209.414 Z-11.104
X209.279 Z-11.179
X209.167 Z-11.274
X208.305 Z-10.873
X207.942 Z-10.723
X207.574 Z-10.586
X207.2 Z-10.464
X206.572 Z-10.273
X205.935 Z-10.116
X205.435 Z-10.009
X204.725 Z-9.88
X203.637 Z-9.704
X202.483 Z-9.518
X201.151 Z-9.285
X200.641 Z-9.193
X200.516 Z-9.19
X200.296 Z-9.211
X200.214 Z-9.153
X200.064 Z-9.086
X199.916 Z-9.04
X199.359 Z-8.891
X198.976 Z-8.797
X198.413 Z-8.671
X197.731 Z-8.535
X197.673 Z-8.524
X197.54 Z-8.357
X197.319 Z-8.122
X197.045 Z-7.904
X196.905 Z-7.821
X196.669 Z-7.711
X196.484 Z-7.654
X196.357 Z-7.624
X196.099 Z-7.576
X195.852 Z-7.558
X195.718 Z-7.559
X195.335 Z-7.585
X195.085 Z-7.551
X194.955 Z-7.537
X194.723 Z-7.531
X194.494 Z-7.543
X194.086 Z-7.646
X193.975 Z-7.697
X193.873 Z-7.768
X193.782 Z-7.855
X193.703 Z-7.96
X193.641 Z-8.088
X193.559 Z-8.371
X193.456 Z-8.576
X193.413 Z-8.712
X193.393 Z-8.831
X193.273 Z-8.883
X193.006 Z-9.024
X192.821 Z-9.139
X192.679 Z-9.252
X192.373 Z-9.542
X192.263 Z-9.689
X192.111 Z-9.953
X191.93 Z-10.43
X191.854 Z-10.672
X191.696 Z-10.693
X191.388 Z-10.762
X190.897 Z-10.954
X190.58 Z-10.945
X190.35 Z-10.959
X190.206 Z-11.001
X189.99 Z-11.105
X189.891 Z-11.182
X189.817 Z-11.253
X189.587 Z-11.256
X189.353 Z-11.299
X189.157 Z-11.372
X189.024 Z-11.45
X188.99 Z-11.473
X188.877 Z-11.464
X188.665 Z-11.416
X188.583 Z-11.402
X188.471 Z-11.348
X188.311 Z-11.266
X188.145 Z-11.206
X188.003 Z-11.175
X187.759 Z-11.166
X187.517 Z-11.07
X187.391 Z-11.04
X187.228 Z-11.031
X187.006 Z-11.039
X186.92 Z-11.042
X186.649 Z-11.075
X186.394 Z-11.127
X186.17 Z-11.207
X185.777 Z-11.375
X185.551 Z-11.482
X185.329 Z-11.602
X185.002 Z-11.795
X184.791 Z-11.927
X184.593 Z-12.034
X178.904
X178.803 Z-11.821
X178.725 Z-11.698
X178.601 Z-11.567
X178.502 Z-11.49
X178.326 Z-11.395
X178.11 Z-11.297
X177.962 Z-11.244
X177.686 Z-11.073
X177.338 Z-10.931
X176.967 Z-10.83
X176.852 Z-10.804
X176.747 Z-10.759
X176.442 Z-10.658
X176.289 Z-10.633
X176.152 Z-10.605
X175.857 Z-10.582
X175.597 Z-10.595
X175.421 Z-10.612
X175.29 Z-10.629
X174.927 Z-10.692
X174.569 Z-10.773
X174.087 Z-10.903
X173.709 Z-11.031
X173.255 Z-11.204
X173.129 Z-11.249
X172.834 Z-11.385
X172.574 Z-11.535
X172.423 Z-11.634
X171.813 Z-12.034
X166.222 Z-12.03
X165.766 Z-11.897
X165.321 Z-11.794
X165.105 Z-11.721
X165.026 Z-11.691
X164.639 Z-11.622
X164.524 Z-11.597
X164.201 Z-11.545
X163.653 Z-11.501
X163.116 Z-11.435
X162.296 Z-11.369
X161.813 Z-11.367
X161.545
X160.714 Z-11.444
X160.401 Z-11.503
X160.024 Z-11.591
X159.858 Z-11.662
X159.726 Z-11.733
X159.626 Z-11.81
X159.512 Z-11.94
X159.457 Z-12.034
X34.944 Z-12.036
X34.442 Z-12.063
X33.966 Z-12.129
X33.478 Z-12.241
X33.065 Z-12.372
X32.588 Z-12.568
X32.155 Z-12.793
X31.826 Z-13.
X31.786 Z-13.012
X31.754
X31.737 Y6.355
X31.721 Y6.36
X31.706 Y6.368
X31.693 Y6.379
X31.682 Y6.392
X31.674 Y6.407
X31.669 Y6.423
X31.668 Y6.44
X31.669 Y6.457
X31.674 Y6.473
X31.682 Y6.488
X31.693 Y6.501
X31.706 Y6.512
X31.721 Y6.52
X31.737 Y6.525
X31.754 Y6.527
X31.795 Z-13.
X32.087 Z-12.813
X32.532 Z-12.576
X33.035 Z-12.365
X33.316 Z-12.275
X33.557 Z-12.203
X33.929 Z-12.121
X34.059 Z-12.097
X34.453 Z-12.045
X34.905 Z-12.022
X159.356 Z-12.018
X159.365 Z-11.995
X159.458 Z-11.803
X159.533 Z-11.694
X159.626 Z-11.603
X159.732 Z-11.537
X159.846 Z-11.494
X160.027 Z-11.46
X160.453 Z-11.38
X161.414 Z-11.321
X162.017
X162.583 Z-11.352
X162.762 Z-11.343
X163.293 Z-11.327
X164.165 Z-11.34
X164.595 Z-11.368
X165.081 Z-11.445
X165.208 Z-11.473
X165.523 Z-11.56
X165.641 Z-11.603
X165.858 Z-11.736
X166.038 Z-11.818
X166.253 Z-11.942
X166.458 Z-12.014
X171.879 Z-12.018
X172.004 Z-11.923
X172.206 Z-11.737
X172.45 Z-11.546
X172.645 Z-11.402
X173.092 Z-11.169
X173.69 Z-10.951
X174.293 Z-10.818
X174.648 Z-10.725
X174.95 Z-10.656
X175.4 Z-10.571
X175.607 Z-10.547
X175.789 Z-10.52
X175.988 Z-10.512
X176.245 Z-10.517
X176.508 Z-10.539
X176.763 Z-10.6
X177.013 Z-10.674
X177.181 Z-10.747
X177.305 Z-10.826
X177.488 Z-10.866
X177.675 Z-10.917
X177.833 Z-10.979
X178.198 Z-11.171
X178.309 Z-11.266
X178.459 Z-11.33
X178.674 Z-11.429
X178.787 Z-11.513
X178.886 Z-11.625
X179.051 Z-11.888
X179.097 Z-12.018
X184.328
X184.379 Z-12.004
X184.571 Z-11.941
X184.809 Z-11.838
X184.923 Z-11.767
X185.18 Z-11.632
X185.452 Z-11.486
X185.72 Z-11.36
X186.113 Z-11.193
X186.348 Z-11.108
X186.463 Z-11.076
X186.579 Z-11.053
X186.847 Z-11.014
X187.269 Z-11.006
X187.514 Z-11.038
X187.7 Z-11.089
X187.872 Z-11.167
X187.993 Z-11.171
X188.153 Z-11.193
X188.305 Z-11.246
X188.468 Z-11.328
X188.591 Z-11.377
X188.788 Z-11.417
X188.852 Z-11.423
X189.036 Z-11.299
X189.176 Z-11.239
X189.47 Z-11.179
X189.704 Z-11.174
X189.824 Z-11.068
X189.979 Z-10.967
X190.063 Z-10.932
X190.322 Z-10.869
X190.464 Z-10.852
X190.645 Z-10.854
X190.779 Z-10.867
X190.892 Z-10.817
X191.306 Z-10.649
X191.419 Z-10.611
X191.664 Z-10.559
X191.747 Z-10.547
X191.928 Z-10.543
X192.016 Z-10.23
X192.097 Z-9.974
X192.267 Z-9.65
X192.339 Z-9.541
X192.465 Z-9.393
X192.695 Z-9.176
X192.81 Z-9.08
X193.128 Z-8.879
X193.328 Z-8.783
X193.329 Z-8.772
X193.36 Z-8.62
X193.433 Z-8.437
X193.456 Z-8.306
X193.492 Z-8.159
X193.576 Z-7.981
X193.651 Z-7.875
X193.739 Z-7.785
X193.89 Z-7.681
X194.013 Z-7.623
X194.239 Z-7.547
X194.49 Z-7.501
X194.859 Z-7.495
X195.107 Z-7.517
X195.248 Z-7.494
X195.379 Z-7.479
X195.746 Z-7.448
X195.88 Z-7.443
X196.159 Z-7.48
X196.51 Z-7.558
X196.629 Z-7.601
X196.82 Z-7.709
X197.02 Z-7.811
X197.145 Z-7.908
X197.397 Z-8.155
X197.589 Z-8.41
X197.907 Z-8.466
X198.604 Z-8.596
X199.104 Z-8.706
X199.487 Z-8.796
X200.06 Z-8.947
X200.203 Z-9.014
X200.306 Z-9.089
X200.334 Z-9.084
X200.489 Z-9.056
X200.619 Z-9.062
X201.134 Z-9.162
X202.141 Z-9.35
X202.89 Z-9.484
X204.03 Z-9.674
X205.196 Z-9.869
X205.839 Z-10.
X206.349 Z-10.123
X206.793 Z-10.239
X207.607 Z-10.491
X208.31 Z-10.762
X209.159 Z-11.156
X209.264 Z-11.095
X209.432 Z-11.031
X209.582 Z-11.003
X209.748 Z-10.999
X210.037 Z-11.05
X210.193 Z-11.096
X210.43 Z-11.199
X210.437 Z-11.186
X210.502 Z-11.099
X210.578 Z-11.038
X210.688 Z-10.985
X210.794 Z-10.957
X211.074 Z-10.939
X211.382 Z-10.963
X211.419 Z-10.96
X211.565 Z-10.943
X211.663 Z-10.949
X211.921 Z-10.988
X212.259 Z-11.082
X212.816 Z-11.313
X212.883 Z-11.33
X213.214 Z-11.35
X213.65 Z-11.434
X214.026 Z-11.553
X214.322 Z-11.677
X214.41 Z-11.691
X214.653 Z-11.755
X214.906 Z-11.866
X215.157 Z-12.018
X219.808
X219.936 Z-12.003
X270.009 Z-12.
X270.042 Z-11.993
X270.075 Z-11.985
Y6.7
X270.042 Z-11.993
X270.009 Z-12.
X219.936 Z-12.003
X219.866 Z-12.011
X215.267 Z-12.009
X214.904 Z-11.786
X214.746 Z-11.702
X214.436 Z-11.606
X214.201 Z-11.565
X214.021 Z-11.489
X213.669 Z-11.336
X213.483 Z-11.279
X213.163 Z-11.208
X213.034 Z-11.197
X212.9
X212.768 Z-11.173
X212.232 Z-10.947
X211.864 Z-10.811
X211.559 Z-10.751
X211.429 Z-10.744
X211.295 Z-10.763
X211.17 Z-10.788
X210.701 Z-10.766
X210.575 Z-10.782
X210.461 Z-10.818
X210.352 Z-10.871
X210.252 Z-10.95
X210.206 Z-11.007
X210.166 Z-11.082
X209.98 Z-11.025
X209.79 Z-10.976
X209.661 Z-10.961
X209.458 Z-10.977
X209.294 Z-11.012
X209.181 Z-11.055
X208.524 Z-10.754
X208.223 Z-10.626
X207.671 Z-10.416
X207.109 Z-10.236
X206.858 Z-10.162
X206.095 Z-9.968
X205.967 Z-9.938
X205.209 Z-9.783
X203.927 Z-9.566
X203.047 Z-9.414
X202.157 Z-9.246
X201.654 Z-9.145
X200.649 Z-8.947
X200.52 Z-8.939
X200.386 Z-8.958
X200.328 Z-8.973
X200.172 Z-8.869
X200.057 Z-8.819
X199.423 Z-8.658
X198.744 Z-8.512
X198.11 Z-8.401
X197.483 Z-8.292
X197.373 Z-8.136
X197.161 Z-7.897
X197.04 Z-7.801
X196.847 Z-7.682
X196.698 Z-7.58
X196.462 Z-7.482
X196.214 Z-7.401
X195.958 Z-7.35
X195.793 Z-7.343
X195.508 Z-7.363
X195.377 Z-7.375
X195.129 Z-7.412
X194.833 Z-7.473
X194.531 Z-7.465
X194.314 Z-7.492
X194.127 Z-7.531
X193.876 Z-7.627
X193.743 Z-7.705
X193.602 Z-7.815
X193.515 Z-7.907
X193.425 Z-8.045
X193.374 Z-8.178
X193.352 Z-8.323
X193.343 Z-8.435
X193.276 Z-8.704
X193.271 Z-8.736
X193.165 Z-8.792
X192.851 Z-8.989
X192.686 Z-9.123
X192.53 Z-9.272
X192.35 Z-9.491
X192.266 Z-9.633
X192.106 Z-10.009
X192.007 Z-10.386
X191.997 Z-10.436
X191.868 Z-10.425
X191.607 Z-10.437
X191.433 Z-10.478
X191.208 Z-10.551
X190.936 Z-10.671
X190.712 Z-10.778
X190.462 Z-10.758
X190.261 Z-10.768
X190.107 Z-10.806
X189.911 Z-10.877
X189.805 Z-10.939
X189.644 Z-11.059
X189.602 Z-11.095
X189.251 Z-11.128
X189.106 Z-11.158
X188.993 Z-11.201
X188.887 Z-11.265
X188.726 Z-11.37
X188.61 Z-11.347
X188.496 Z-11.311
X188.265 Z-11.221
X188.139 Z-11.193
X187.948 Z-11.176
X187.833 Z-11.104
X187.715 Z-11.056
X187.549 Z-11.025
X187.378 Z-11.005
X187.213 Z-10.979
X186.875 Z-10.978
X186.65 Z-11.004
X186.32 Z-11.088
X186.151 Z-11.144
X185.931 Z-11.232
X185.486 Z-11.427
X185.262 Z-11.538
X184.864 Z-11.721
X184.578 Z-11.828
X184.338 Z-11.894
X183.905 Z-11.975
X183.728 Z-12.011
X179.272
X179.243 Z-11.914
X179.129 Z-11.701
X179.065 Z-11.605
X178.936 Z-11.473
X178.783 Z-11.369
X178.617 Z-11.283
X178.505 Z-11.172
X178.35 Z-11.066
X178.124 Z-10.949
X177.942 Z-10.88
X177.681 Z-10.815
X177.644 Z-10.805
X177.489 Z-10.704
X177.317 Z-10.617
X177.195 Z-10.577
X176.699 Z-10.455
X176.499 Z-10.436
X176.101 Z-10.438
X175.854 Z-10.459
X175.519 Z-10.521
X175.358 Z-10.547
X175.243 Z-10.572
X175.056 Z-10.591
X174.941 Z-10.619
X174.623 Z-10.656
X174.187 Z-10.739
X173.734 Z-10.862
X173.15 Z-11.085
X172.775 Z-11.285
X172.548 Z-11.426
X172.212 Z-11.706
X171.891 Z-12.011
X166.812
X166.52 Z-11.8
X166.07 Z-11.541
X165.893 Z-11.466
X165.644 Z-11.382
X165.328 Z-11.291
X165.169 Z-11.258
X164.549 Z-11.202
X164.014 Z-11.2
X162.853 Z-11.234
X162.135 Z-11.294
X160.983 Z-11.293
X160.594 Z-11.311
X160.208 Z-11.343
X159.858 Z-11.395
X159.742 Z-11.43
X159.633 Z-11.484
X159.532 Z-11.56
X159.445 Z-11.654
X159.373 Z-11.769
X159.32 Z-11.909
X159.294 Z-12.011
X34.915 Z-12.014
X34.461 Z-12.038
X33.965 Z-12.106
X33.469 Z-12.22
X33.001 Z-12.371
X32.537 Z-12.566
X32.106 Z-12.793
X31.781 Z-13.
X31.741 Z-13.012
X31.73
Y6.873
X31.771 Z-13.
X32.096 Z-12.793
X32.541 Z-12.558
X33.002 Z-12.364
X33.48 Z-12.21
X33.968 Z-12.099
X34.45 Z-12.032
X34.947 Z-12.006
X159.259 Z-12.005
X159.265 Z-11.969
X159.308 Z-11.808
X159.383 Z-11.663
X159.462 Z-11.56
X159.554 Z-11.475
X159.658 Z-11.407
X159.769 Z-11.358
X159.892 Z-11.328
X160.163 Z-11.297
X160.659 Z-11.272
X160.994 Z-11.271
X161.578 Z-11.267
X161.695 Z-11.26
X162.057 Z-11.226
X162.813 Z-11.158
X163.673 Z-11.12
X164.544 Z-11.114
X165.211 Z-11.152
X165.726 Z-11.243
X166.116 Z-11.362
X166.43 Z-11.495
X166.682 Z-11.641
X167.206 Z-12.001
X171.881 Z-12.005
X171.892 Z-11.996
X172.302 Z-11.617
X172.546 Z-11.421
X172.83 Z-11.233
X173.137 Z-11.046
X173.797 Z-10.784
X174.24 Z-10.657
X174.713 Z-10.551
X175.221 Z-10.482
X175.457 Z-10.458
X175.725 Z-10.447
X176.049 Z-10.393
X176.398 Z-10.355
X176.732 Z-10.35
X177.08 Z-10.397
X177.452 Z-10.503
X177.612 Z-10.567
X177.784 Z-10.663
X177.998 Z-10.792
X178.118 Z-10.822
X178.303 Z-10.88
X178.481 Z-10.958
X178.702 Z-11.089
X178.792 Z-11.163
X178.892 Z-11.296
X178.997 Z-11.365
X179.228 Z-11.579
X179.296 Z-11.672
X179.388 Z-11.856
X179.433 Z-12.005
X182.693
X182.843 Z-11.991
X183.74 Z-11.868
X184.504 Z-11.74
X184.869 Z-11.639
X185.115 Z-11.551
X185.372 Z-11.431
X185.69 Z-11.295
X185.963 Z-11.183
X186.256 Z-11.083
X186.383 Z-11.047
X186.681 Z-10.972
X186.868 Z-10.945
X187.179 Z-10.955
X187.359 Z-10.985
X187.682 Z-11.038
X187.803 Z-11.077
X187.937 Z-11.147
X187.998 Z-11.191
X188.094 Z-11.197
X188.254 Z-11.216
X188.372 Z-11.253
X188.559 Z-11.306
X188.651 Z-11.321
X188.681 Z-11.296
X188.917 Z-11.135
X189.029 Z-11.088
X189.248 Z-11.045
X189.527 Z-11.017
X189.697 Z-10.874
X189.829 Z-10.795
X190.031 Z-10.721
X190.18 Z-10.684
X190.376 Z-10.676
X190.626 Z-10.698
X190.961 Z-10.533
X191.216 Z-10.415
X191.533 Z-10.327
X191.667 Z-10.318
X191.863 Z-10.342
X192.037 Z-10.371
X192.063 Z-10.353
X192.086 Z-10.219
X192.161 Z-9.904
X192.222 Z-9.733
X192.326 Z-9.517
X192.506 Z-9.254
X192.637 Z-9.113
X192.79 Z-8.981
X192.972 Z-8.85
X193.212 Z-8.707
X193.235 Z-8.556
X193.267 Z-8.222
X193.298 Z-8.108
X193.349 Z-8.
X193.424 Z-7.893
X193.519 Z-7.798
X193.734 Z-7.641
X193.878 Z-7.563
X194.056 Z-7.51
X194.407 Z-7.454
X194.599 Z-7.444
X194.759 Z-7.396
X195.046 Z-7.325
X195.351 Z-7.275
X195.544 Z-7.261
X195.88 Z-7.263
X196.007 Z-7.281
X196.224 Z-7.344
X196.663 Z-7.551
X196.877 Z-7.688
X197.095 Z-7.863
X197.202 Z-7.973
X197.355 Z-8.182
X198.223 Z-8.322
X198.987 Z-8.446
X199.501 Z-8.556
X200.011 Z-8.678
X200.13 Z-8.721
X200.353 Z-8.857
X200.442 Z-8.835
X200.576 Z-8.824
X200.672 Z-8.833
X202.838 Z-9.279
X203.588 Z-9.417
X204.609 Z-9.596
X205.385 Z-9.733
X206.079 Z-9.873
X206.525 Z-9.984
X207.032 Z-10.12
X207.533 Z-10.273
X208.047 Z-10.458
X208.501 Z-10.647
X209.219 Z-10.967
X209.263 Z-10.959
X209.457 Z-10.93
X209.623 Z-10.926
X209.752 Z-10.941
X209.942 Z-10.989
X209.976 Z-10.925
X210.056 Z-10.825
X210.151 Z-10.74
X210.258 Z-10.681
X210.371 Z-10.641
X210.496 Z-10.619
X210.959 Z-10.61
X211.166 Z-10.569
X211.315 Z-10.555
X211.444 Z-10.567
X211.664 Z-10.623
X211.813 Z-10.679
X211.906 Z-10.703
X212.259 Z-10.847
X212.739 Z-11.057
X213.151 Z-11.104
X213.537 Z-11.205
X214.073 Z-11.436
X214.313 Z-11.498
X214.672 Z-11.608
X214.921 Z-11.72
X215.348 Z-12.001
X219.92 Z-12.004
X270.009 Z-12.
X270.042 Z-11.993
X270.075 Z-11.985
Y7.045
X270.042 Z-11.993
X270.009 Z-12.
X215.432
X215.023 Z-11.709
X214.883 Z-11.634
X214.644 Z-11.531
X214.332 Z-11.436
X213.984 Z-11.339
X213.881 Z-11.3
X213.721 Z-11.215
X213.483 Z-11.107
X213.111 Z-10.992
X212.719 Z-10.945
X212.223 Z-10.726
X211.92 Z-10.593
X211.643 Z-10.497
X211.406 Z-10.413
X211.216 Z-10.373
X211.084 Z-10.37
X210.95 Z-10.376
X210.816 Z-10.379
X210.699 Z-10.408
X210.567 Z-10.465
X210.299 Z-10.474
X210.163 Z-10.512
X209.999 Z-10.58
X209.896 Z-10.652
X209.808 Z-10.749
X209.742 Z-10.863
X209.732 Z-10.873
X209.472 Z-10.868
X209.261 Z-10.883
X208.432 Z-10.52
X208.19 Z-10.422
X207.945 Z-10.326
X207.475 Z-10.159
X207.225 Z-10.084
X206.592 Z-9.911
X206.081 Z-9.79
X205.709 Z-9.715
X205.206 Z-9.619
X203.868 Z-9.381
X203.566 Z-9.322
X202.818 Z-9.177
X201.946 Z-8.991
X200.733 Z-8.727
X200.637 Z-8.711
X200.505 Z-8.713
X200.373 Z-8.74
X200.176 Z-8.621
X200.059 Z-8.571
X199.616 Z-8.463
X199.231 Z-8.38
X198.972 Z-8.332
X198.076 Z-8.202
X197.309 Z-8.09
X197.223 Z-8.074
X197.096 Z-7.905
X196.934 Z-7.74
X196.7 Z-7.576
X196.429 Z-7.43
X196.29 Z-7.346
X196.113 Z-7.268
X195.926 Z-7.219
X195.733 Z-7.19
X195.374 Z-7.192
X194.967 Z-7.24
X194.624 Z-7.335
X194.332 Z-7.44
X193.97 Z-7.499
X193.855 Z-7.533
X193.692 Z-7.612
X193.46 Z-7.77
X193.342 Z-7.88
X193.265 Z-7.988
X193.206 Z-8.12
X193.17 Z-8.279
X193.161 Z-8.402
X193.157 Z-8.569
X193.144 Z-8.687
X192.96 Z-8.801
X192.672 Z-9.027
X192.491 Z-9.234
X192.386 Z-9.394
X192.302 Z-9.568
X192.221 Z-9.804
X192.159 Z-10.096
X192.149 Z-10.188
X192.024 Z-10.305
X191.738 Z-10.221
X191.609 Z-10.211
X191.475 Z-10.226
X191.119 Z-10.337
X191.01 Z-10.387
X190.678 Z-10.569
X190.568 Z-10.619
X190.257 Z-10.594
X190.124 Z-10.6
X189.971 Z-10.637
X189.775 Z-10.707
X189.642 Z-10.785
X189.436 Z-10.952
X189.046 Z-11.006
X188.931 Z-11.043
X188.797 Z-11.116
X188.668 Z-11.202
X188.585 Z-11.277
X188.528 Z-11.276
X188.328 Z-11.236
X188.185 Z-11.206
X188.043 Z-11.203
X187.907 Z-11.113
X187.792 Z-11.063
X187.631 Z-11.026
X187.517 Z-11.015
X187.328 Z-10.955
X187.188 Z-10.936
X186.913 Z-10.916
X186.748 Z-10.935
X186.218 Z-11.069
X185.872 Z-11.191
X185.625 Z-11.285
X185.069 Z-11.501
X184.944 Z-11.54
X184.575 Z-11.616
X183.431 Z-11.786
X181.234 Z-12.
X179.58 Z-11.997
X179.542 Z-11.84
X179.492 Z-11.73
X179.418 Z-11.62
X179.203 Z-11.39
X179.05 Z-11.18
X178.974 Z-11.102
X178.876 Z-11.028
X178.583 Z-10.864
X178.374 Z-10.8
X178.304 Z-10.78
X178.183 Z-10.691
X177.872 Z-10.511
X177.758 Z-10.459
X177.509 Z-10.384
X177.19 Z-10.307
X176.996 Z-10.282
X176.649 Z-10.278
X176.132 Z-10.343
X175.868 Z-10.339
X175.347 Z-10.372
X174.837 Z-10.452
X174.309 Z-10.587
X173.83 Z-10.729
X173.704 Z-10.774
X173.293 Z-10.954
X173.129 Z-11.035
X172.914 Z-11.167
X172.501 Z-11.451
X172.317 Z-11.603
X172.032 Z-11.859
X171.891 Z-12.
X167.594 Z-11.998
X167.177 Z-11.722
X166.721 Z-11.459
X166.478 Z-11.367
X165.979 Z-11.197
X165.332 Z-11.082
X164.643 Z-11.05
X163.915 Z-11.049
X163.023 Z-11.072
X162.538 Z-11.108
X161.313 Z-11.247
X161.065 Z-11.264
X160.327 Z-11.273
X160.137 Z-11.267
X159.863 Z-11.293
X159.747 Z-11.324
X159.636 Z-11.375
X159.533 Z-11.444
X159.441 Z-11.532
X159.363 Z-11.638
X159.302 Z-11.764
X159.26 Z-11.923
X159.252 Z-12.
X34.936 Z-12.002
X34.464 Z-12.026
X34.086 Z-12.076
X33.956 Z-12.097
X33.585 Z-12.179
X33.456 Z-12.213
X33.093 Z-12.327
X32.968 Z-12.373
X32.544 Z-12.551
X32.128 Z-12.769
X31.763 Z-13.
X31.723 Z-13.012
Y7.218
X31.763 Z-13.
X32.128 Z-12.769
X32.544 Z-12.551
X32.968 Z-12.373
X33.093 Z-12.327
X33.456 Z-12.213
X33.585 Z-12.179
X33.956 Z-12.097
X34.086 Z-12.076
X34.464 Z-12.026
X34.934 Z-12.002
X159.25 Z-12.
X159.264 Z-11.881
X159.307 Z-11.736
X159.37 Z-11.615
X159.45 Z-11.513
X159.543 Z-11.428
X159.646 Z-11.362
X159.758 Z-11.313
X159.874 Z-11.284
X160.127 Z-11.265
X160.44 Z-11.272
X160.883 Z-11.251
X161.327 Z-11.197
X162.227 Z-11.09
X163.002 Z-11.003
X163.664 Z-10.973
X164.217 Z-10.972
X164.82 Z-10.981
X165.27 Z-11.015
X165.465 Z-11.036
X165.841 Z-11.098
X166.161 Z-11.166
X166.342 Z-11.214
X166.812 Z-11.381
X167.348 Z-11.641
X167.627 Z-11.803
X167.888 Z-12.
X171.918
X171.97 Z-11.942
X172.261 Z-11.644
X172.591 Z-11.365
X172.918 Z-11.135
X173.32 Z-10.903
X173.715 Z-10.722
X174.08 Z-10.609
X174.785 Z-10.412
X174.944 Z-10.375
X175.318 Z-10.311
X175.449 Z-10.292
X175.698 Z-10.271
X175.984 Z-10.253
X176.447 Z-10.264
X176.684 Z-10.242
X176.921 Z-10.231
X177.146 Z-10.227
X177.398 Z-10.251
X177.864 Z-10.348
X178.012 Z-10.406
X178.293 Z-10.572
X178.601 Z-10.781
X178.726 Z-10.823
X178.886 Z-10.9
X179.071 Z-10.989
X179.186 Z-11.075
X179.336 Z-11.244
X179.427 Z-11.381
X179.479 Z-11.511
X179.519 Z-11.556
X179.608 Z-11.677
X179.671 Z-11.814
X179.715 Z-12.
X180.14
X180.796 Z-11.923
X181.779 Z-11.824
X182.324 Z-11.769
X183.214 Z-11.687
X183.591 Z-11.64
X184.595 Z-11.517
X184.854 Z-11.476
X185.286 Z-11.369
X186.149 Z-11.065
X186.547 Z-10.965
X186.796 Z-10.913
X186.963 Z-10.9
X187.209 Z-10.917
X187.36 Z-10.945
X187.587 Z-11.025
X187.733 Z-11.047
X187.855 Z-11.083
X187.969 Z-11.137
X188.071 Z-11.207
X188.185 Z-11.211
X188.404 Z-11.247
X188.504 Z-11.254
X188.64 Z-11.119
X188.797 Z-11.021
X188.908 Z-10.976
X189.082 Z-10.935
X189.368 Z-10.896
X189.608 Z-10.704
X189.821 Z-10.592
X189.992 Z-10.54
X190.126 Z-10.525
X190.523 Z-10.541
X190.935 Z-10.311
X191.044 Z-10.259
X191.157 Z-10.219
X191.393 Z-10.166
X191.572 Z-10.148
X191.72 Z-10.154
X191.844 Z-10.184
X192.024 Z-10.258
X192.084 Z-10.188
X192.211 Z-10.058
X192.222 Z-9.961
X192.284 Z-9.673
X192.34 Z-9.468
X192.396 Z-9.341
X192.472 Z-9.227
X192.715 Z-8.947
X192.863 Z-8.828
X193.066 Z-8.674
X193.07 Z-8.413
X193.097 Z-8.265
X193.156 Z-8.102
X193.229 Z-7.949
X193.308 Z-7.844
X193.374 Z-7.78
X193.54 Z-7.654
X193.698 Z-7.565
X193.865 Z-7.497
X193.994 Z-7.47
X194.378 Z-7.327
X194.689 Z-7.226
X194.994 Z-7.166
X195.294 Z-7.142
X195.562 Z-7.139
X195.757 Z-7.161
X195.946 Z-7.207
X196.186 Z-7.299
X196.383 Z-7.415
X196.502 Z-7.466
X196.675 Z-7.547
X196.869 Z-7.696
X197.003 Z-7.824
X197.111 Z-7.97
X197.278 Z-8.004
X198.176 Z-8.119
X198.684 Z-8.185
X199.073 Z-8.24
X199.54 Z-8.327
X200.048 Z-8.455
X200.195 Z-8.512
X200.387 Z-8.622
X200.428 Z-8.612
X200.562 Z-8.594
X200.691 Z-8.604
X202.446 Z-9.001
X203.577 Z-9.237
X203.949 Z-9.316
X205.217 Z-9.54
X205.976 Z-9.687
X206.489 Z-9.802
X206.871 Z-9.897
X207.439 Z-10.054
X207.984 Z-10.249
X208.459 Z-10.436
X209.285 Z-10.798
X209.499 Z-10.786
X209.538 Z-10.715
X209.609 Z-10.601
X209.736 Z-10.483
X209.86 Z-10.414
X210.087 Z-10.342
X210.275 Z-10.316
X210.381 Z-10.26
X210.632 Z-10.176
X210.766 Z-10.162
X210.912 Z-10.171
X211.248 Z-10.232
X211.755 Z-10.429
X212.555 Z-10.794
X212.684 Z-10.841
X212.928 Z-10.873
X213.12 Z-10.904
X213.365 Z-10.987
X213.601 Z-11.098
X213.88 Z-11.254
X214.124 Z-11.321
X214.503 Z-11.43
X214.685 Z-11.492
X214.947 Z-11.62
X215.307 Z-11.847
X215.516 Z-12.
X270.009
X270.042 Z-11.993
X270.075 Z-11.985
Y7.391
X270.042 Z-11.993
X270.009 Z-12.
X215.572
X215.237 Z-11.76
X215.016 Z-11.619
X214.905 Z-11.555
X214.684 Z-11.446
X214.376 Z-11.335
X214.188 Z-11.281
X213.805 Z-11.187
X213.469 Z-10.991
X213.233 Z-10.886
X213.049 Z-10.819
X212.859 Z-10.783
X212.663 Z-10.758
X212.547 Z-10.717
X211.855 Z-10.399
X211.62 Z-10.287
X211.257 Z-10.134
X210.83 Z-10.012
X210.702 Z-9.989
X210.571 Z-9.99
X210.504 Z-9.996
X210.37 Z-10.004
X210.254 Z-10.042
X210.043 Z-10.148
X210.015 Z-10.169
X209.718 Z-10.234
X209.6 Z-10.286
X209.498 Z-10.359
X209.451 Z-10.408
X209.364 Z-10.546
X209.299 Z-10.707
X208.428 Z-10.331
X208. Z-10.164
X207.63 Z-10.033
X207.223 Z-9.904
X206.747 Z-9.783
X206.236 Z-9.662
X205.477 Z-9.509
X204.844 Z-9.395
X203.836 Z-9.211
X203.465 Z-9.13
X202.849 Z-8.996
X201.595 Z-8.708
X200.712 Z-8.506
X200.582 Z-8.498
X200.399 Z-8.509
X200.331 Z-8.467
X200.173 Z-8.383
X199.998 Z-8.327
X199.616 Z-8.232
X199.101 Z-8.134
X198.451 Z-8.046
X197.938 Z-8.
X197.311 Z-7.93
X197.016 Z-7.879
X196.913 Z-7.755
X196.726 Z-7.575
X196.623 Z-7.505
X196.455 Z-7.432
X196.222 Z-7.35
X195.931 Z-7.216
X195.747 Z-7.153
X195.556 Z-7.111
X195.225 Z-7.093
X195.024 Z-7.1
X194.79 Z-7.135
X194.674 Z-7.16
X194.32 Z-7.26
X193.943 Z-7.388
X193.696 Z-7.509
X193.426 Z-7.685
X193.286 Z-7.802
X193.167 Z-7.952
X193.104 Z-8.064
X193.053 Z-8.189
X193.008 Z-8.402
X193.004 Z-8.662
X192.764 Z-8.86
X192.638 Z-9.
X192.5 Z-9.175
X192.416 Z-9.32
X192.343 Z-9.503
X192.295 Z-9.719
X192.275 Z-9.933
X192.184 Z-10.022
X192.035 Z-10.218
X192.028 Z-10.228
X191.885 Z-10.151
X191.732 Z-10.102
X191.605 Z-10.08
X191.381 Z-10.079
X191.229 Z-10.101
X190.991 Z-10.188
X190.828 Z-10.267
X190.474 Z-10.478
X190.08 Z-10.456
X189.979 Z-10.463
X189.855 Z-10.491
X189.716 Z-10.554
X189.535 Z-10.658
X189.415 Z-10.759
X189.328 Z-10.846
X189.081 Z-10.881
X188.857 Z-10.929
X188.723 Z-10.981
X188.593 Z-11.062
X188.394 Z-11.234
X188.177 Z-11.23
X188.119 Z-11.225
X188.001 Z-11.145
X187.887 Z-11.093
X187.763 Z-11.058
X187.661 Z-11.043
X187.55 Z-10.989
X187.302 Z-10.914
X187.117 Z-10.887
X186.91 Z-10.886
X186.667 Z-10.922
X186.538 Z-10.949
X186.104 Z-11.051
X185.927 Z-11.105
X185.443 Z-11.271
X185.187 Z-11.33
X184.684 Z-11.413
X184.294 Z-11.463
X183.326 Z-11.556
X181.99 Z-11.679
X180.985 Z-11.79
X179.969 Z-11.913
X179.835 Z-11.932
X179.764 Z-11.721
X179.697 Z-11.593
X179.632 Z-11.393
X179.581 Z-11.298
X179.486 Z-11.184
X179.275 Z-10.988
X179.116 Z-10.892
X178.856 Z-10.78
X178.733 Z-10.676
X178.514 Z-10.524
X178.344 Z-10.399
X178.202 Z-10.332
X178.017 Z-10.273
X177.695 Z-10.214
X177.449 Z-10.18
X177.114 Z-10.181
X176.787 Z-10.209
X176.365 Z-10.175
X175.822 Z-10.193
X175.367 Z-10.248
X174.847 Z-10.36
X174.603 Z-10.42
X174.199 Z-10.512
X173.84 Z-10.63
X173.592 Z-10.729
X173.246 Z-10.901
X172.896 Z-11.12
X172.608 Z-11.331
X172.38 Z-11.527
X172.084 Z-11.847
X171.963 Z-12.
X168.159
X167.781 Z-11.732
X167.12 Z-11.411
X166.849 Z-11.3
X166.443 Z-11.176
X166.316 Z-11.14
X165.838 Z-11.027
X165.549 Z-10.972
X165.289 Z-10.94
X164.897 Z-10.9
X164.361 Z-10.894
X163.826 Z-10.912
X163.062 Z-10.957
X162.358 Z-11.032
X161.233 Z-11.174
X160.792 Z-11.233
X160.182 Z-11.281
X159.925 Z-11.284
X159.807 Z-11.305
X159.694 Z-11.346
X159.586 Z-11.406
X159.488 Z-11.484
X159.402 Z-11.58
X159.331 Z-11.694
X159.278 Z-11.831
X159.252 Z-11.982
X159.25 Z-12.
X34.935 Z-12.002
X34.464 Z-12.026
X34.086 Z-12.076
X33.956 Z-12.097
X33.585 Z-12.179
X33.456 Z-12.213
X33.093 Z-12.327
X32.968 Z-12.373
X32.544 Z-12.551
X32.128 Z-12.769
X31.763 Z-13.
X31.723 Z-13.012
Y7.564
X31.763 Z-13.
X32.128 Z-12.769
X32.544 Z-12.551
X32.968 Z-12.373
X33.093 Z-12.327
X33.456 Z-12.213
X33.585 Z-12.179
X33.956 Z-12.097
X34.086 Z-12.076
X34.464 Z-12.026
X34.936 Z-12.002
X159.25 Z-12.
X159.28 Z-11.836
X159.311 Z-11.75
X159.377 Z-11.629
X159.458 Z-11.527
X159.553 Z-11.444
X159.658 Z-11.379
X159.77 Z-11.332
X159.887 Z-11.305
X160.181 Z-11.275
X160.909 Z-11.209
X161.417 Z-11.145
X161.925 Z-11.082
X162.535 Z-10.993
X162.954 Z-10.955
X163.504 Z-10.899
X164.447 Z-10.834
X164.94 Z-10.851
X165.554 Z-10.891
X166.101 Z-11.007
X166.465 Z-11.117
X167.198 Z-11.356
X167.533 Z-11.513
X167.752 Z-11.615
X167.998 Z-11.738
X168.393 Z-12.
X172.014
X172.118 Z-11.859
X172.391 Z-11.541
X172.588 Z-11.354
X172.895 Z-11.103
X173.327 Z-10.835
X173.517 Z-10.732
X173.764 Z-10.616
X174.094 Z-10.485
X174.432 Z-10.375
X174.743 Z-10.309
X175.321 Z-10.23
X175.832 Z-10.145
X176.09 Z-10.131
X176.274 Z-10.119
X176.641
X176.986 Z-10.162
X177.428 Z-10.137
X177.604 Z-10.15
X177.884 Z-10.176
X178.2 Z-10.217
X178.324 Z-10.251
X178.501 Z-10.328
X178.627 Z-10.407
X178.699 Z-10.45
X178.814 Z-10.525
X178.945 Z-10.66
X179.084 Z-10.79
X179.168 Z-10.824
X179.343 Z-10.905
X179.444 Z-10.974
X179.678 Z-11.185
X179.778 Z-11.319
X179.824 Z-11.416
X179.894 Z-11.688
X179.93 Z-11.821
X180.227 Z-11.775
X181.243 Z-11.649
X181.739 Z-11.594
X183.021 Z-11.479
X183.927 Z-11.404
X184.58 Z-11.341
X185.334 Z-11.237
X185.589 Z-11.174
X186.038 Z-11.044
X186.568 Z-10.926
X186.713 Z-10.902
X187.052 Z-10.87
X187.215 Z-10.88
X187.455 Z-10.944
X187.605 Z-10.996
X187.711 Z-11.057
X187.866 Z-11.086
X188.013 Z-11.144
X188.158 Z-11.239
X188.297 Z-11.221
X188.557 Z-11.007
X188.663 Z-10.945
X188.776 Z-10.902
X189.005 Z-10.842
X189.296 Z-10.792
X189.401 Z-10.695
X189.497 Z-10.613
X189.707 Z-10.493
X189.877 Z-10.429
X190.052 Z-10.399
X190.186 Z-10.397
X190.429 Z-10.416
X190.507 Z-10.366
X190.788 Z-10.199
X190.983 Z-10.106
X191.273 Z-10.014
X191.407 Z-9.996
X191.504 Z-9.999
X191.664 Z-10.029
X191.844 Z-10.097
X192.015 Z-10.187
X192.05 Z-10.184
X192.093 Z-10.113
X192.188 Z-9.984
X192.321 Z-9.856
X192.327 Z-9.68
X192.351 Z-9.539
X192.447 Z-9.26
X192.508 Z-9.138
X192.706 Z-8.87
X192.942 Z-8.659
X192.944 Z-8.475
X192.955 Z-8.35
X193.003 Z-8.159
X193.056 Z-8.02
X193.127 Z-7.906
X193.214 Z-7.809
X193.395 Z-7.605
X193.539 Z-7.491
X193.726 Z-7.393
X193.986 Z-7.288
X194.224 Z-7.209
X194.606 Z-7.106
X194.877 Z-7.065
X195.077 Z-7.055
X195.519 Z-7.108
X195.707 Z-7.157
X195.947 Z-7.261
X196.139 Z-7.3
X196.386 Z-7.387
X196.559 Z-7.467
X196.69 Z-7.553
X196.801 Z-7.658
X196.89 Z-7.783
X197.065 Z-7.815
X197.56 Z-7.879
X198.439 Z-7.941
X198.569 Z-7.954
X198.946 Z-8.004
X199.206 Z-8.043
X199.592 Z-8.116
X199.975 Z-8.205
X200.152 Z-8.258
X200.428 Z-8.411
X200.453 Z-8.409
X200.65 Z-8.408
X200.795 Z-8.424
X201.691 Z-8.629
X202.699 Z-8.873
X203.955 Z-9.154
X204.847 Z-9.316
X205.363 Z-9.41
X206.212 Z-9.575
X207.131 Z-9.798
X207.508 Z-9.909
X207.974 Z-10.063
X208.492 Z-10.27
X209.128 Z-10.546
X209.141 Z-10.507
X209.191 Z-10.384
X209.261 Z-10.287
X209.311 Z-10.24
X209.371 Z-10.198
X209.527 Z-10.128
X209.709 Z-10.076
X209.82 Z-10.024
X209.915 Z-9.956
X210.021 Z-9.888
X210.138 Z-9.852
X210.256 Z-9.843
X210.333 Z-9.83
X210.467 Z-9.821
X210.597 Z-9.835
X210.781 Z-9.866
X210.961 Z-9.943
X211.206 Z-10.03
X211.44 Z-10.146
X211.786 Z-10.306
X212.616 Z-10.687
X212.92 Z-10.728
X213.044 Z-10.762
X213.342 Z-10.887
X213.733 Z-11.124
X213.963 Z-11.173
X214.28 Z-11.25
X214.709 Z-11.412
X214.903 Z-11.511
X215.187 Z-11.687
X215.412 Z-11.852
X215.599 Z-12.
X270.009
X270.042 Z-11.993
X270.075 Z-11.985
Y7.737
X270.042 Z-11.993
X270.009 Z-12.
X215.61
X215.388 Z-11.808
X214.944 Z-11.501
X214.771 Z-11.424
X214.27 Z-11.211
X213.795 Z-11.094
X213.667 Z-11.059
X213.596 Z-11.031
X213.276 Z-10.841
X213.009 Z-10.724
X212.726 Z-10.648
X212.605 Z-10.626
X211.677 Z-10.197
X210.892 Z-9.818
X210.708 Z-9.759
X210.419 Z-9.703
X210.224 Z-9.68
X210.09 Z-9.692
X209.91 Z-9.736
X209.791 Z-9.784
X209.605 Z-9.882
X209.526 Z-9.946
X209.36 Z-10.011
X209.255 Z-10.074
X209.159 Z-10.153
X209.035 Z-10.29
X208.967 Z-10.389
X208.483 Z-10.181
X208.117 Z-10.037
X207.87 Z-9.95
X207.496 Z-9.825
X207.37 Z-9.787
X206.749 Z-9.622
X206.237 Z-9.505
X205.593 Z-9.377
X204.573 Z-9.19
X203.941 Z-9.069
X202.572 Z-8.752
X202.063 Z-8.625
X200.958 Z-8.361
X200.798 Z-8.326
X200.447 Z-8.308
X200.343 Z-8.245
X200.171 Z-8.151
X200.021 Z-8.103
X199.478 Z-7.982
X199.104 Z-7.913
X198.582 Z-7.85
X197.67 Z-7.795
X197.22 Z-7.759
X196.778 Z-7.69
X196.681 Z-7.583
X196.539 Z-7.465
X196.312 Z-7.348
X196.131 Z-7.275
X195.88 Z-7.205
X195.638 Z-7.164
X195.499 Z-7.117
X195.18 Z-7.047
X194.961 Z-7.019
X194.718 Z-7.028
X194.498 Z-7.062
X194.196 Z-7.136
X193.522 Z-7.394
X193.417 Z-7.457
X193.299 Z-7.563
X193.166 Z-7.737
X193.103 Z-7.854
X193.084 Z-7.9
X193.018 Z-8.011
X192.966 Z-8.151
X192.921 Z-8.341
X192.908 Z-8.499
Z-8.634
X192.715 Z-8.813
X192.615 Z-8.944
X192.491 Z-9.151
X192.434 Z-9.308
X192.379 Z-9.534
X192.361 Z-9.711
X192.36 Z-9.796
X192.256 Z-9.895
X192.176 Z-9.997
X192.107 Z-10.113
X191.971 Z-10.136
X191.699 Z-9.998
X191.562 Z-9.957
X191.433 Z-9.939
X191.301 Z-9.94
X191.147 Z-9.968
X190.951 Z-10.04
X190.731 Z-10.149
X190.545 Z-10.263
X190.404 Z-10.359
X190.179 Z-10.335
X189.996 Z-10.355
X189.822 Z-10.391
X189.655 Z-10.458
X189.521 Z-10.527
X189.395 Z-10.625
X189.259 Z-10.757
X189.011 Z-10.787
X188.719 Z-10.868
X188.601 Z-10.914
X188.495 Z-10.974
X188.375 Z-11.076
X188.255 Z-11.192
X188.153 Z-11.231
X188.046 Z-11.167
X187.928 Z-11.119
X187.772 Z-11.085
X187.655 Z-11.005
X187.54 Z-10.953
X187.231 Z-10.877
X187.039 Z-10.865
X186.919 Z-10.873
X186.495 Z-10.926
X185.992 Z-11.031
X185.836 Z-11.079
X185.333 Z-11.17
X184.423 Z-11.267
X183.045 Z-11.38
X181.82 Z-11.482
X181.076 Z-11.561
X180.698 Z-11.609
X180.081 Z-11.701
X180.047 Z-11.529
X180.019 Z-11.442
X179.964 Z-11.332
X179.854 Z-11.188
X179.615 Z-10.982
X179.459 Z-10.874
X179.312 Z-10.798
X179.231 Z-10.711
X178.92 Z-10.4
X178.817 Z-10.334
X178.518 Z-10.217
X178.329 Z-10.17
X178.07 Z-10.137
X177.806 Z-10.121
X177.337 Z-10.124
X177.187 Z-10.123
X177.072 Z-10.106
X176.649 Z-10.067
X176.224 Z-10.08
X176.11 Z-10.1
X175.649 Z-10.08
X175.29 Z-10.123
X174.883 Z-10.197
X174.596 Z-10.267
X174.341 Z-10.348
X173.767 Z-10.587
X173.401 Z-10.781
X173.029 Z-11.022
X172.841 Z-11.172
X172.661 Z-11.333
X172.439 Z-11.551
X172.233 Z-11.794
X172.088 Z-12.
X168.622
X168.46 Z-11.892
X168.118 Z-11.702
X167.823 Z-11.564
X167.481 Z-11.426
X167.252 Z-11.329
X167.064 Z-11.265
X166.888 Z-11.181
X166.598 Z-11.065
X166.413 Z-11.002
X166.224 Z-10.955
X165.721 Z-10.861
X165.33 Z-10.824
X165.073 Z-10.815
X164.663 Z-10.818
X164.414 Z-10.821
X163.342 Z-10.92
X162.392 Z-11.034
X161.852 Z-11.104
X160.737 Z-11.226
X160.092 Z-11.286
X159.91 Z-11.312
X159.736 Z-11.358
X159.626 Z-11.41
X159.524 Z-11.481
X159.433 Z-11.57
X159.356 Z-11.677
X159.296 Z-11.804
X159.265 Z-11.91
X159.252 Z-12.
X34.936 Z-12.002
X34.464 Z-12.026
X34.086 Z-12.076
X33.956 Z-12.097
X33.585 Z-12.179
X33.456 Z-12.213
X33.093 Z-12.327
X32.968 Z-12.373
X32.544 Z-12.551
X32.128 Z-12.769
X31.763 Z-13.
X31.723 Z-13.012
Y7.91
X31.763 Z-13.
X32.128 Z-12.769
X32.544 Z-12.551
X32.968 Z-12.373
X33.093 Z-12.327
X33.456 Z-12.213
X33.585 Z-12.179
X33.956 Z-12.097
X34.086 Z-12.076
X34.464 Z-12.026
X34.937 Z-12.002
X159.254 Z-12.
X159.275 Z-11.884
X159.321 Z-11.758
X159.398 Z-11.63
X159.483 Z-11.533
X159.581 Z-11.454
X159.688 Z-11.394
X159.801 Z-11.352
X160.004 Z-11.308
X160.227 Z-11.29
X161.071 Z-11.227
X162.09 Z-11.123
X162.975 Z-11.005
X163.645 Z-10.921
X164.231 Z-10.854
X165.151 Z-10.794
X165.762 Z-10.828
X166.389 Z-10.92
X166.937 Z-11.093
X167.364 Z-11.313
X167.556 Z-11.415
X168.094 Z-11.625
X168.388 Z-11.768
X168.813 Z-12.
X172.163
X172.172 Z-11.986
X172.326 Z-11.762
X172.44 Z-11.617
X172.74 Z-11.305
X172.917 Z-11.142
X173.208 Z-10.912
X173.431 Z-10.771
X173.636 Z-10.649
X173.951 Z-10.485
X174.354 Z-10.308
X174.604 Z-10.213
X175.165 Z-10.059
X175.565 Z-9.996
X175.781 Z-9.983
X176.318 Z-9.994
X176.684 Z-10.03
X177.115 Z-10.046
X177.369 Z-10.095
X177.732 Z-10.102
X178.221 Z-10.116
X178.484 Z-10.137
X178.751 Z-10.208
X178.946 Z-10.285
X179.141 Z-10.395
X179.263 Z-10.494
X179.431 Z-10.675
X179.516 Z-10.824
X179.575 Z-10.854
X179.738 Z-10.953
X179.939 Z-11.121
X180.031 Z-11.208
X180.144 Z-11.344
X180.199 Z-11.441
X180.241 Z-11.578
X180.976 Z-11.472
X181.765 Z-11.384
X182.433 Z-11.331
X183.461 Z-11.263
X184.222 Z-11.203
X184.677 Z-11.171
X185.416 Z-11.096
X185.74 Z-11.052
X186.276 Z-10.951
X186.639 Z-10.894
X187.008 Z-10.86
X187.254 Z-10.876
X187.477 Z-10.918
X187.626 Z-10.973
X187.864 Z-11.119
X188.021 Z-11.166
X188.133 Z-11.221
X188.185 Z-11.185
X188.287 Z-11.072
X188.402 Z-10.965
X188.507 Z-10.9
X188.673 Z-10.832
X188.96 Z-10.758
X189.239 Z-10.72
X189.324 Z-10.628
X189.437 Z-10.52
X189.575 Z-10.436
X189.819 Z-10.338
X189.982 Z-10.307
X190.185 Z-10.291
X190.38 Z-10.307
X190.656 Z-10.112
X190.988 Z-9.949
X191.142 Z-9.897
X191.301 Z-9.88
X191.463 Z-9.897
X191.646 Z-9.953
X191.786 Z-10.025
X191.892 Z-10.094
X192.168 Z-10.042
X192.29 Z-9.861
X192.389 Z-9.75
X192.391 Z-9.63
X192.4 Z-9.495
X192.436 Z-9.322
X192.483 Z-9.157
X192.609 Z-8.903
X192.686 Z-8.797
X192.864 Z-8.612
X192.873 Z-8.441
X192.926 Z-8.129
X192.969 Z-7.925
X193.018 Z-7.785
X193.087 Z-7.672
X193.249 Z-7.486
X193.347 Z-7.409
X193.46 Z-7.347
X193.985 Z-7.135
X194.186 Z-7.062
X194.38 Z-7.007
X194.573 Z-6.991
X194.839 Z-6.995
X195.065 Z-7.024
X195.337 Z-7.095
X195.399
X195.6 Z-7.11
X195.938 Z-7.187
X196.175 Z-7.28
X196.346 Z-7.373
X196.555 Z-7.518
X196.644 Z-7.603
X197.228 Z-7.681
X197.496 Z-7.697
X197.892 Z-7.71
X198.355 Z-7.73
X198.606 Z-7.746
X199.127 Z-7.804
X199.482 Z-7.872
X200.024 Z-8.
X200.148 Z-8.037
X200.263 Z-8.086
X200.466 Z-8.209
X200.606 Z-8.212
X200.834 Z-8.236
X201.893 Z-8.491
X202.714 Z-8.699
X203.905 Z-8.985
X205.559 Z-9.301
X206.191 Z-9.425
X206.704 Z-9.536
X207.404 Z-9.718
X208.06 Z-9.938
X208.361 Z-10.052
X208.834 Z-10.246
X208.889 Z-10.175
X209.071 Z-10.01
X209.324 Z-9.854
X209.587 Z-9.649
X209.697 Z-9.595
X209.843 Z-9.564
X210.201 Z-9.558
X210.345 Z-9.578
X210.519 Z-9.638
X210.707 Z-9.689
X211.054 Z-9.84
X211.801 Z-10.204
X211.943 Z-10.267
X212.288 Z-10.433
X212.636 Z-10.591
X213.509 Z-10.851
X214.083 Z-11.094
X214.429 Z-11.28
X214.859 Z-11.466
X214.997 Z-11.545
X215.392 Z-11.827
X215.584 Z-11.998
X270.009 Z-12.
X270.042 Z-11.993
X270.075 Z-11.985
Y8.083
X270.042 Z-11.993
X270.009 Z-12.
X215.537 Z-11.998
X215.438 Z-11.919
X215.319 Z-11.813
X214.994 Z-11.587
X214.687 Z-11.343
X214.375 Z-11.132
X214.207 Z-11.035
X213.989 Z-10.913
X213.598 Z-10.707
X213.136 Z-10.549
X212.915 Z-10.49
X212.802 Z-10.463
X212.544 Z-10.413
X212.367 Z-10.367
X212.23 Z-10.35
X212.044 Z-10.248
X211.879 Z-10.156
X211.52 Z-10.027
X211.063 Z-9.798
X210.631 Z-9.601
X210.363 Z-9.508
X210.171 Z-9.475
X210.106 Z-9.463
X209.929 Z-9.424
X209.798 Z-9.421
X209.614 Z-9.458
X209.436 Z-9.536
X209.293 Z-9.626
X208.929 Z-9.928
X208.72 Z-10.118
X208.083 Z-9.87
X207.46 Z-9.665
X206.827 Z-9.492
X206.314 Z-9.38
X205.799 Z-9.276
X204.303 Z-8.995
X203.675 Z-8.855
X202.795 Z-8.637
X201.562 Z-8.317
X200.797 Z-8.133
X200.602 Z-8.111
X200.487 Z-8.112
X200.36 Z-8.027
X200.216 Z-7.957
X200.156 Z-7.935
X200.033 Z-7.898
X199.46 Z-7.756
X199.054 Z-7.683
X198.504 Z-7.628
X197.759 Z-7.611
X197.357 Z-7.606
X196.85 Z-7.564
X196.487 Z-7.508
X196.32 Z-7.366
X196.16 Z-7.264
X196.044 Z-7.207
X195.865 Z-7.132
X195.616 Z-7.058
X195.455 Z-7.036
X195.121 Z-7.025
X195.021 Z-7.033
X194.71 Z-6.978
X194.455 Z-6.964
X194.262 Z-6.986
X194.032 Z-7.043
X193.809 Z-7.128
X193.35 Z-7.324
X193.219 Z-7.403
X193.104 Z-7.511
X192.988 Z-7.656
X192.92 Z-7.778
X192.874 Z-7.921
X192.852 Z-8.064
X192.81 Z-8.415
X192.808 Z-8.597
X192.631 Z-8.818
X192.551 Z-8.963
X192.488 Z-9.126
X192.44 Z-9.267
X192.408 Z-9.488
X192.405 Z-9.721
X192.306 Z-9.84
X192.239 Z-9.947
X192.171 Z-9.99
X191.84 Z-10.059
X191.615 Z-9.918
X191.496 Z-9.872
X191.37 Z-9.847
X191.24 Z-9.844
X191.106 Z-9.865
X190.964 Z-9.916
X190.702 Z-10.032
X190.493 Z-10.165
X190.349 Z-10.264
X190.046 Z-10.256
X189.861 Z-10.276
X189.703 Z-10.323
X189.527 Z-10.407
X189.424 Z-10.476
X189.332 Z-10.563
X189.219 Z-10.686
X189. Z-10.715
X188.87 Z-10.738
X188.627 Z-10.796
X188.514 Z-10.84
X188.408 Z-10.903
X188.291 Z-11.006
X188.134 Z-11.188
X188.097 Z-11.213
X187.95 Z-11.155
X187.815 Z-11.055
X187.633 Z-10.959
X187.449 Z-10.901
X187.168 Z-10.863
X186.882 Z-10.86
X186.567 Z-10.889
X186.287 Z-10.923
X186.051 Z-10.964
X185.767 Z-11.
X185.332 Z-11.04
X184.815 Z-11.087
X184.025 Z-11.14
X183.512 Z-11.177
X182.719 Z-11.218
X181.947 Z-11.27
X181.566 Z-11.304
X181.188 Z-11.346
X181.057 Z-11.364
X180.365 Z-11.469
X180.312 Z-11.368
X180.201 Z-11.223
X179.929 Z-10.976
X179.811 Z-10.898
X179.705 Z-10.839
X179.579 Z-10.609
X179.483 Z-10.495
X179.337 Z-10.386
X179.112 Z-10.259
X178.868 Z-10.176
X178.612 Z-10.123
X178.352 Z-10.096
X177.85 Z-10.088
X177.768 Z-10.087
X177.463 Z-10.012
X177.153 Z-9.967
X177.086 Z-9.961
X176.885 Z-9.935
X176.4 Z-9.901
X175.931 Z-9.898
X175.696 Z-9.91
X175.234 Z-9.976
X175.054 Z-10.023
X174.692 Z-10.142
X174.18 Z-10.366
X173.683 Z-10.625
X173.298 Z-10.875
X172.939 Z-11.159
X172.717 Z-11.382
X172.506 Z-11.61
X172.238 Z-11.989
X172.231 Z-12.
X168.977
X168.855 Z-11.949
X168.577 Z-11.804
X168.127 Z-11.598
X167.868 Z-11.504
X167.744 Z-11.425
X167.622 Z-11.34
X167.166 Z-11.121
X166.862 Z-11.008
X166.546 Z-10.92
X166.107 Z-10.846
X165.709 Z-10.824
X165.139 Z-10.815
X164.444 Z-10.869
X163.742 Z-10.96
X163.68 Z-10.969
X163.564 Z-10.919
X163.341 Z-10.876
X163.243 Z-10.874
X162.11 Z-10.95
X161.451 Z-11.025
X161.378 Z-11.054
X161.274 Z-11.116
X161.052 Z-11.26
X160.943 Z-11.287
X159.897 Z-11.361
X159.781 Z-11.387
X159.669 Z-11.434
X159.564 Z-11.499
X159.471 Z-11.584
X159.382 Z-11.701
X159.328 Z-11.806
X159.281 Z-11.939
X159.267 Z-12.
X34.943 Z-12.002
X34.464 Z-12.026
X34.086 Z-12.076
X33.956 Z-12.097
X33.585 Z-12.179
X33.456 Z-12.213
X33.093 Z-12.327
X32.968 Z-12.373
X32.544 Z-12.551
X32.128 Z-12.769
X31.763 Z-13.
X31.723 Z-13.012
Y8.256
X31.763 Z-13.
X32.128 Z-12.769
X32.544 Z-12.551
X32.968 Z-12.373
X33.093 Z-12.327
X33.456 Z-12.213
X33.585 Z-12.179
X33.956 Z-12.097
X34.086 Z-12.076
X34.464 Z-12.026
X34.915 Z-12.003
X159.295 Z-12.
X159.323 Z-11.914
X159.382 Z-11.794
X159.478 Z-11.664
X159.594 Z-11.56
X159.7 Z-11.496
X159.813 Z-11.452
X159.888 Z-11.355
X160.032 Z-11.177
X160.149 Z-11.088
X160.473 Z-10.922
X160.73 Z-10.846
X160.976 Z-10.755
X161.257 Z-10.658
X161.547 Z-10.601
X162.351 Z-10.499
X163.193 Z-10.435
X163.994 Z-10.515
X164.576 Z-10.629
X164.737 Z-10.697
X165.071 Z-10.864
X165.465 Z-10.849
X166.132 Z-10.854
X166.243 Z-10.873
X166.512 Z-10.896
X166.639 Z-10.918
X167.284 Z-11.113
X167.478 Z-11.201
X167.719 Z-11.305
X168.147 Z-11.577
X168.578 Z-11.767
X169.152 Z-11.999
X172.33 Z-12.
X172.397 Z-11.886
X172.57 Z-11.633
X172.68 Z-11.488
X172.852 Z-11.295
X173.211 Z-10.975
X173.508 Z-10.753
X173.801 Z-10.568
X174.333 Z-10.287
X174.72 Z-10.104
X174.94 Z-10.014
X175.122 Z-9.958
X175.351 Z-9.897
X175.788 Z-9.835
X176.101 Z-9.823
X176.905 Z-9.843
X177.156 Z-9.861
X177.54 Z-9.901
X177.803 Z-9.96
X178.16 Z-10.073
X178.581 Z-10.099
X178.873 Z-10.141
X179.07 Z-10.185
X179.364 Z-10.304
X179.524 Z-10.401
X179.616 Z-10.482
X179.777 Z-10.675
X179.884 Z-10.855
X179.899 Z-10.864
X180.135 Z-11.022
X180.275 Z-11.14
X180.392 Z-11.278
X180.464 Z-11.374
X180.521 Z-11.363
X181.142 Z-11.256
X181.506 Z-11.21
X182.162 Z-11.163
X183.932 Z-11.069
X185.314 Z-10.981
X186.154 Z-10.924
X186.337 Z-10.892
X186.839 Z-10.855
X187.146 Z-10.857
X187.414 Z-10.886
X187.571 Z-10.926
X187.779 Z-11.009
X187.938 Z-11.11
X188.019 Z-11.185
X188.06 Z-11.21
X188.078 Z-11.195
X188.224 Z-11.025
X188.334 Z-10.913
X188.435 Z-10.841
X188.6 Z-10.764
X188.83 Z-10.706
X189.205 Z-10.656
X189.268 Z-10.583
X189.398 Z-10.445
X189.499 Z-10.372
X189.607 Z-10.319
X189.834 Z-10.24
X190.002 Z-10.219
X190.311 Z-10.227
X190.647 Z-10.014
X190.821 Z-9.928
X191.044 Z-9.841
X191.169 Z-9.818
X191.301 Z-9.814
X191.46 Z-9.839
X191.61 Z-9.894
X191.69 Z-9.94
X191.802 Z-10.021
X191.938 Z-9.997
X192.207 Z-9.837
X192.371 Z-9.763
X192.41 Z-9.718
X192.411 Z-9.4
X192.455 Z-9.155
X192.499 Z-9.017
X192.584 Z-8.843
X192.722 Z-8.627
X192.73 Z-8.302
X192.766 Z-7.969
X192.825 Z-7.769
X192.889 Z-7.643
X193.01 Z-7.495
X193.193 Z-7.332
X193.288 Z-7.271
X193.826 Z-7.044
X193.999 Z-6.996
X194.241 Z-6.964
X194.497 Z-6.96
X194.679 Z-6.987
X195.133 Z-6.959
X195.433 Z-6.982
X195.607 Z-7.014
X195.899 Z-7.129
X196.071 Z-7.213
X196.229 Z-7.32
X196.343 Z-7.425
X196.653 Z-7.463
X196.77 Z-7.481
X197.156 Z-7.51
X198.32 Z-7.516
X198.788 Z-7.54
X198.919 Z-7.555
X199.435 Z-7.651
X200.017 Z-7.791
X200.256 Z-7.867
X200.397 Z-7.934
X200.52 Z-8.029
X200.564 Z-8.025
X200.706 Z-8.023
X200.867 Z-8.053
X203.599 Z-8.764
X204.342 Z-8.933
X205.852 Z-9.217
X206.367 Z-9.32
X206.88 Z-9.432
X207.006 Z-9.466
X207.511 Z-9.611
X207.76 Z-9.69
X208.364 Z-9.907
X208.606 Z-10.004
X208.847 Z-9.795
X209.028 Z-9.615
X209.153 Z-9.506
X209.259 Z-9.448
X209.425 Z-9.377
X209.6 Z-9.34
X209.794 Z-9.331
X209.987 Z-9.351
X210.301 Z-9.439
X210.546 Z-9.529
X210.786 Z-9.636
X211.262 Z-9.855
X211.309 Z-9.858
X211.433 Z-9.882
X211.601 Z-9.95
X211.784 Z-10.014
X211.951 Z-10.1
X212.29 Z-10.155
X212.762 Z-10.268
X213.122 Z-10.356
X213.605 Z-10.555
X213.835 Z-10.679
X214.28 Z-10.952
X214.651 Z-11.214
X215.108 Z-11.591
X215.503 Z-11.998
X270.009 Z-12.
X270.042 Z-11.993
X270.075 Z-11.985
Y8.429
X270.042 Z-11.993
X270.009 Z-12.
X215.556 Z-11.998
X215.092 Z-11.518
X214.901 Z-11.346
X214.603 Z-11.092
X214.315 Z-10.881
X213.953 Z-10.659
X213.669 Z-10.497
X213.374 Z-10.359
X213.215 Z-10.273
X212.721 Z-10.104
X212.517 Z-10.029
X212.164 Z-9.969
X211.648 Z-9.878
X211.545 Z-9.823
X211.417 Z-9.779
X211.211 Z-9.75
X210.956 Z-9.69
X210.719 Z-9.579
X210.282 Z-9.392
X209.922 Z-9.292
X209.729 Z-9.258
X209.532 Z-9.25
X209.347 Z-9.269
X209.174 Z-9.316
X209.065 Z-9.369
X208.914 Z-9.479
X208.625 Z-9.777
X208.505 Z-9.895
X207.62 Z-9.579
X206.884 Z-9.371
X206.43 Z-9.266
X205.541 Z-9.091
X204.419 Z-8.88
X203.548 Z-8.684
X201.938 Z-8.246
X200.82 Z-7.955
X200.667 Z-7.937
X200.541 Z-7.94
X200.446 Z-7.864
X200.336 Z-7.805
X199.964 Z-7.688
X199.711 Z-7.62
X199.456 Z-7.558
X199.199 Z-7.506
X198.876 Z-7.45
X198.45 Z-7.414
X198.049 Z-7.411
X197.178 Z-7.421
X196.91 Z-7.417
X196.213 Z-7.346
X196.066 Z-7.218
X195.905 Z-7.121
X195.61 Z-6.983
X195.424 Z-6.935
X195.165 Z-6.897
X195.031 Z-6.903
X194.59 Z-6.935
X194.452 Z-6.957
X194.279 Z-6.954
X193.961 Z-6.971
X193.787 Z-7.005
X193.616 Z-7.062
X193.23 Z-7.226
X193.118 Z-7.287
X192.996 Z-7.384
X192.853 Z-7.545
X192.782 Z-7.653
X192.706 Z-7.841
X192.671 Z-7.963
X192.649 Z-8.105
X192.637 Z-8.276
X192.636 Z-8.683
X192.483 Z-8.976
X192.441 Z-9.098
X192.419 Z-9.236
X192.399 Z-9.444
X192.398 Z-9.681
X192.084 Z-9.796
X191.977 Z-9.85
X191.877 Z-9.923
X191.82 Z-9.972
X191.751 Z-9.995
X191.636 Z-9.912
X191.524 Z-9.855
X191.403 Z-9.814
X191.275 Z-9.792
X191.103 Z-9.793
X190.953 Z-9.826
X190.788 Z-9.901
X190.638 Z-9.969
X190.277 Z-10.193
X190.009 Z-10.181
X189.875 Z-10.195
X189.718 Z-10.246
X189.489 Z-10.352
X189.388 Z-10.423
X189.277 Z-10.538
X189.205 Z-10.629
X188.83 Z-10.669
X188.685 Z-10.702
X188.438 Z-10.809
X188.307 Z-10.89
X188.193 Z-10.996
X188.046 Z-11.173
X187.913 Z-11.061
X187.805 Z-11.001
X187.5 Z-10.894
X187.373 Z-10.873
X187.125 Z-10.851
X186.79
X186.259 Z-10.88
X186.125 Z-10.889
X185.202 Z-10.927
X184.143 Z-10.986
X182.028 Z-11.082
X181.655 Z-11.111
X181.087 Z-11.177
X180.725 Z-11.244
X180.542 Z-11.286
X180.361 Z-11.089
X180.211 Z-10.972
X180.081 Z-10.896
X179.982 Z-10.731
X179.948 Z-10.689
X179.694 Z-10.425
X179.594 Z-10.352
X179.424 Z-10.263
X179.303 Z-10.219
X179.144 Z-10.178
X179. Z-10.138
X178.741 Z-10.1
X178.59 Z-10.085
X178.445 Z-10.025
X177.943 Z-9.868
X177.785 Z-9.837
X177.379 Z-9.803
X177.106 Z-9.788
X176.637 Z-9.775
X176.401 Z-9.757
X175.999
X175.512 Z-9.81
X175.282 Z-9.87
X174.917 Z-9.993
X174.557 Z-10.167
X174.187 Z-10.374
X173.851 Z-10.559
X173.498 Z-10.801
X173.188 Z-11.046
X172.877 Z-11.352
X172.579 Z-11.753
X172.492 Z-11.903
X172.445 Z-12.
X169.304 Z-11.998
X168.845 Z-11.842
X168.495 Z-11.7
X168.353 Z-11.597
X168.025 Z-11.418
X167.908 Z-11.352
X167.688 Z-11.237
X167.334 Z-11.108
X166.827 Z-10.974
X166.571 Z-10.919
X166.124 Z-10.891
X165.787 Z-10.887
X165.402 Z-10.64
X165.253 Z-10.57
X164.623 Z-10.364
X164.307 Z-10.315
X164.121 Z-10.282
X163.482 Z-10.217
X162.946 Z-10.231
X162.325 Z-10.269
X161.542 Z-10.384
X160.802 Z-10.532
X160.201 Z-10.738
X159.836 Z-10.912
X159.726 Z-10.976
X159.675 Z-11.022
X159.634 Z-11.071
X159.58 Z-11.168
X159.507 Z-11.405
X159.49 Z-11.529
X159.479 Z-11.772
X159.408 Z-11.882
X159.346 Z-12.
X34.966 Z-12.001
X34.464 Z-12.026
X34.086 Z-12.076
X33.956 Z-12.097
X33.585 Z-12.179
X33.456 Z-12.213
X33.093 Z-12.327
X32.968 Z-12.373
X32.544 Z-12.551
X32.128 Z-12.769
X31.763 Z-13.
X31.723 Z-13.012
Y8.602
X31.763 Z-13.
X32.128 Z-12.769
X32.544 Z-12.551
X32.968 Z-12.373
X33.093 Z-12.327
X33.456 Z-12.213
X33.585 Z-12.179
X33.956 Z-12.097
X34.086 Z-12.076
X34.464 Z-12.026
X34.962 Z-12.001
X159.341 Z-12.
X159.353 Z-11.511
X159.392 Z-11.226
X159.433 Z-11.092
X159.465 Z-11.028
X159.574 Z-10.872
X159.663 Z-10.782
X159.769 Z-10.712
X159.989 Z-10.622
X160.226 Z-10.539
X160.718 Z-10.398
X160.847 Z-10.368
X161.51 Z-10.236
X162.18 Z-10.148
X162.956 Z-10.077
X163.526 Z-10.072
X164.143 Z-10.11
X164.638 Z-10.159
X165.051 Z-10.272
X165.691 Z-10.512
X166.103 Z-10.702
X166.395 Z-10.851
X166.566 Z-10.963
X166.972 Z-11.033
X167.407 Z-11.13
X167.656 Z-11.208
X168.019 Z-11.354
X168.367 Z-11.53
X168.723 Z-11.763
X168.775 Z-11.788
X168.944 Z-11.841
X169.438 Z-11.998
X172.556 Z-12.
X172.623 Z-11.862
X172.702 Z-11.724
X172.951 Z-11.401
X173.253 Z-11.09
X173.35 Z-11.002
X173.687 Z-10.721
X173.981 Z-10.522
X174.202 Z-10.388
X174.637 Z-10.126
X174.863 Z-10.012
X175.108 Z-9.909
X175.489 Z-9.778
X175.746 Z-9.725
X176.087 Z-9.69
X176.321 Z-9.685
X176.821 Z-9.726
X177.223 Z-9.734
X177.594 Z-9.751
X177.763 Z-9.748
X177.894 Z-9.755
X178.212 Z-9.83
X178.649 Z-9.961
X178.937 Z-10.103
X178.986 Z-10.11
X179.372 Z-10.187
X179.611 Z-10.284
X179.776 Z-10.38
X179.979 Z-10.54
X180.107 Z-10.666
X180.291 Z-10.92
X180.494 Z-11.083
X180.607 Z-11.202
X180.87 Z-11.136
X181.045 Z-11.103
X181.958 Z-10.998
X184.021 Z-10.926
X184.939 Z-10.88
X185.97 Z-10.851
X186.384 Z-10.85
X186.67 Z-10.84
X187.139 Z-10.845
X187.27 Z-10.855
X187.458 Z-10.876
X187.702 Z-10.938
X187.818 Z-10.988
X188.043 Z-11.139
X188.168 Z-10.972
X188.261 Z-10.886
X188.365 Z-10.819
X188.607 Z-10.709
X188.764 Z-10.656
X189.199 Z-10.6
X189.325 Z-10.449
X189.421 Z-10.369
X189.554 Z-10.294
X189.745 Z-10.212
X189.86 Z-10.176
X189.982 Z-10.159
X190.261 Z-10.161
X190.573 Z-9.971
X190.761 Z-9.878
X190.986 Z-9.796
X191.121 Z-9.775
X191.263 Z-9.779
X191.389 Z-9.804
X191.507 Z-9.849
X191.671 Z-9.95
X191.789 Z-9.906
X191.914 Z-9.808
X192.022 Z-9.75
X192.386 Z-9.629
X192.39 Z-9.378
X192.395 Z-9.199
X192.417 Z-9.058
X192.445 Z-8.973
X192.546 Z-8.73
X192.55 Z-8.109
X192.572 Z-7.975
X192.638 Z-7.788
X192.712 Z-7.606
X192.783 Z-7.498
X192.905 Z-7.363
X192.999 Z-7.278
X193.104 Z-7.211
X193.414 Z-7.075
X193.612 Z-7.007
X193.787 Z-6.973
X194.157 Z-6.95
X194.422 Z-6.9
X194.665 Z-6.867
X195.149 Z-6.864
X195.278 Z-6.878
X195.404 Z-6.911
X195.648 Z-6.996
X195.873 Z-7.123
X196.079 Z-7.268
X196.458 Z-7.311
X196.724 Z-7.329
X196.855 Z-7.339
X198.214 Z-7.311
X198.446 Z-7.316
X198.969 Z-7.367
X199.098 Z-7.385
X199.418 Z-7.451
X200.113 Z-7.643
X200.36 Z-7.723
X200.47 Z-7.781
X200.566 Z-7.856
X200.676 Z-7.854
X200.828 Z-7.872
X201.4 Z-8.021
X202.817 Z-8.413
X203.309 Z-8.553
X204.049 Z-8.737
X205.622 Z-9.043
X206.188 Z-9.158
X206.815 Z-9.297
X206.926 Z-9.328
X207.18 Z-9.395
X207.559 Z-9.505
X207.808 Z-9.584
X208.413 Z-9.801
X208.488 Z-9.724
X208.529 Z-9.629
X208.569 Z-9.566
X208.654 Z-9.472
X208.798 Z-9.359
X208.951 Z-9.273
X209.188 Z-9.193
X209.343 Z-9.171
X209.572 Z-9.183
X209.892 Z-9.243
X210.143 Z-9.319
X210.615 Z-9.51
X210.833 Z-9.526
X211.314 Z-9.628
X211.603 Z-9.714
X212.181 Z-9.835
X212.621 Z-9.955
X212.777 Z-10.031
X212.893 Z-10.063
X213.028 Z-10.128
X213.234 Z-10.22
X213.424 Z-10.322
X213.633 Z-10.423
X213.894 Z-10.566
X214.395 Z-10.869
X214.952 Z-11.329
X215.294 Z-11.68
X215.48 Z-11.89
X215.582 Z-12.
X270.009
X270.042 Z-11.993
X270.075 Z-11.985
Y8.775
X270.042 Z-11.993
X270.009 Z-12.
X216.438
X216.282 Z-11.943
X216.156 Z-11.917
X215.989 Z-11.918
X215.681 Z-11.961
X215.569 Z-11.986
X215.401 Z-11.786
X215.25 Z-11.6
X214.886 Z-11.244
X214.386 Z-10.847
X214.032 Z-10.613
X213.618 Z-10.376
X212.932 Z-10.023
X212.779 Z-9.971
X212.561 Z-9.879
X212.015 Z-9.703
X211.572 Z-9.581
X210.936 Z-9.396
X210.776 Z-9.364
X210.481 Z-9.344
X210.255 Z-9.352
X209.916 Z-9.218
X209.465 Z-9.12
X209.269 Z-9.11
X209.077 Z-9.138
X208.89 Z-9.177
X208.777 Z-9.222
X208.571 Z-9.35
X208.478 Z-9.439
X208.402 Z-9.548
X208.314 Z-9.706
