(H2_06_T2_15_ODIN_FINE)
(T10  2 Flute Ball Nose 1.5*8mm      D=1.5 CR=0.75 - ZMIN=-13.15 - ball end mill)
( =================================================== )
(   Z Origin Set To   : Stock Top )
(   Stock Height                    : 50. mm )
(   Toolpath Z Maximum from Stock Top: 15. mm )
(   Toolpath Z Min from Stock Top: -13.15 mm )
(  )
( =================================================== )

( The following values are based on the part position info used in fusion and can be used to roughly align the machine offset from anchor 1 if you use that feature. )
(   X Offset   : 45. mm )
(   Y Offset   : -29.999 mm )

( =================================================== )

G90 G94
G17
G21
(When using Fusion for Personal Use, the feedrate of rapid)
(moves is reduced to match the feedrate of cutting moves,)
(which can increase machining time. Unrestricted rapid moves)
(are available with a Fusion Subscription.)

(H2_T2_15_ODIN_FINE)
M6 T10 
(6)
M400
M851 S100
S20000 M3
G54
G0 X270.148 Y0.991
Z15.
G1 Z-10.003 F1000.
Z-11.849 F200.
X269.998 Z-11.999 F1000.
X219.938 Z-12.001
X219.813 Z-12.022
X219.699 Z-12.062
X219.592 Z-12.12
X219.493 Z-12.196
X219.407 Z-12.29
X219.335 Z-12.401
X219.288 Z-12.512
X219.26 Z-12.627
X219.25 Z-12.747
Z-13.
Y1.077
Y1.164
Z-12.747
X219.258 Z-12.636
X219.286 Z-12.518
X219.333 Z-12.406
X219.403 Z-12.294
X219.489 Z-12.2
X219.587 Z-12.123
X219.694 Z-12.064
X219.808 Z-12.024
X219.936 Z-12.001
X270.009 Z-11.999
X270.042 Z-11.991
X270.075 Z-11.983
Y1.337
X270.042 Z-11.991
X270.009 Z-11.999
X219.936 Z-12.001
X219.808 Z-12.024
X219.694 Z-12.064
X219.587 Z-12.123
X219.489 Z-12.2
X219.403 Z-12.294
X219.333 Z-12.406
X219.286 Z-12.518
X219.258 Z-12.636
X219.25 Z-12.747
Z-13.
Y1.51
Z-12.747
X219.258 Z-12.636
X219.286 Z-12.518
X219.333 Z-12.406
X219.403 Z-12.294
X219.489 Z-12.2
X219.587 Z-12.123
X219.694 Z-12.064
X219.808 Z-12.024
X219.936 Z-12.001
X270.009 Z-11.999
X270.042 Z-11.991
X270.075 Z-11.983
Y1.683
X270.042 Z-11.991
X270.009 Z-11.999
X219.936 Z-12.001
X219.808 Z-12.024
X219.694 Z-12.064
X219.587 Z-12.123
X219.489 Z-12.2
X219.403 Z-12.294
X219.333 Z-12.406
X219.286 Z-12.518
X219.258 Z-12.636
X219.25 Z-12.747
Z-13.
Y1.856
Z-12.747
X219.258 Z-12.636
X219.286 Z-12.518
X219.333 Z-12.406
X219.403 Z-12.294
X219.489 Z-12.2
X219.587 Z-12.123
X219.694 Z-12.064
X219.808 Z-12.024
X219.936 Z-12.001
X270.009 Z-11.999
X270.042 Z-11.991
X270.075 Z-11.983
Y2.029
X270.042 Z-11.991
X270.009 Z-11.999
X219.936 Z-12.001
X219.808 Z-12.024
X219.694 Z-12.064
X219.587 Z-12.123
X219.489 Z-12.2
X219.403 Z-12.294
X219.333 Z-12.406
X219.286 Z-12.518
X219.258 Z-12.636
X219.25 Z-12.747
Z-13.
Y2.202
Z-12.747
X219.258 Z-12.636
X219.286 Z-12.518
X219.333 Z-12.406
X219.403 Z-12.294
X219.489 Z-12.2
X219.587 Z-12.123
X219.694 Z-12.064
X219.808 Z-12.024
X219.936 Z-12.001
X270.009 Z-11.999
X270.042 Z-11.991
X270.075 Z-11.983
Y2.375
X270.042 Z-11.991
X270.009 Z-11.999
X219.936 Z-12.001
X219.808 Z-12.024
X219.694 Z-12.064
X219.587 Z-12.123
X219.489 Z-12.2
X219.403 Z-12.294
X219.333 Z-12.406
X219.286 Z-12.518
X219.258 Z-12.636
X219.25 Z-12.747
Z-13.
Y2.548
Z-12.747
X219.258 Z-12.636
X219.286 Z-12.518
X219.333 Z-12.406
X219.403 Z-12.294
X219.489 Z-12.2
X219.587 Z-12.123
X219.694 Z-12.064
X219.808 Z-12.024
X219.936 Z-12.001
X270.009 Z-11.999
X270.042 Z-11.991
X270.075 Z-11.983
Y2.721
X270.042 Z-11.991
X270.009 Z-11.999
X219.936 Z-12.001
X219.808 Z-12.024
X219.694 Z-12.064
X219.587 Z-12.123
X219.489 Z-12.2
X219.403 Z-12.294
X219.333 Z-12.406
X219.286 Z-12.518
X219.258 Z-12.636
X219.25 Z-12.747
Z-13.
Y2.894
Z-12.747
X219.258 Z-12.636
X219.286 Z-12.518
X219.333 Z-12.406
X219.403 Z-12.294
X219.489 Z-12.2
X219.587 Z-12.123
X219.694 Z-12.064
X219.808 Z-12.024
X219.936 Z-12.001
X270.009 Z-11.999
X270.042 Z-11.991
X270.075 Z-11.983
Y3.067
X270.042 Z-11.991
X270.009 Z-11.999
X219.936 Z-12.001
X219.808 Z-12.024
X219.694 Z-12.064
X219.587 Z-12.123
X219.489 Z-12.2
X219.403 Z-12.294
X219.333 Z-12.406
X219.286 Z-12.518
X219.258 Z-12.636
X219.25 Z-12.747
Z-13.
Y3.24
Z-12.747
X219.258 Z-12.636
X219.286 Z-12.518
X219.333 Z-12.406
X219.403 Z-12.294
X219.489 Z-12.2
X219.587 Z-12.123
X219.694 Z-12.064
X219.808 Z-12.024
X219.936 Z-12.001
X270.009 Z-11.999
X270.042 Z-11.991
X270.075 Z-11.983
Y3.413
X270.042 Z-11.991
X270.009 Z-11.999
X219.936 Z-12.001
X219.808 Z-12.024
X219.694 Z-12.064
X219.587 Z-12.123
X219.489 Z-12.2
X219.403 Z-12.294
X219.333 Z-12.406
X219.286 Z-12.518
X219.258 Z-12.636
X219.25 Z-12.747
Z-13.
X219.204
Z5.
X211.77 Y3.24
Z-10.151
Z-12.998 F200.
X211.63 Z-13.139 F1000.
X211.489 Z-13.
X211.485 Z-12.681
X211.47 Z-12.614
X211.441 Z-12.545
X211.412 Z-12.498
X211.355 Z-12.432
X211.259 Z-12.364
X211.201 Z-12.34
X211.142 Z-12.325
X211.078 Z-12.318
X211.013 Z-12.321
X210.948 Z-12.334
X210.883 Z-12.359
X210.776 Z-12.431
X210.686 Z-12.52
X210.62 Z-12.622
X210.595 Z-12.705
X210.592 Z-13.
X210.457 Y3.317
X210.336 Y3.413
Z-12.747
X210.345 Z-12.655
X210.378 Z-12.519
X210.44 Z-12.411
X210.532 Z-12.322
X210.637 Z-12.258
X210.803 Z-12.189
X210.977 Z-12.145
X211.109 Z-12.14
X211.235 Z-12.163
X211.351 Z-12.21
X211.452 Z-12.278
X211.535 Z-12.362
X211.604 Z-12.469
X211.637 Z-12.549
X211.666 Z-12.691
X211.669 Z-13.
X211.715
Z5.
X206.176 Y2.548
Z-9.79
Z-12.999 F200.
X206.026 Z-13.149 F1000.
X205.876 Z-13.
X205.874 Z-12.722
X205.849 Z-12.646
X205.791 Z-12.576
X205.71 Z-12.536
X205.054 Z-12.374
X204.291 Z-12.239
X203.552 Z-12.131
X202.549 Z-12.016
X201.847 Z-11.969
X200.913 Z-11.937
X199.572 Z-11.919
X199.422 Z-11.942
X199.336 Z-11.981
X199.22 Z-12.049
X199.173 Z-12.059
X199.111 Z-11.986
X199.038 Z-11.93
X198.995 Z-11.896
X198.922 Z-11.866
X197.797 Z-11.64
X197.453 Z-11.555
X197.45 Z-10.442
X197.418 Z-10.123
X197.354 Z-9.961
X197.278 Z-9.808
X197.206 Z-9.738
X197.083 Z-9.65
X196.85 Z-9.532
X196.645 Z-9.501
X196.285 Z-9.472
X196.126 Z-9.499
X195.941 Z-9.558
X195.776 Z-9.676
X195.608 Z-9.763
X195.397 Z-9.848
X195.264 Z-9.912
X195.195 Z-9.978
X195.105 Z-10.108
X194.826 Z-10.205
X194.57 Z-10.368
X194.399 Z-10.516
X194.303 Z-10.647
X194.221 Z-10.904
X194.184 Z-11.058
X194.147 Z-11.097
X194.028 Z-11.172
X193.839 Z-11.246
X193.43 Z-11.451
X193.122 Z-11.64
X192.85 Z-11.839
X192.468 Z-12.151
X192.149 Z-12.46
X192.009 Z-12.613
X191.975 Z-12.675
X191.962 Z-12.749
Z-13.
X191.879 Y2.579
X191.8 Y2.619
X191.726 Y2.669
X191.654 Y2.721
X191.656 Z-12.706
X191.685 Z-12.583
X191.743 Z-12.473
X191.796 Z-12.406
X192.078 Z-12.112
X192.351 Z-11.856
X192.847 Z-11.462
X193.101 Z-11.294
X193.481 Z-11.079
X193.92 Z-10.879
X194.001 Z-10.607
X194.055 Z-10.481
X194.109 Z-10.405
X194.231 Z-10.262
X194.442 Z-10.093
X194.712 Z-9.925
X194.922 Z-9.843
X195.045 Z-9.699
X195.144 Z-9.619
X195.251 Z-9.565
X195.484 Z-9.474
X195.605 Z-9.392
X195.693 Z-9.334
X195.857 Z-9.258
X195.967 Z-9.221
X196.213 Z-9.178
X196.345 Z-9.174
X196.856 Z-9.219
X196.976 Z-9.254
X197.238 Z-9.396
X197.354 Z-9.47
X197.487 Z-9.595
X197.551 Z-9.686
X197.669 Z-9.931
X197.715 Z-10.101
X197.746 Z-10.425
X197.75 Z-11.282
X197.914 Z-11.327
X198.496 Z-11.46
X199.015 Z-11.577
X199.103 Z-11.604
X199.246 Z-11.69
X199.323 Z-11.663
X199.535 Z-11.625
X200.404 Z-11.63
X201.627 Z-11.662
X202.404 Z-11.707
X203.182 Z-11.786
X204.174 Z-11.919
X205.076 Z-12.076
X205.719 Z-12.231
X205.997 Z-12.322
X206.171 Z-12.402
X206.319 Z-12.499
X206.41 Z-12.597
X206.443 Z-12.659
X206.46 Z-12.729
X206.461 Z-13.
X206.594 Y2.762
X206.727 Y2.805
X206.859 Y2.849
X206.991 Y2.894
X206.988 Z-12.71
X206.963 Z-12.632
X206.913 Z-12.556
X206.808 Z-12.457
X206.649 Z-12.36
X206.41 Z-12.261
X206.161 Z-12.183
X205.655 Z-12.044
X205.273 Z-11.948
X204.628 Z-11.828
X203.98 Z-11.726
X203.225 Z-11.63
X202.67 Z-11.569
X201.979 Z-11.52
X200.706 Z-11.469
X199.634 Z-11.446
X199.453 Z-11.472
X199.373 Z-11.493
X199.25 Z-11.43
X198.904 Z-11.326
X198.422 Z-11.198
X198.059 Z-11.088
X197.886 Z-11.04
X197.88 Z-10.396
X197.85 Z-10.086
X197.821 Z-9.96
X197.759 Z-9.795
X197.654 Z-9.593
X197.563 Z-9.477
X197.33 Z-9.254
X197.254 Z-9.201
X197.14 Z-9.151
X196.842 Z-9.071
X196.485 Z-9.025
X196.253 Z-9.015
X195.918 Z-9.021
X195.644 Z-9.074
X195.504 Z-9.131
X195.402 Z-9.205
X195.265 Z-9.307
X195.07 Z-9.394
X195.018 Z-9.428
X194.865 Z-9.58
X194.79 Z-9.664
X194.592 Z-9.746
X194.344 Z-9.918
X194.205 Z-10.046
X194.054 Z-10.232
X193.917 Z-10.452
X193.857 Z-10.615
X193.834 Z-10.687
X193.628 Z-10.772
X193.118 Z-11.039
X192.932 Z-11.162
X192.729 Z-11.308
X192.384 Z-11.572
X192.018 Z-11.919
X191.712 Z-12.253
X191.564 Z-12.451
X191.534 Z-12.508
X191.504 Z-12.586
X191.482 Z-12.693
X191.48 Z-13.
X191.404 Y2.976
X191.339 Y3.067
Z-12.747
X191.348 Z-12.642
X191.387 Z-12.506
X191.457 Z-12.377
X191.707 Z-12.043
X191.965 Z-11.754
X192.346 Z-11.381
X192.647 Z-11.137
X193.108 Z-10.82
X193.591 Z-10.565
X193.808 Z-10.47
X193.892 Z-10.288
X193.949 Z-10.156
X194.095 Z-9.925
X194.181 Z-9.819
X194.365 Z-9.654
X194.471 Z-9.574
X194.65 Z-9.482
X194.812 Z-9.317
X194.913 Z-9.234
X195.099 Z-9.138
X195.2 Z-9.033
X195.25 Z-8.997
X195.337 Z-8.955
X195.593 Z-8.889
X195.711 Z-8.871
X196.2
X196.593 Z-8.906
X196.85 Z-8.946
X196.994 Z-8.996
X197.148 Z-9.043
X197.266 Z-9.088
X197.372 Z-9.152
X197.462 Z-9.232
X197.698 Z-9.517
X197.759 Z-9.614
X197.834 Z-9.776
X197.905 Z-9.994
X197.943 Z-10.229
X197.96 Z-10.493
X197.962 Z-10.806
X198.252 Z-10.899
X198.724 Z-11.058
X199.225 Z-11.213
X199.48 Z-11.335
X199.628 Z-11.3
X199.812 Z-11.283
X200.608 Z-11.309
X201.745 Z-11.363
X202.53 Z-11.414
X203.17 Z-11.474
X203.972 Z-11.565
X204.587 Z-11.668
X205.233 Z-11.785
X205.489 Z-11.841
X206.111 Z-12.002
X206.739 Z-12.193
X206.986 Z-12.278
X207.157 Z-12.362
X207.288 Z-12.453
X207.382 Z-12.564
X207.415 Z-12.628
X207.436 Z-12.704
X207.439 Z-13.
X207.536 Y3.11
X207.633 Y3.152
X207.73 Y3.196
X207.826 Y3.24
X207.822 Z-12.7
X207.789 Z-12.597
X207.724 Z-12.5
X207.611 Z-12.395
X207.437 Z-12.287
X207.125 Z-12.154
X206.075 Z-11.83
X205.886 Z-11.78
X205.129 Z-11.615
X204.564 Z-11.516
X203.964 Z-11.424
X203.194 Z-11.337
X202.671 Z-11.285
X201.944 Z-11.233
X200.225 Z-11.143
X199.89 Z-11.127
X199.62 Z-11.167
X199.586 Z-11.177
X199.466 Z-11.109
X199.361 Z-11.067
X198.99 Z-10.936
X198.628 Z-10.813
X198.025 Z-10.588
X198.008 Z-10.254
X197.964 Z-10.03
X197.917 Z-9.859
X197.839 Z-9.641
X197.787 Z-9.542
X197.716 Z-9.448
X197.492 Z-9.178
X197.37 Z-9.075
X197.261 Z-9.014
X196.998 Z-8.897
X196.847 Z-8.839
X196.498 Z-8.777
X195.946 Z-8.731
X195.611 Z-8.724
X195.477 Z-8.74
X195.275 Z-8.786
X195.19 Z-8.816
X195.078 Z-8.886
X194.943 Z-9.004
X194.778 Z-9.091
X194.718 Z-9.13
X194.624 Z-9.218
X194.503 Z-9.354
X194.331 Z-9.44
X194.233 Z-9.522
X194.031 Z-9.753
X193.906 Z-9.974
X193.82 Z-10.153
X193.778 Z-10.29
X193.548 Z-10.388
X193.22 Z-10.554
X193.116 Z-10.615
X192.795 Z-10.827
X192.604 Z-10.968
X192.5 Z-11.049
X192.32 Z-11.206
X192.082 Z-11.426
X191.752 Z-11.801
X191.394 Z-12.297
X191.296 Z-12.468
X191.262 Z-12.559
X191.238 Z-12.686
X191.235 Z-13.
X191.201 Y3.325
X191.175 Y3.413
Z-12.747
X191.191 Z-12.596
X191.244 Z-12.44
X191.441 Z-12.089
X191.657 Z-11.771
X191.837 Z-11.533
X192.071 Z-11.255
X192.431 Z-10.923
X192.671 Z-10.728
X193.072 Z-10.444
X193.542 Z-10.208
X193.721 Z-10.13
X193.781 Z-9.966
X193.896 Z-9.725
X194.077 Z-9.478
X194.174 Z-9.379
X194.33 Z-9.266
X194.446 Z-9.13
X194.534 Z-9.037
X194.635 Z-8.965
X194.791 Z-8.888
X194.91 Z-8.773
X195.014 Z-8.7
X195.111 Z-8.657
X195.255 Z-8.621
X195.438 Z-8.593
X195.704 Z-8.596
X196.409 Z-8.676
X196.538 Z-8.695
X196.843 Z-8.759
X197.043 Z-8.821
X197.293 Z-8.945
X197.421 Z-9.03
X197.546 Z-9.157
X197.649 Z-9.283
X197.794 Z-9.471
X197.883 Z-9.615
X197.985 Z-9.901
X198.062 Z-10.198
X198.079 Z-10.399
X199.325 Z-10.866
X199.565 Z-10.959
X199.665 Z-11.025
X199.841 Z-10.999
X199.975 Z-10.99
X201.975 Z-11.106
X202.639 Z-11.153
X203.4 Z-11.22
X204.076 Z-11.303
X205.146 Z-11.47
X205.499 Z-11.547
X205.883 Z-11.634
X206.138 Z-11.698
X207.003 Z-11.962
X207.372 Z-12.094
X207.735 Z-12.244
X207.914 Z-12.342
X208.043 Z-12.452
X208.115 Z-12.545
X208.148 Z-12.61
X208.174 Z-12.701
X208.177 Z-13.
X208.224
Z5.
X188.301 Y3.067
Z-10.075
Z-12.998 F200.
X188.152 Z-13.148 F1000.
X188.001 Z-13.
X187.997 Z-12.709
X187.963 Z-12.634
X187.924 Z-12.591
X187.814 Z-12.509
X187.645 Z-12.424
X187.524 Z-12.381
X187.395 Z-12.374
X187.261 Z-12.377
X187.144 Z-12.406
X186.922 Z-12.494
X186.816 Z-12.553
X186.761 Z-12.608
X186.72 Z-12.696
X186.714 Z-12.748
Z-13.
X186.597 Y3.102
X186.482 Y3.142
X186.369 Y3.185
X186.26 Y3.24
Z-12.747
X186.277 Z-12.64
X186.313 Z-12.561
X186.361 Z-12.492
X186.445 Z-12.413
X186.618 Z-12.316
X186.829 Z-12.241
X187.223 Z-12.175
X187.502 Z-12.172
X187.888 Z-12.246
X188.009 Z-12.281
X188.115 Z-12.342
X188.201 Z-12.423
X188.281 Z-12.538
X188.314 Z-12.618
X188.331 Z-12.691
X188.335 Z-13.
X188.461 Y3.324
X188.582 Y3.413
X188.577 Z-12.679
X188.552 Z-12.583
X188.519 Z-12.511
X188.438 Z-12.398
X188.311 Z-12.289
X188.149 Z-12.192
X188.032 Z-12.14
X187.876 Z-12.104
X187.518 Z-12.061
X187.287 Z-12.06
X187.002 Z-12.082
X186.706 Z-12.128
X186.456 Z-12.196
X186.263 Z-12.29
X186.161 Z-12.358
X186.112 Z-12.403
X186.071 Z-12.452
X186.009 Z-12.565
X185.988 Z-12.633
X185.973 Z-12.747
Z-13.
X185.927
Z5.
X175.052 Y2.721
Z-9.837
Z-12.998 F200.
X174.903 Z-13.148 F1000.
X174.752 Z-13.
X174.749 Z-12.715
X174.719 Z-12.647
X174.686 Z-12.609
X174.618 Z-12.572
X174.425 Z-12.549
X174.178 Z-12.506
X174.083 Z-12.518
X174.053 Z-12.529
X173.997 Z-12.515
X173.932
X173.845 Z-12.547
X173.804 Z-12.574
X173.708 Z-12.576
X173.652 Z-12.565
X173.578 Z-12.576
X173.509 Z-12.622
X173.436 Z-12.731
X173.433 Z-13.
X173.332 Y2.729
X173.232 Y2.739
X173.131 Y2.751
X173.032 Y2.766
X172.933 Y2.784
X172.837 Y2.815
X172.743 Y2.854
X172.649 Y2.894
Z-12.747
X172.657 Z-12.68
X172.683 Z-12.608
X172.723 Z-12.543
X172.811 Z-12.449
X172.913 Z-12.375
X172.969 Z-12.35
X173.142 Z-12.308
X173.383 Z-12.275
X173.535 Z-12.255
X173.656 Z-12.243
X173.79 Z-12.246
X173.921 Z-12.229
X174.048 Z-12.233
X174.161 Z-12.224
X174.552 Z-12.242
X174.68 Z-12.256
X174.915 Z-12.319
X175.03 Z-12.374
X175.195 Z-12.487
X175.269 Z-12.564
X175.336 Z-12.635
X175.369 Z-12.707
X175.374 Z-13.
X175.534 Y2.936
X175.694 Y2.98
X175.854 Y3.022
X176.013 Y3.067
X176.012 Z-12.721
X175.999 Z-12.672
X175.965 Z-12.609
X175.879 Z-12.517
X175.733 Z-12.422
X175.496 Z-12.318
X175.318 Z-12.255
X174.954 Z-12.144
X174.76 Z-12.115
X174.496 Z-12.102
X174.11 Z-12.095
X174.023 Z-12.096
X173.576 Z-12.091
X173.151 Z-12.133
X172.946 Z-12.169
X172.689 Z-12.267
X172.565 Z-12.345
X172.475 Z-12.44
X172.414 Z-12.549
X172.38 Z-12.673
X172.374 Z-13.
X172.3 Y3.151
X172.232 Y3.24
X172.233 Z-12.729
X172.251 Z-12.602
X172.278 Z-12.518
X172.305 Z-12.459
X172.379 Z-12.347
X172.468 Z-12.253
X172.571 Z-12.181
X172.682 Z-12.13
X173.082 Z-12.023
X173.522 Z-11.944
X173.757 Z-11.931
X174.005 Z-11.913
X174.139 Z-11.904
X174.45 Z-11.941
X174.77 Z-12.015
X175.052 Z-12.033
X175.434 Z-12.079
X175.763 Z-12.179
X175.899 Z-12.239
X175.992 Z-12.27
X176.138 Z-12.335
X176.325 Z-12.458
X176.412 Z-12.553
X176.457 Z-12.653
X176.469 Z-12.72
X176.471 Z-13.
X176.557 Y3.282
X176.644 Y3.321
X176.729 Y3.367
X176.813 Y3.413
X176.809 Z-12.696
X176.792 Z-12.627
X176.759 Z-12.552
X176.679 Z-12.444
X176.577 Z-12.355
X176.315 Z-12.209
X175.973 Z-12.036
X175.854 Z-11.988
X175.728 Z-11.96
X175.435 Z-11.932
X175.33
X175.179 Z-11.879
X174.925 Z-11.816
X174.632 Z-11.781
X174.333 Z-11.766
X174.131 Z-11.75
X173.656 Z-11.809
X173.052 Z-11.941
X172.643 Z-12.069
X172.492 Z-12.14
X172.39 Z-12.208
X172.275 Z-12.314
X172.189 Z-12.438
X172.144 Z-12.54
X172.117 Z-12.657
X172.11 Z-12.749
Z-13.
X172.064
Z5.
X270.159 Y3.586
Z-10.003
Z-11.849 F200.
X270.009 Z-11.999 F1000.
X219.936 Z-12.001
X219.808 Z-12.024
X219.694 Z-12.064
X219.587 Z-12.123
X219.489 Z-12.2
X219.403 Z-12.294
X219.333 Z-12.406
X219.286 Z-12.518
X219.258 Z-12.636
X219.25 Z-12.747
Z-12.93
X211.764
X211.76 Z-12.669
X211.744 Z-12.576
X211.716 Z-12.486
X211.659 Z-12.372
X211.591 Z-12.281
X211.506 Z-12.199
X211.404 Z-12.13
X211.29 Z-12.08
X211.166 Z-12.049
X210.972 Z-12.033
X210.656 Z-12.057
X210.533 Z-12.087
X210.424 Z-12.146
X210.33 Z-12.235
X210.256 Z-12.348
X210.166 Z-12.502
X210.136 Z-12.574
X210.111 Z-12.697
X210.106 Z-12.93
X208.489
Z-12.739
X208.472 Z-12.637
X208.43 Z-12.54
X208.355 Z-12.438
X208.266 Z-12.356
X208.092 Z-12.247
X207.659 Z-12.052
X207.091 Z-11.842
X206.352 Z-11.611
X206.226 Z-11.575
X205.315 Z-11.362
X204.205 Z-11.19
X203.618 Z-11.116
X202.781 Z-11.039
X202.001 Z-10.982
X200.291 Z-10.875
X199.957 Z-10.855
X199.832 Z-10.869
X199.745 Z-10.888
X199.64 Z-10.815
X199.524 Z-10.767
X198.569 Z-10.397
X198.324 Z-10.3
X198.129 Z-10.23
X198.117 Z-10.144
X198.076 Z-10.004
X197.946 Z-9.635
X197.879 Z-9.508
X197.692 Z-9.245
X197.503 Z-9.012
X197.417 Z-8.935
X197.173 Z-8.787
X197.085 Z-8.748
X196.657 Z-8.64
X196.4 Z-8.591
X195.4 Z-8.452
X195.268 Z-8.45
X195.133 Z-8.477
X194.857 Z-8.576
X194.752 Z-8.644
X194.663 Z-8.739
X194.606 Z-8.806
X194.447 Z-8.898
X194.33 Z-9.005
X194.137 Z-9.254
X194.04 Z-9.34
X193.891 Z-9.538
X193.778 Z-9.73
X193.686 Z-9.958
X193.679 Z-9.979
X193.459 Z-10.075
X193.015 Z-10.315
X192.735 Z-10.513
X192.409 Z-10.769
X192.044 Z-11.13
X191.735 Z-11.521
X191.533 Z-11.818
X191.182 Z-12.463
X191.136 Z-12.615
X191.123 Z-12.747
Z-12.93
X188.78
X188.778 Z-12.694
X188.761 Z-12.601
X188.711 Z-12.474
X188.646 Z-12.38
X188.562 Z-12.298
X188.403 Z-12.193
X188.229 Z-12.116
X188.106 Z-12.071
X187.889 Z-12.004
X187.696 Z-11.975
X187.467 Z-11.959
X186.931 Z-11.98
X186.487 Z-12.072
X186.216 Z-12.159
X186.058 Z-12.252
X185.963 Z-12.33
X185.877 Z-12.424
X185.808 Z-12.54
X185.777 Z-12.624
X185.761 Z-12.748
X185.76 Z-12.93
X177.113
X177.111 Z-12.703
X177.077 Z-12.585
X177.035 Z-12.51
X176.946 Z-12.404
X176.824 Z-12.304
X176.691 Z-12.223
X176.552 Z-12.096
X176.448 Z-12.031
X176.274 Z-11.95
X176.025 Z-11.883
X175.739 Z-11.835
X175.716 Z-11.831
X175.607 Z-11.773
X175.423 Z-11.719
X175.134 Z-11.663
X174.344 Z-11.642
X174.039 Z-11.671
X173.616 Z-11.737
X173.073 Z-11.867
X172.735 Z-11.979
X172.422 Z-12.11
X172.294 Z-12.197
X172.204 Z-12.285
X172.128 Z-12.391
X172.094 Z-12.456
X172.061 Z-12.542
X172.035 Z-12.659
X172.028 Z-12.93
X34.916 Z-12.933
X34.464 Z-12.959
X34.193 Z-13.
X34.106 Z-12.926
X33.896 Y3.664 Z-12.701
X33.851 Y3.68
X33.64 Y3.759 Z-12.926
Z-12.927
X33.733 Z-13.
X33.952 Z-12.945
X34.082 Z-12.92
X34.458 Z-12.863
X34.586 Z-12.853
X34.915 Z-12.836
X171.96 Z-12.833
X171.962 Z-12.709
X171.984 Z-12.567
X172.03 Z-12.44
X172.098 Z-12.324
X172.182 Z-12.227
X172.279 Z-12.148
X172.378 Z-12.091
X172.743 Z-11.941
X173.147 Z-11.805
X173.659 Z-11.673
X173.931 Z-11.625
X174.21 Z-11.586
X174.572 Z-11.556
X175.14 Z-11.553
X175.615 Z-11.607
X175.943 Z-11.698
X176.048 Z-11.747
X176.108 Z-11.791
X176.206 Z-11.806
X176.543 Z-11.899
X176.714 Z-11.979
X176.816 Z-12.049
X176.986 Z-12.212
X177.142 Z-12.327
X177.224 Z-12.414
X177.314 Z-12.555
X177.347 Z-12.651
X177.357 Z-12.724
X177.358 Z-12.833
X185.59
X185.592 Z-12.702
X185.617 Z-12.579
X185.647 Z-12.502
X185.717 Z-12.388
X185.774 Z-12.321
X185.9 Z-12.216
X186.06 Z-12.132
X186.295 Z-12.041
X186.521 Z-11.968
X186.882 Z-11.895
X187.003 Z-11.877
X187.51 Z-11.865
X187.835 Z-11.907
X188.087 Z-11.971
X188.471 Z-12.118
X188.581 Z-12.177
X188.676 Z-12.253
X188.755 Z-12.341
X188.858 Z-12.362
X188.916 Z-12.386
X189.012 Z-12.453
X189.059 Z-12.507
X189.12 Z-12.615
X189.141 Z-12.692
X189.146 Z-12.833
X190.603
X190.604 Z-12.737
X190.613 Z-12.677
X190.644 Z-12.601
X190.675 Z-12.553
X190.764 Z-12.458
X190.845 Z-12.404
X191.096 Z-12.307
X191.23 Z-12.288
X191.516 Z-11.768
X191.674 Z-11.496
X191.806 Z-11.286
X192.123 Z-10.906
X192.419 Z-10.611
X192.868 Z-10.248
X193.158 Z-10.074
X193.41 Z-9.947
X193.639 Z-9.843
X193.708 Z-9.672
X193.841 Z-9.443
X193.945 Z-9.287
X194.071 Z-9.138
X194.167 Z-8.982
X194.248 Z-8.882
X194.368 Z-8.783
X194.493 Z-8.681
X194.656 Z-8.525
X194.768 Z-8.447
X194.881 Z-8.401
X195.083 Z-8.354
X195.246 Z-8.334
X195.376 Z-8.34
X196.008 Z-8.458
X196.605 Z-8.554
X196.944 Z-8.642
X197.183 Z-8.737
X197.347 Z-8.841
X197.497 Z-8.954
X197.684 Z-9.147
X197.846 Z-9.375
X197.978 Z-9.584
X198.038 Z-9.753
X198.127 Z-10.044
X198.369 Z-10.137
X199.455 Z-10.569
X199.663 Z-10.66
X199.83 Z-10.755
X199.902 Z-10.743
X200.052 Z-10.736
X201.878 Z-10.852
X202.778 Z-10.918
X203.693 Z-11.004
X204.346 Z-11.079
X205.253 Z-11.225
X205.639 Z-11.301
X206.137 Z-11.417
X206.518 Z-11.518
X207.097 Z-11.696
X207.513 Z-11.849
X207.756 Z-11.943
X208.116 Z-12.103
X208.364 Z-12.226
X208.539 Z-12.332
X208.652 Z-12.434
X208.723 Z-12.53
X208.756 Z-12.599
X208.781 Z-12.691
X208.786 Z-12.833
X209.929
X209.93 Z-12.714
X209.944 Z-12.535
X209.967 Z-12.459
X209.989 Z-12.408
X210.121 Z-12.193
X210.164 Z-12.134
X210.256 Z-12.046
X210.361 Z-11.981
X210.529 Z-11.917
X210.663 Z-11.896
X210.793 Z-11.903
X211.163 Z-11.985
X211.374 Z-12.064
X211.508 Z-12.144
X211.6 Z-12.224
X211.675 Z-12.315
X211.739 Z-12.427
X211.773 Z-12.512
X211.79 Z-12.573
X211.806 Z-12.68
X211.809 Z-12.833
X219.25
Z-12.734
X219.258 Z-12.636
X219.286 Z-12.518
X219.333 Z-12.406
X219.403 Z-12.294
X219.489 Z-12.2
X219.587 Z-12.123
X219.694 Z-12.064
X219.808 Z-12.024
X219.936 Z-12.001
X270.009 Z-11.999
X270.042 Z-11.991
X270.075 Z-11.983
Y3.932
X270.042 Z-11.991
X270.009 Z-11.999
X219.936 Z-12.001
X219.808 Z-12.024
X219.694 Z-12.064
X219.587 Z-12.123
X219.489 Z-12.2
X219.403 Z-12.294
X219.333 Z-12.406
X219.286 Z-12.518
X219.258 Z-12.636
X219.25 Z-12.736
X211.819
X211.812 Z-12.72
X211.805 Z-12.636
X211.771 Z-12.497
X211.711 Z-12.366
X211.612 Z-12.232
X211.496 Z-12.131
X211.308 Z-12.01
X211.073 Z-11.902
X210.889 Z-11.834
X210.734 Z-11.807
X210.565
X210.385 Z-11.832
X210.214 Z-11.888
X210.106 Z-11.948
X210.009 Z-12.031
X209.968 Z-12.079
X209.82 Z-12.326
X209.805 Z-12.357
X209.617 Z-12.45
X209.544 Z-12.512
X209.498 Z-12.578
X209.469 Z-12.645
X209.454 Z-12.736
X209.067
X209.052 Z-12.639
X209.022 Z-12.561
X208.944 Z-12.444
X208.836 Z-12.339
X208.68 Z-12.236
X208.226 Z-12.006
X207.792 Z-11.811
X207.627 Z-11.744
X207.133 Z-11.568
X206.631 Z-11.414
X206.251 Z-11.313
X205.996 Z-11.251
X205.495 Z-11.146
X204.979 Z-11.05
X204.459 Z-10.973
X203.952 Z-10.913
X203.181 Z-10.834
X202.526 Z-10.778
X200.098 Z-10.613
X199.971 Z-10.621
X199.906 Z-10.631
X199.748 Z-10.535
X199.46 Z-10.405
X198.366 Z-9.96
X198.088 Z-9.856
X198.043 Z-9.66
X197.997 Z-9.551
X197.871 Z-9.355
X197.722 Z-9.146
X197.501 Z-8.924
X197.383 Z-8.833
X197.196 Z-8.714
X196.922 Z-8.587
X196.689 Z-8.513
X195.811 Z-8.356
X195.376 Z-8.259
X195.182 Z-8.233
X194.99 Z-8.242
X194.813 Z-8.264
X194.698 Z-8.301
X194.59 Z-8.357
X194.489 Z-8.432
X194.402 Z-8.531
X194.31 Z-8.665
X194.152 Z-8.796
X194.078 Z-8.879
X193.917 Z-9.146
X193.707 Z-9.49
X193.613 Z-9.704
X193.192 Z-9.908
X192.866 Z-10.11
X192.497 Z-10.403
X192.162 Z-10.735
X192.025 Z-10.897
X191.752 Z-11.259
X191.553 Z-11.639
X191.322 Z-12.095
X191.007 Z-12.104
X190.876 Z-12.134
X190.778 Z-12.178
X190.64 Z-12.267
X190.479 Z-12.366
X190.144 Z-12.364
X190.049 Z-12.381
X189.767 Z-12.478
X189.688 Z-12.53
X189.638 Z-12.591
X189.606 Z-12.659
X189.592 Z-12.736
X189.414
X189.397 Z-12.617
X189.381 Z-12.567
X189.348 Z-12.495
X189.28 Z-12.4
X189.179 Z-12.313
X188.983 Z-12.208
X188.848 Z-12.164
X188.719 Z-12.153
X188.642
X188.451 Z-12.032
X188.138 Z-11.902
X187.903 Z-11.834
X187.57 Z-11.799
X187.195 Z-11.795
X187.035 Z-11.788
X186.918 Z-11.8
X186.557 Z-11.873
X186.331 Z-11.945
X185.974 Z-12.084
X185.814 Z-12.162
X185.662 Z-12.272
X185.548 Z-12.399
X185.483 Z-12.516
X185.448 Z-12.629
X185.435 Z-12.736
X177.632
X177.612 Z-12.621
X177.562 Z-12.509
X177.485 Z-12.415
X177.13 Z-12.073
X176.938 Z-11.921
X176.813 Z-11.856
X176.645 Z-11.805
X176.442 Z-11.76
X176.335 Z-11.685
X176.112 Z-11.58
X175.99 Z-11.542
X175.667 Z-11.494
X175.34 Z-11.472
X175.025 Z-11.476
X174.942 Z-11.485
X174.674 Z-11.49
X174.243 Z-11.528
X173.75 Z-11.609
X173.26 Z-11.736
X172.722 Z-11.917
X172.361 Z-12.071
X172.23 Z-12.148
X172.112 Z-12.255
X172.034 Z-12.361
X171.972 Z-12.487
X171.941 Z-12.59
X171.924 Z-12.736
X34.946 Z-12.738
X34.448 Z-12.768
X34.038 Z-12.829
X33.794 Z-12.888
X33.468 Z-12.975
X33.399 Z-13.
X33.341 Z-12.997
X33.34 Z-12.996
X33.307 Z-12.989
X33.047
Y4.105
X33.081 Z-12.996
X33.138 Z-13.
X33.313 Z-12.939
X33.552 Z-12.861
X33.967 Z-12.759
X34.45 Z-12.686
X34.929 Z-12.658
X171.909 Z-12.656
X171.934 Z-12.538
X171.966 Z-12.451
X172.015 Z-12.357
X172.114 Z-12.23
X172.208 Z-12.147
X172.313 Z-12.082
X172.648 Z-11.929
X172.869 Z-11.842
X173.342 Z-11.683
X173.74 Z-11.571
X174.212 Z-11.482
X174.343 Z-11.463
X175.091 Z-11.401
X175.292 Z-11.399
X175.845 Z-11.417
X176.072 Z-11.436
X176.306 Z-11.506
X176.499 Z-11.587
X176.696 Z-11.712
X176.74 Z-11.727
X176.939 Z-11.791
X177.225 Z-11.943
X177.317 Z-11.995
X177.492 Z-12.114
X177.59 Z-12.207
X177.695 Z-12.358
X177.743 Z-12.407
X177.835 Z-12.528
X177.885 Z-12.653
X185.319 Z-12.656
X185.322 Z-12.643
X185.36 Z-12.512
X185.388 Z-12.453
X185.473 Z-12.328
X185.597 Z-12.207
X185.705 Z-12.135
X185.988 Z-11.999
X186.276 Z-11.881
X186.634 Z-11.767
X186.966 Z-11.713
X187.198 Z-11.706
X187.357 Z-11.735
X187.678
X187.904 Z-11.763
X188.161 Z-11.84
X188.501 Z-11.984
X188.61 Z-12.056
X188.723 Z-12.053
X188.876 Z-12.068
X189.065 Z-12.117
X189.183 Z-12.162
X189.288 Z-12.227
X189.374 Z-12.305
X189.488 Z-12.375
X189.545 Z-12.326
X189.65 Z-12.259
X189.764 Z-12.218
X190.085 Z-12.17
X190.458 Z-12.165
X190.578 Z-12.054
X190.691 Z-11.986
X190.806 Z-11.948
X190.906 Z-11.934
X191.402 Z-11.927
X191.428 Z-11.871
X191.646 Z-11.412
X191.711 Z-11.284
X191.866 Z-11.024
X192.048 Z-10.776
X192.24 Z-10.54
X192.545 Z-10.233
X192.885 Z-9.959
X193.147 Z-9.801
X193.355 Z-9.687
X193.477 Z-9.633
X193.599 Z-9.583
X193.722 Z-9.268
X193.895 Z-8.932
X193.986 Z-8.811
X194.125 Z-8.671
X194.203 Z-8.508
X194.284 Z-8.399
X194.379 Z-8.316
X194.486 Z-8.252
X194.657 Z-8.193
X194.802 Z-8.166
X195.083 Z-8.15
X195.252 Z-8.163
X195.973 Z-8.323
X196.479 Z-8.391
X196.729 Z-8.464
X196.943 Z-8.548
X197.13 Z-8.644
X197.368 Z-8.791
X197.493 Z-8.883
X197.68 Z-9.067
X197.762 Z-9.155
X197.852 Z-9.284
X197.991 Z-9.517
X198.047 Z-9.678
X198.192 Z-9.738
X198.792 Z-9.976
X199.521 Z-10.274
X199.847 Z-10.417
X199.974 Z-10.503
X200.025 Z-10.495
X200.159 Z-10.486
X200.542 Z-10.513
X200.921 Z-10.549
X202.225 Z-10.642
X203.134 Z-10.713
X203.774 Z-10.779
X204.427 Z-10.849
X204.803 Z-10.904
X205.193 Z-10.966
X205.579 Z-11.038
X206.207 Z-11.173
X206.732 Z-11.306
X207.34 Z-11.504
X207.832 Z-11.684
X208.192 Z-11.843
X208.544 Z-12.015
X208.892 Z-12.198
X209.068 Z-12.303
X209.195 Z-12.414
X209.267 Z-12.508
X209.283 Z-12.485
X209.365 Z-12.383
X209.458 Z-12.3
X209.565 Z-12.234
X209.686 Z-12.192
X209.788 Z-12.018
X209.874 Z-11.918
X209.976 Z-11.842
X210.087 Z-11.79
X210.26 Z-11.744
X210.453 Z-11.73
X210.649 Z-11.744
X210.871 Z-11.788
X211.021 Z-11.843
X211.247 Z-11.968
X211.483 Z-12.14
X211.597 Z-12.242
X211.697 Z-12.38
X211.762 Z-12.533
X211.788 Z-12.654
X219.256 Z-12.656
X219.286 Z-12.518
X219.333 Z-12.406
X219.403 Z-12.294
X219.489 Z-12.2
X219.587 Z-12.123
X219.694 Z-12.064
X219.808 Z-12.024
X219.936 Z-12.001
X270.009 Z-11.999
X270.042 Z-11.991
X270.075 Z-11.983
Y4.278
X270.042 Z-11.991
X270.009 Z-11.999
X219.936 Z-12.001
X219.808 Z-12.024
X219.694 Z-12.064
X219.587 Z-12.123
X219.489 Z-12.2
X219.403 Z-12.294
X219.333 Z-12.406
X219.282 Z-12.532
X219.269 Z-12.576
X211.748 Z-12.574
X211.731 Z-12.517
X211.697 Z-12.434
X211.622 Z-12.31
X211.519 Z-12.199
X211.347 Z-12.056
X211.085 Z-11.873
X210.979 Z-11.815
X210.674 Z-11.711
X210.483 Z-11.668
X210.288 Z-11.651
X210.14 Z-11.661
X209.981 Z-11.701
X209.87 Z-11.747
X209.765 Z-11.81
X209.669 Z-11.893
X209.555 Z-12.028
X209.502 Z-12.117
X209.27 Z-12.259
X208.931 Z-12.07
X208.584 Z-11.887
X207.96 Z-11.595
X207.748 Z-11.511
X207.501 Z-11.425
X206.877 Z-11.221
X206.561 Z-11.134
X206.243 Z-11.055
X205.64 Z-10.926
X204.864 Z-10.793
X204.474 Z-10.741
X203.835 Z-10.668
X203.063 Z-10.593
X201.755 Z-10.494
X201.105 Z-10.447
X200.596 Z-10.39
X200.244 Z-10.356
X200.136 Z-10.357
X200.027 Z-10.375
X199.886 Z-10.279
X199.696 Z-10.189
X199.21 Z-9.991
X198.49 Z-9.706
X197.993 Z-9.507
X197.913 Z-9.35
X197.766 Z-9.132
X197.498 Z-8.853
X197.401 Z-8.776
X197.214 Z-8.647
X196.973 Z-8.509
X196.714 Z-8.402
X196.436 Z-8.305
X196.247 Z-8.26
X195.934 Z-8.233
X195.852 Z-8.232
X195.485 Z-8.148
X195.098 Z-8.081
X194.826 Z-8.084
X194.54 Z-8.123
X194.369 Z-8.178
X194.26 Z-8.234
X194.16 Z-8.308
X194.062 Z-8.416
X194.001 Z-8.53
X193.946 Z-8.69
X193.8 Z-8.885
X193.7 Z-9.092
X193.57 Z-9.473
X193.3 Z-9.589
X192.895 Z-9.833
X192.603 Z-10.063
X192.299 Z-10.372
X192.102 Z-10.619
X191.921 Z-10.883
X191.668 Z-11.338
X191.474 Z-11.779
X191.368 Z-11.79
X190.886 Z-11.786
X190.714 Z-11.802
X190.598 Z-11.833
X190.487 Z-11.885
X190.386 Z-11.965
X190.303 Z-12.047
X190.169 Z-12.05
X189.789 Z-12.079
X189.672 Z-12.109
X189.493 Z-12.191
X189.377 Z-12.144
X189.251 Z-12.118
X189.092 Z-12.052
X188.821 Z-12.001
X188.636 Z-12.004
X188.532 Z-11.937
X188.246 Z-11.8
X187.864 Z-11.684
X187.707 Z-11.671
X187.506 Z-11.682
X187.325 Z-11.642
X187.129 Z-11.633
X186.873 Z-11.647
X186.444 Z-11.743
X186.274 Z-11.8
X185.99 Z-11.922
X185.633 Z-12.102
X185.447 Z-12.228
X185.357 Z-12.315
X185.28 Z-12.42
X185.224 Z-12.536
X185.209 Z-12.576
X178.113 Z-12.574
X178.043 Z-12.453
X177.966 Z-12.352
X177.836 Z-12.153
X177.752 Z-12.071
X177.479 Z-11.892
X176.983 Z-11.689
X176.713 Z-11.526
X176.408 Z-11.424
X176.217 Z-11.377
X175.908 Z-11.344
X175.372 Z-11.328
X175.171
X174.541 Z-11.374
X173.932 Z-11.479
X173.41 Z-11.634
X172.819 Z-11.841
X172.425 Z-12.01
X172.163 Z-12.153
X172.066 Z-12.234
X171.982 Z-12.333
X171.915 Z-12.453
X171.872 Z-12.576
X164.062 Z-12.574
X164.032 Z-12.54
X163.981 Z-12.5
X163.897 Z-12.465
X163.742 Z-12.425
X163.568 Z-12.373
X163.278 Z-12.334
X162.98 Z-12.321
X162.605 Z-12.324
X162.398 Z-12.337
X162.166 Z-12.396
X161.879 Z-12.492
X161.816 Z-12.52
X161.707 Z-12.563
X161.687 Z-12.576
X34.962 Z-12.577
X34.453 Z-12.606
X33.97 Z-12.679
X33.481 Z-12.802
X33.001 Z-12.971
X32.938 Z-13.
X32.874 Z-12.999
X32.841 Z-12.991
X32.666
Y4.451
X32.699 Z-12.999
X32.763 Z-13.
X32.764
X32.986 Z-12.898
X33.11 Z-12.85
X33.47 Z-12.726
X33.598 Z-12.69
X33.968 Z-12.6
X34.459 Z-12.527
X34.962 Z-12.5
X160.906 Z-12.499
X161.007 Z-12.43
X161.173 Z-12.35
X161.346 Z-12.278
X161.85 Z-12.141
X162.02 Z-12.125
X162.188 Z-12.092
X162.59 Z-12.081
X163.253 Z-12.126
X163.636 Z-12.178
X163.873 Z-12.208
X164.005 Z-12.236
X164.253 Z-12.339
X164.393 Z-12.419
X164.485 Z-12.498
X171.868 Z-12.499
X171.894 Z-12.437
X171.961 Z-12.32
X172.043 Z-12.221
X172.139 Z-12.14
X172.241 Z-12.077
X172.61 Z-11.883
X172.72 Z-11.848
X172.782 Z-11.811
X172.919 Z-11.749
X173.286 Z-11.648
X173.457 Z-11.585
X173.77 Z-11.487
X174.111 Z-11.388
X174.485 Z-11.315
X174.835 Z-11.257
X175.266 Z-11.234
X175.633 Z-11.246
X175.759 Z-11.265
X176.089 Z-11.291
X176.382 Z-11.325
X176.604 Z-11.374
X176.792 Z-11.432
X176.91 Z-11.48
X177.07 Z-11.572
X177.342 Z-11.707
X177.526 Z-11.765
X177.695 Z-11.845
X177.919 Z-11.97
X178.064 Z-12.092
X178.138 Z-12.181
X178.286 Z-12.419
X178.321 Z-12.499
X185.121
X185.176 Z-12.398
X185.255 Z-12.293
X185.348 Z-12.206
X185.652 Z-12.013
X186.091 Z-11.804
X186.201 Z-11.76
X186.425 Z-11.681
X186.785 Z-11.6
X186.919 Z-11.581
X187.271 Z-11.573
X187.433 Z-11.588
X187.583 Z-11.636
X187.796 Z-11.63
X187.924 Z-11.649
X188.174 Z-11.72
X188.293 Z-11.766
X188.615 Z-11.957
X188.768 Z-11.95
X188.922 Z-11.961
X189.159 Z-12.033
X189.306 Z-12.042
X189.431 Z-12.071
X189.641 Z-11.989
X189.7 Z-11.972
X189.825 Z-11.954
X190.16 Z-11.945
X190.182 Z-11.929
X190.331 Z-11.801
X190.436 Z-11.735
X190.55 Z-11.69
X190.701 Z-11.664
X191.199 Z-11.661
X191.573 Z-11.598
X191.769 Z-11.138
X191.969 Z-10.756
X192.14 Z-10.486
X192.362 Z-10.2
X192.572 Z-9.987
X192.798 Z-9.792
X192.946 Z-9.685
X193.329 Z-9.462
X193.524 Z-9.377
X193.555 Z-9.23
X193.637 Z-8.995
X193.684 Z-8.883
X193.82 Z-8.672
X193.831 Z-8.639
X193.875 Z-8.478
X193.914 Z-8.399
X193.993 Z-8.292
X194.087 Z-8.206
X194.192 Z-8.14
X194.304 Z-8.093
X194.42 Z-8.065
X194.757 Z-8.016
X194.971
X195.167 Z-8.036
X195.283 Z-8.054
X195.7 Z-8.13
X195.866 Z-8.123
X196.191 Z-8.157
X196.382 Z-8.203
X196.492 Z-8.238
X196.712 Z-8.317
X196.951 Z-8.432
X197.202 Z-8.593
X197.429 Z-8.763
X197.523 Z-8.842
X197.804 Z-9.157
X197.911 Z-9.334
X198.795 Z-9.679
X199.746 Z-10.057
X199.862 Z-10.111
X199.974 Z-10.177
X200.074 Z-10.248
X200.177 Z-10.229
X200.308 Z-10.227
X201.063 Z-10.325
X201.7 Z-10.376
X203.005 Z-10.476
X203.79 Z-10.545
X204.56 Z-10.636
X204.95 Z-10.691
X205.713 Z-10.822
X205.97 Z-10.876
X206.482 Z-10.989
X206.83 Z-11.082
X207.487 Z-11.292
X207.735 Z-11.377
X208.114 Z-11.527
X208.679 Z-11.797
X209.262 Z-12.101
X209.28 Z-12.088
X209.372 Z-11.957
X209.464 Z-11.856
X209.617 Z-11.745
X209.771 Z-11.66
X209.943 Z-11.61
X210.127 Z-11.589
X210.341 Z-11.597
X210.514 Z-11.635
X210.78 Z-11.738
X210.932 Z-11.79
X211.069 Z-11.865
X211.296 Z-12.045
X211.524 Z-12.271
X211.621 Z-12.408
X211.625 Z-12.41
X211.888 Z-12.264
X211.982 Z-12.242
X212.07 Z-12.248
X212.429 Z-12.356
X212.614 Z-12.406
X212.781 Z-12.498
X213.203 Z-12.499
X213.306 Z-12.47
X213.529 Z-12.478
X213.6 Z-12.497
X219.292 Z-12.499
X219.333 Z-12.406
X219.403 Z-12.294
X219.489 Z-12.2
X219.587 Z-12.123
X219.694 Z-12.064
X219.808 Z-12.024
X219.936 Z-12.001
X270.009 Z-11.999
X270.042 Z-11.991
X270.075 Z-11.983
Y4.624
X270.042 Z-11.991
X270.009 Z-11.999
X219.936 Z-12.001
X219.808 Z-12.024
X219.694 Z-12.064
X219.587 Z-12.123
X219.489 Z-12.2
X219.403 Z-12.294
X219.321 Z-12.431
X219.301 Z-12.436
X214.302 Z-12.434
X214.212 Z-12.36
X214.101 Z-12.309
X213.913 Z-12.259
X213.523 Z-12.215
X213.305 Z-12.21
X212.945 Z-12.265
X212.828 Z-12.235
X212.47 Z-12.108
X212.126 Z-12.
X211.965 Z-11.969
X211.552 Z-11.954
X211.493 Z-11.965
X211.399 Z-12.01
X211.283 Z-12.099
X211.094 Z-11.921
X210.992 Z-11.849
X210.76 Z-11.725
X210.539 Z-11.621
X210.416 Z-11.585
X210.158 Z-11.541
X209.96 Z-11.53
X209.835 Z-11.541
X209.718 Z-11.567
X209.606 Z-11.611
X209.45 Z-11.709
X209.357 Z-11.794
X209.23 Z-11.942
X208.996 Z-11.82
X208.54 Z-11.59
X208.182 Z-11.427
X207.817 Z-11.284
X207.447 Z-11.15
X206.947 Z-10.992
X206.567 Z-10.89
X206.184 Z-10.801
X205.637 Z-10.692
X204.789 Z-10.553
X204.399 Z-10.504
X203.76 Z-10.427
X202.711 Z-10.34
X201.195 Z-10.219
X200.323 Z-10.107
X200.189 Z-10.116
X200.127 Z-10.128
X200.003 Z-10.043
X199.749 Z-9.911
X199.054 Z-9.635
X198.145 Z-9.295
X197.832 Z-9.183
X197.727 Z-9.035
X197.527 Z-8.793
X197.418 Z-8.689
X197.334 Z-8.575
X197.247 Z-8.493
X196.977 Z-8.326
X196.749 Z-8.203
X196.491 Z-8.108
X196.187 Z-8.042
X195.738 Z-8.01
X195.487 Z-8.032
X195.231 Z-7.992
X194.839 Z-7.95
X194.648 Z-7.953
X194.326 Z-8.004
X194.101 Z-8.086
X193.971 Z-8.167
X193.857 Z-8.277
X193.782 Z-8.383
X193.724 Z-8.513
X193.679 Z-8.7
X193.591 Z-8.864
X193.524 Z-9.041
X193.478 Z-9.192
X193.459 Z-9.301
X193.288 Z-9.383
X192.904 Z-9.604
X192.783 Z-9.699
X192.438 Z-10.022
X192.32 Z-10.164
X192.117 Z-10.464
X191.999 Z-10.67
X191.814 Z-11.065
X191.674 Z-11.421
X191.544 Z-11.437
X191.299 Z-11.488
X191.171 Z-11.512
X190.923 Z-11.538
X190.588 Z-11.549
X190.366 Z-11.596
X190.238 Z-11.656
X190.139 Z-11.734
X190.055 Z-11.84
X189.714 Z-11.852
X189.567 Z-11.881
X189.364 Z-11.955
X189.286 Z-11.994
X189.101 Z-11.984
X188.905 Z-11.925
X188.744 Z-11.91
X188.599 Z-11.901
X188.494 Z-11.833
X188.324 Z-11.74
X188.154 Z-11.666
X187.959 Z-11.609
X187.83 Z-11.593
X187.62 Z-11.6
X187.502 Z-11.555
X187.346 Z-11.524
X187.08 Z-11.514
X186.804 Z-11.537
X186.57 Z-11.578
X186.343 Z-11.647
X186.218 Z-11.693
X185.88 Z-11.841
X185.655 Z-11.951
X185.311 Z-12.153
X185.179 Z-12.261
X185.116 Z-12.332
X185.045 Z-12.436
X178.55 Z-12.435
X178.506 Z-12.316
X178.374 Z-12.129
X178.256 Z-12.019
X178.045 Z-11.871
X177.932 Z-11.816
X177.615 Z-11.688
X177.54 Z-11.655
X177.12 Z-11.44
X177.001 Z-11.393
X176.784 Z-11.32
X176.561 Z-11.277
X176.105 Z-11.214
X175.73 Z-11.129
X175.566 Z-11.122
X175.171 Z-11.138
X174.847 Z-11.176
X174.414 Z-11.268
X173.945 Z-11.397
X173.106 Z-11.662
X172.803 Z-11.786
X172.672 Z-11.851
X172.522 Z-11.917
X172.173 Z-12.109
X172.074 Z-12.181
X171.985 Z-12.272
X171.911 Z-12.38
X171.882 Z-12.436
X164.796 Z-12.433
X164.645 Z-12.322
X164.477 Z-12.234
X164.293 Z-12.17
X163.91 Z-12.085
X163.29 Z-11.986
X163.036 Z-11.981
X162.853 Z-11.957
X162.333 Z-11.931
X162.041 Z-11.944
X161.934 Z-11.939
X161.742 Z-11.962
X161.452 Z-12.012
X161.092 Z-12.088
X160.692 Z-12.198
X160.545 Z-12.266
X160.393 Z-12.37
X160.32 Z-12.436
X34.906 Z-12.439
X34.465 Z-12.463
X33.97 Z-12.535
X33.554 Z-12.634
X33.314 Z-12.71
X33.065 Z-12.793
X32.591 Z-13.
X32.486 Z-12.931
X32.423 Y4.71 Z-12.823
X32.359 Y4.797 Z-12.931
Z-12.934
X32.47 Z-13.
X32.541 Z-12.961
X33.002 Z-12.754
X33.479 Z-12.591
X33.97 Z-12.472
X34.454 Z-12.401
X34.946 Z-12.373
X159.793 Z-12.372
X159.887 Z-12.287
X160.059 Z-12.183
X160.517 Z-12.021
X160.747 Z-11.962
X161.321 Z-11.866
X161.719 Z-11.848
X162.341 Z-11.827
X162.566 Z-11.849
X162.773 Z-11.863
X163.329 Z-11.911
X163.869 Z-11.991
X164.256 Z-12.06
X164.558 Z-12.129
X164.809 Z-12.217
X164.978 Z-12.282
X165.107 Z-12.319
X165.215 Z-12.369
X171.944 Z-12.372
X171.979 Z-12.321
X172.086 Z-12.202
X172.19 Z-12.124
X172.35 Z-12.032
X172.737 Z-11.837
X173.238 Z-11.606
X173.544 Z-11.502
X174.075 Z-11.333
X174.567 Z-11.191
X174.854 Z-11.123
X175.217 Z-11.064
X175.645 Z-11.022
X176.095 Z-11.053
X176.221 Z-11.074
X176.375 Z-11.132
X176.468 Z-11.153
X176.609 Z-11.205
X176.768 Z-11.234
X176.894 Z-11.264
X177.005 Z-11.296
X177.131 Z-11.322
X177.253 Z-11.365
X177.46 Z-11.459
X177.764 Z-11.629
X178.106 Z-11.754
X178.291 Z-11.845
X178.418 Z-11.933
X178.599 Z-12.121
X178.689 Z-12.235
X178.749 Z-12.372
X184.981
X185.066 Z-12.268
X185.198 Z-12.159
X185.476 Z-11.991
X185.748 Z-11.843
X186.191 Z-11.644
X186.381 Z-11.578
X186.661 Z-11.507
X186.967 Z-11.471
X187.101 Z-11.462
X187.431 Z-11.483
X187.556 Z-11.51
X187.707 Z-11.568
X187.801 Z-11.564
X187.997 Z-11.58
X188.183 Z-11.629
X188.395 Z-11.732
X188.578 Z-11.841
X188.649 Z-11.847
X188.842 Z-11.881
X189.023 Z-11.931
X189.115 Z-11.94
X189.24 Z-11.872
X189.44 Z-11.794
X189.589 Z-11.758
X189.92 Z-11.742
X189.945 Z-11.713
X190.076 Z-11.584
X190.182 Z-11.52
X190.295 Z-11.48
X190.486 Z-11.443
X190.804 Z-11.432
X191.001 Z-11.42
X191.237 Z-11.344
X191.479 Z-11.277
X191.609 Z-11.249
X191.779 Z-11.224
X191.841 Z-11.039
X191.946 Z-10.791
X192.158 Z-10.346
X192.365 Z-10.032
X192.504 Z-9.873
X192.756 Z-9.636
X192.922 Z-9.504
X193.263 Z-9.299
X193.391 Z-9.235
X193.4 Z-9.153
X193.432 Z-9.023
X193.545 Z-8.748
X193.558 Z-8.642
X193.588 Z-8.507
X193.637 Z-8.397
X193.711 Z-8.289
X193.799 Z-8.199
X193.947 Z-8.091
X194.186 Z-7.97
X194.33 Z-7.927
X194.506 Z-7.906
X194.759 Z-7.894
X195.276 Z-7.949
X195.57 Z-7.906
X195.654 Z-7.899
X196.202 Z-7.928
X196.551 Z-8.008
X196.669 Z-8.053
X197.035 Z-8.268
X197.275 Z-8.431
X197.365 Z-8.512
X197.439 Z-8.604
X197.495 Z-8.702
X197.556 Z-8.771
X197.744 Z-9.031
X197.898 Z-9.09
X198.274 Z-9.211
X199.125 Z-9.518
X199.723 Z-9.753
X199.839 Z-9.809
X200.064 Z-9.932
X200.158 Z-10.007
X200.271 Z-9.989
X200.405 Z-9.991
X201.276 Z-10.107
X202.694 Z-10.226
X203.742 Z-10.315
X204.645 Z-10.418
X205.653 Z-10.581
X206.296 Z-10.708
X206.932 Z-10.868
X207.308 Z-10.984
X207.556 Z-11.068
X208.049 Z-11.249
X208.649 Z-11.511
X209.19 Z-11.78
X209.212 Z-11.755
X209.324 Z-11.636
X209.428 Z-11.566
X209.539 Z-11.518
X209.713 Z-11.473
X209.839 Z-11.462
X210.035 Z-11.477
X210.286 Z-11.538
X210.524 Z-11.602
X210.671 Z-11.671
X210.964 Z-11.877
X211.057 Z-11.804
X211.198 Z-11.75
X211.415 Z-11.712
X211.581
X211.827 Z-11.746
X212.075 Z-11.777
X212.2 Z-11.802
X212.551 Z-11.913
X212.938 Z-12.072
X213.102 Z-12.044
X213.263 Z-12.032
X213.917 Z-12.105
X214.171 Z-12.16
X214.284 Z-12.212
X214.382 Z-12.284
X214.461 Z-12.37
X219.351 Z-12.372
X219.403 Z-12.294
X219.489 Z-12.2
X219.587 Z-12.123
X219.694 Z-12.064
X219.808 Z-12.024
X219.936 Z-12.001
X270.009 Z-11.999
X270.042 Z-11.991
X270.075 Z-11.983
Y4.97
X270.042 Z-11.991
X270.009 Z-11.999
X219.936 Z-12.001
X219.808 Z-12.024
X219.694 Z-12.064
X219.587 Z-12.123
X219.489 Z-12.2
X219.388 Z-12.313
X214.622 Z-12.311
X214.483 Z-12.26
X214.395 Z-12.181
X214.29 Z-12.116
X214.141 Z-12.06
X213.962 Z-12.002
X213.66 Z-11.949
X213.473 Z-11.909
X213.213 Z-11.874
X212.945 Z-11.882
X212.894 Z-11.886
X212.567 Z-11.722
X212.196 Z-11.605
X212.071 Z-11.57
X211.747 Z-11.525
X211.595 Z-11.524
X211.301 Z-11.503
X211.011 Z-11.523
X210.923 Z-11.54
X210.81 Z-11.586
X210.755 Z-11.626
X210.685 Z-11.711
X210.46 Z-11.589
X210.281 Z-11.518
X210.032 Z-11.436
X209.905 Z-11.412
X209.69 Z-11.405
X209.573 Z-11.419
X209.457 Z-11.454
X209.322 Z-11.523
X209.182 Z-11.634
X209.173 Z-11.641
X208.941 Z-11.527
X208.584 Z-11.362
X208.103 Z-11.152
X207.982 Z-11.103
X207.364 Z-10.886
X206.988 Z-10.771
X206.608 Z-10.67
X206.353 Z-10.608
X205.71 Z-10.478
X204.803 Z-10.332
X204.543 Z-10.295
X203.891 Z-10.22
X203.237 Z-10.158
X201.454 Z-10.007
X200.597 Z-9.885
X200.402 Z-9.861
X200.27 Z-9.863
X200.181 Z-9.876
X200.043 Z-9.77
X199.816 Z-9.649
X199.701 Z-9.596
X199.211 Z-9.406
X198.965 Z-9.316
X198.357 Z-9.113
X197.652 Z-8.893
X197.554 Z-8.75
X197.523 Z-8.711
X197.444 Z-8.574
X197.321 Z-8.438
X197.083 Z-8.229
X196.894 Z-8.103
X196.575 Z-7.943
X196.305 Z-7.843
X196.142 Z-7.812
X195.847 Z-7.792
X195.545 Z-7.795
X195.247 Z-7.83
X194.997 Z-7.879
X194.651 Z-7.853
X194.307 Z-7.886
X194.132 Z-7.925
X193.951 Z-7.995
X193.771 Z-8.108
X193.663 Z-8.191
X193.576 Z-8.286
X193.506 Z-8.403
X193.476 Z-8.482
X193.448 Z-8.634
X193.424 Z-8.79
X193.35 Z-9.009
X193.325 Z-9.162
X193.32 Z-9.183
X193.095 Z-9.308
X192.894 Z-9.437
X192.635 Z-9.658
X192.4 Z-9.918
X192.241 Z-10.164
X192.138 Z-10.357
X191.99 Z-10.73
X191.896 Z-10.981
X191.88 Z-11.032
X191.682 Z-11.049
X191.424 Z-11.123
X190.877 Z-11.32
X190.839 Z-11.328
X190.435 Z-11.334
X190.26 Z-11.366
X190.091 Z-11.429
X189.983 Z-11.489
X189.876 Z-11.58
X189.808 Z-11.65
X189.479 Z-11.666
X189.301 Z-11.709
X189.136 Z-11.778
X188.977 Z-11.882
X188.671 Z-11.81
X188.583 Z-11.799
X188.293 Z-11.643
X188.168 Z-11.592
X188.005 Z-11.559
X187.801 Z-11.558
X187.694 Z-11.498
X187.574 Z-11.456
X187.414 Z-11.432
X186.963 Z-11.422
X186.695 Z-11.454
X186.565 Z-11.479
X186.323 Z-11.545
X186.102 Z-11.633
X185.66 Z-11.831
X185.438 Z-11.952
X185.096 Z-12.156
X184.966 Z-12.264
X184.921 Z-12.313
X178.947
X178.892 Z-12.194
X178.801 Z-12.08
X178.661 Z-11.922
X178.564 Z-11.845
X178.398 Z-11.752
X178.158 Z-11.65
X178.081 Z-11.619
X177.738 Z-11.417
X177.537 Z-11.335
X177.279 Z-11.256
X177.056 Z-11.206
X177.015 Z-11.2
X176.814 Z-11.094
X176.664 Z-11.038
X176.457 Z-10.998
X176.114 Z-10.955
X175.813 Z-10.95
X175.507 Z-10.973
X175.041 Z-11.046
X174.911 Z-11.073
X174.44 Z-11.192
X173.948 Z-11.334
X173.836 Z-11.369
X173.6 Z-11.449
X173.408 Z-11.51
X172.934 Z-11.715
X172.629 Z-11.901
X172.394 Z-12.037
X172.296 Z-12.101
X172.199 Z-12.159
X172.104 Z-12.24
X172.04 Z-12.313
X165.603
X165.411 Z-12.218
X165.045 Z-12.087
X164.887 Z-12.049
X164.554 Z-11.992
X164.299 Z-11.959
X163.712 Z-11.903
X163.586 Z-11.885
X163.404 Z-11.862
X162.559 Z-11.786
X162.007 Z-11.758
X161.229 Z-11.778
X160.684 Z-11.839
X160.378 Z-11.878
X160.15 Z-11.949
X159.796 Z-12.067
X159.682 Z-12.131
X159.588 Z-12.219
X159.523 Z-12.313
X34.942 Z-12.315
X34.446 Z-12.342
X33.969 Z-12.41
X33.464 Z-12.532
X32.99 Z-12.695
X32.54 Z-12.897
X32.355 Z-13.
X32.319 Z-13.009
X32.206
X32.189 Y4.971
X32.173 Y4.976
X32.158 Y4.984
X32.145 Y4.995
X32.134 Y5.008
X32.126 Y5.023
X32.122 Y5.039
X32.12 Y5.056
X32.122 Y5.073
X32.126 Y5.089
X32.134 Y5.104
X32.145 Y5.117
X32.158 Y5.128
X32.173 Y5.136
X32.189 Y5.141
X32.206 Y5.143
X32.242 Z-13.
X32.573 Z-12.822
X32.997 Z-12.639
X33.48 Z-12.477
X33.969 Z-12.361
X34.464 Z-12.291
X34.895 Z-12.268
X159.407 Z-12.264
X159.428 Z-12.228
X159.526 Z-12.097
X159.642 Z-11.988
X159.748 Z-11.925
X160.003 Z-11.843
X160.322 Z-11.781
X160.809 Z-11.731
X161.338 Z-11.71
X161.958 Z-11.711
X162.56 Z-11.746
X163.203 Z-11.718
X163.942 Z-11.716
X164.343 Z-11.706
X164.473 Z-11.714
X165.209 Z-11.824
X165.33 Z-11.869
X165.747 Z-12.06
X165.974 Z-12.181
X166.1 Z-12.261
X172.064 Z-12.264
X172.089 Z-12.239
X172.358 Z-12.01
X172.505 Z-11.897
X172.928 Z-11.62
X173.278 Z-11.454
X173.431 Z-11.404
X173.668 Z-11.323
X174.139 Z-11.2
X174.512 Z-11.136
X175.058 Z-11.01
X175.374 Z-10.95
X175.488 Z-10.925
X175.809 Z-10.875
X176.121 Z-10.86
X176.384 Z-10.874
X176.772 Z-10.922
X177.086 Z-11.004
X177.263 Z-11.084
X177.422 Z-11.181
X177.537 Z-11.21
X178.026 Z-11.374
X178.261 Z-11.478
X178.412 Z-11.576
X178.542 Z-11.689
X178.725 Z-11.781
X178.874 Z-11.896
X179.016 Z-12.05
X179.103 Z-12.166
X179.146 Z-12.264
X184.846
X184.867 Z-12.246
X185.019 Z-12.137
X185.399 Z-11.915
X185.609 Z-11.805
X185.944 Z-11.653
X186.273 Z-11.521
X186.592 Z-11.426
X186.804 Z-11.393
X186.997 Z-11.379
X187.445 Z-11.41
X187.637 Z-11.442
X187.756 Z-11.486
X187.863 Z-11.545
X187.93 Z-11.548
X188.092 Z-11.558
X188.215 Z-11.59
X188.6 Z-11.764
X188.875 Z-11.802
X188.974 Z-11.734
X189.13 Z-11.641
X189.245 Z-11.6
X189.422 Z-11.572
X189.705 Z-11.562
X189.782 Z-11.482
X189.904 Z-11.386
X190.011 Z-11.331
X190.18 Z-11.265
X190.322 Z-11.238
X190.759 Z-11.239
X190.969 Z-11.145
X191.283 Z-11.01
X191.508 Z-10.93
X191.683 Z-10.895
X191.971 Z-10.876
X192.196 Z-10.226
X192.283 Z-10.057
X192.396 Z-9.881
X192.626 Z-9.6
X192.81 Z-9.438
X193.041 Z-9.254
X193.266 Z-9.132
X193.271 Z-9.057
X193.301 Z-8.897
X193.344 Z-8.619
X193.376 Z-8.458
X193.423 Z-8.346
X193.493 Z-8.232
X193.58 Z-8.138
X193.679 Z-8.063
X193.839 Z-7.981
X194.028 Z-7.909
X194.281 Z-7.854
X194.547 Z-7.829
X194.733 Z-7.826
X194.895 Z-7.788
X195.237 Z-7.719
X195.506 Z-7.686
X195.887 Z-7.687
X196.088 Z-7.713
X196.36 Z-7.796
X196.563 Z-7.894
X196.952 Z-8.103
X197.102 Z-8.217
X197.238 Z-8.351
X197.425 Z-8.581
X197.527 Z-8.757
X197.974 Z-8.883
X198.578 Z-9.058
X199.12 Z-9.228
X199.702 Z-9.448
X200.019 Z-9.597
X200.223 Z-9.735
X200.343 Z-9.728
X200.515 Z-9.738
X201.02 Z-9.819
X201.645 Z-9.906
X203.308 Z-10.052
X203.961 Z-10.117
X204.614 Z-10.193
X205.652 Z-10.354
X206.424 Z-10.512
X206.679 Z-10.572
X207.246 Z-10.732
X207.742 Z-10.902
X208.17 Z-11.066
X208.532 Z-11.22
X209.009 Z-11.438
X209.179 Z-11.527
X209.217 Z-11.5
X209.358 Z-11.421
X209.472 Z-11.382
X209.597 Z-11.361
X209.729 Z-11.359
X209.858 Z-11.376
X210.029 Z-11.422
X210.394 Z-11.567
X210.421 Z-11.528
X210.51 Z-11.439
X210.613 Z-11.372
X210.725 Z-11.324
X210.85 Z-11.301
X211.602 Z-11.314
X211.788 Z-11.326
X212.089 Z-11.402
X212.581 Z-11.585
X212.878 Z-11.72
X213.173 Z-11.719
X213.335 Z-11.741
X213.925 Z-11.89
X214.104 Z-11.954
X214.279 Z-12.058
X214.371 Z-12.065
X214.507 Z-12.091
X214.743 Z-12.195
X214.845 Z-12.262
X219.427 Z-12.264
X219.489 Z-12.2
X219.587 Z-12.123
X219.694 Z-12.064
X219.808 Z-12.024
X219.936 Z-12.001
X270.009 Z-11.999
X270.042 Z-11.991
X270.075 Z-11.983
Y5.316
X270.042 Z-11.991
X270.009 Z-11.999
X219.936 Z-12.001
X219.808 Z-12.024
X219.694 Z-12.064
X219.587 Z-12.123
X219.471 Z-12.215
X214.936 Z-12.213
X214.774 Z-12.115
X214.569 Z-12.016
X214.415 Z-11.974
X214.21 Z-11.942
X214.007 Z-11.841
X213.646 Z-11.705
X213.174 Z-11.571
X212.944 Z-11.559
X212.826 Z-11.56
X212.05 Z-11.24
X211.949 Z-11.203
X211.82 Z-11.147
X211.648 Z-11.112
X211.451 Z-11.101
X211.048 Z-11.106
X210.806 Z-11.105
X210.62 Z-11.124
X210.447 Z-11.169
X210.284 Z-11.246
X210.233 Z-11.283
X210.183 Z-11.336
X210.131 Z-11.424
X210.117 Z-11.451
X209.926 Z-11.374
X209.759 Z-11.33
X209.63 Z-11.316
X209.496 Z-11.321
X209.379 Z-11.345
X209.202 Z-11.409
X208.57 Z-11.119
X208.267 Z-10.992
X207.594 Z-10.734
X207.276 Z-10.627
X206.652 Z-10.451
X206.14 Z-10.345
X205.624 Z-10.244
X204.716 Z-10.1
X204.196 Z-10.033
X203.151 Z-9.927
X201.724 Z-9.795
X200.998 Z-9.683
X200.46 Z-9.598
X200.312 Z-9.604
X200.265 Z-9.611
X200.168 Z-9.539
X200.009 Z-9.434
X199.782 Z-9.329
X199.229 Z-9.126
X198.73 Z-8.967
X198.604 Z-8.935
X198.348 Z-8.868
X198.109 Z-8.802
X197.852 Z-8.747
X197.383 Z-8.616
X197.208 Z-8.352
X197.059 Z-8.198
X196.931 Z-8.097
X196.768 Z-7.992
X196.456 Z-7.816
X196.192 Z-7.692
X195.98 Z-7.619
X195.818 Z-7.595
X195.552 Z-7.592
X195.188 Z-7.618
X195.064 Z-7.637
X194.706 Z-7.723
X194.469 Z-7.799
X194.258 Z-7.821
X194.051 Z-7.865
X193.77 Z-7.96
X193.636 Z-8.031
X193.514 Z-8.124
X193.427 Z-8.214
X193.333 Z-8.347
X193.246 Z-8.54
X193.218 Z-8.653
X193.209 Z-8.756
X193.203 Z-9.093
X192.986 Z-9.23
X192.799 Z-9.385
X192.661 Z-9.507
X192.553 Z-9.632
X192.349 Z-9.91
X192.259 Z-10.085
X192.124 Z-10.469
X192.043 Z-10.786
X191.915 Z-10.764
X191.785 Z-10.758
X191.519 Z-10.792
X191.354 Z-10.827
X191.235 Z-10.872
X190.903 Z-11.039
X190.75 Z-11.114
X190.673 Z-11.148
X190.305 Z-11.144
X190.095 Z-11.166
X189.947 Z-11.214
X189.819 Z-11.292
X189.619 Z-11.47
X189.366 Z-11.485
X189.072 Z-11.556
X188.955 Z-11.607
X188.755 Z-11.74
X188.592 Z-11.714
X188.187 Z-11.565
X188.044 Z-11.541
X187.919 Z-11.537
X187.811 Z-11.477
X187.645 Z-11.42
X187.218 Z-11.36
X186.997 Z-11.344
X186.804 Z-11.358
X186.629 Z-11.383
X186.19 Z-11.512
X185.874 Z-11.636
X185.657 Z-11.733
X185.301 Z-11.91
X184.921 Z-12.118
X184.727 Z-12.215
X179.302 Z-12.213
X179.217 Z-12.06
X179.114 Z-11.913
X178.987 Z-11.805
X178.825 Z-11.689
X178.758 Z-11.602
X178.667 Z-11.523
X178.562 Z-11.456
X178.342 Z-11.347
X178.162 Z-11.27
X177.973 Z-11.227
X177.902 Z-11.212
X177.801 Z-11.148
X177.623 Z-11.058
X177.34 Z-10.921
X177.123 Z-10.859
X176.717 Z-10.786
X176.454 Z-10.77
X176.131 Z-10.787
X175.578 Z-10.863
X175.403 Z-10.899
X175.163 Z-10.919
X174.258 Z-11.073
X173.993 Z-11.141
X173.516 Z-11.294
X173.377 Z-11.352
X173.235 Z-11.405
X172.946 Z-11.557
X172.621 Z-11.766
X172.378 Z-11.947
X172.283 Z-12.03
X172.132 Z-12.165
X172.084 Z-12.215
X166.539
X166.193 Z-11.975
X165.923 Z-11.835
X165.523 Z-11.701
X165.235 Z-11.643
X164.708 Z-11.577
X164.341 Z-11.557
X163.913 Z-11.571
X163.736 Z-11.584
X163.357 Z-11.587
X162.958 Z-11.609
X162.576 Z-11.645
X162.017 Z-11.685
X161.131 Z-11.672
X160.522 Z-11.684
X159.979 Z-11.751
X159.777 Z-11.803
X159.666 Z-11.854
X159.54 Z-11.946
X159.474 Z-12.013
X159.397 Z-12.119
X159.35 Z-12.215
X34.904 Z-12.219
X34.571 Z-12.234
X34.439 Z-12.245
X34.062 Z-12.297
X33.932 Z-12.321
X33.561 Z-12.407
X33.433 Z-12.444
X33.084 Z-12.558
X32.959 Z-12.606
X32.539 Z-12.791
X32.151 Z-13.
X32.116 Z-13.009
X32.034
X32.017 Y5.317
X32.001 Y5.322
X31.986 Y5.33
X31.973 Y5.341
X31.962 Y5.354
X31.954 Y5.369
X31.949 Y5.385 Z-13.01
X31.948 Y5.402
X31.949 Y5.419
X31.954 Y5.435
X31.962 Y5.45
X31.973 Y5.463
X31.986 Y5.474 Z-13.011
X32.001 Y5.482
X32.017 Y5.487
X32.034 Y5.489
X32.073 Z-13.
X32.181 Z-12.935
X32.516 Z-12.754
X32.624 Z-12.702
X32.989 Z-12.545
X33.464 Z-12.386
X33.967 Z-12.268
X34.453 Z-12.199
X34.938 Z-12.174
X159.317 Z-12.172
X159.331 Z-12.14
X159.415 Z-11.989
X159.498 Z-11.888
X159.594 Z-11.807
X159.701 Z-11.744
X159.814 Z-11.703
X160.048 Z-11.665
X160.334 Z-11.65
X160.861 Z-11.646
X161.397 Z-11.657
X161.604 Z-11.646
X162.899 Z-11.53
X163.335 Z-11.501
X163.959 Z-11.482
X164.562 Z-11.477
X165.148 Z-11.505
X165.57 Z-11.558
X165.884 Z-11.645
X166.117 Z-11.729
X166.415 Z-11.858
X166.724 Z-12.041
X166.909 Z-12.172
X172.107
X172.31 Z-11.99
X172.67 Z-11.703
X172.907 Z-11.551
X173.166 Z-11.405
X173.45 Z-11.277
X173.85 Z-11.123
X174.317 Z-10.988
X174.748 Z-10.886
X175.21 Z-10.807
X175.446 Z-10.782
X175.978 Z-10.758
X176.176 Z-10.723
X176.314 Z-10.705
X176.486 Z-10.693
X176.744 Z-10.68
X177.167 Z-10.727
X177.452 Z-10.796
X177.712 Z-10.908
X177.901 Z-10.996
X178.116 Z-11.139
X178.163 Z-11.17
X178.444 Z-11.256
X178.79 Z-11.406
X178.897 Z-11.472
X178.991 Z-11.55
X179.066 Z-11.638
X179.117 Z-11.73
X179.204 Z-11.803
X179.309 Z-11.915
X179.456 Z-12.17
X184.395 Z-12.172
X184.572 Z-12.134
X184.823 Z-12.065
X185.007 Z-11.999
X185.669 Z-11.68
X186.084 Z-11.512
X186.559 Z-11.366
X186.851 Z-11.317
X186.985 Z-11.308
X187.246 Z-11.329
X187.712 Z-11.426
X187.877 Z-11.48
X187.983 Z-11.539
X188.04 Z-11.542
X188.207 Z-11.561
X188.503 Z-11.647
X188.666 Z-11.681
X188.86 Z-11.544
X189.024 Z-11.473
X189.196 Z-11.421
X189.529 Z-11.388
X189.591 Z-11.329
X189.706 Z-11.234
X189.9 Z-11.123
X190.04 Z-11.063
X190.191 Z-11.037
X190.62 Z-11.057
X190.738 Z-10.999
X190.982 Z-10.854
X191.233 Z-10.722
X191.406 Z-10.679
X191.706 Z-10.643
X191.836 Z-10.653
X192.024 Z-10.702
X192.13 Z-10.616
X192.167 Z-10.412
X192.262 Z-10.111
X192.332 Z-9.917
X192.411 Z-9.775
X192.64 Z-9.471
X192.885 Z-9.247
X193.129 Z-9.077
Z-8.789
X193.14 Z-8.66
X193.178 Z-8.503
X193.206 Z-8.437
X193.25 Z-8.358
X193.356 Z-8.205
X193.445 Z-8.114
X193.543 Z-8.04
X193.727 Z-7.938
X193.922 Z-7.864
X194.125 Z-7.809
X194.609 Z-7.65
X194.795 Z-7.6
X195.038 Z-7.549
X195.216 Z-7.527
X195.542 Z-7.512
X195.74 Z-7.524
X195.932 Z-7.563
X196.113 Z-7.623
X196.331 Z-7.748
X196.481 Z-7.822
X196.681 Z-7.928
X196.89 Z-8.072
X197.021 Z-8.199
X197.145 Z-8.339
X197.234 Z-8.489
X197.443 Z-8.536
X197.747 Z-8.615
X198.249 Z-8.721
X198.682 Z-8.823
X199.125 Z-8.944
X199.484 Z-9.063
X199.607 Z-9.11
X199.969 Z-9.254
X200.161 Z-9.374
X200.284 Z-9.468
X200.379 Z-9.457
X200.511 Z-9.461
X200.755 Z-9.505
X201.051 Z-9.563
X201.804 Z-9.681
X202.954 Z-9.796
X203.999 Z-9.902
X204.637 Z-9.984
X205.286 Z-10.082
X205.803 Z-10.173
X206.305 Z-10.273
X206.69 Z-10.356
X207.416 Z-10.556
X208.06 Z-10.801
X208.426 Z-10.944
X209.243 Z-11.32
X209.331 Z-11.296
X209.456 Z-11.273
X209.588 Z-11.272
X209.782 Z-11.305
X209.882 Z-11.312
X209.894 Z-11.276
X209.945 Z-11.18
X209.99 Z-11.125
X210.085 Z-11.046
X210.198 Z-10.988
X210.293 Z-10.964
X210.771 Z-10.926
X210.988 Z-10.865
X211.119 Z-10.849
X211.323 Z-10.868
X211.513 Z-10.912
X211.762 Z-10.99
X211.943 Z-11.064
X212.166 Z-11.17
X212.739 Z-11.405
X212.866 Z-11.423
X213.064 Z-11.432
X213.191 Z-11.454
X213.577 Z-11.593
X214.135 Z-11.826
X214.452 Z-11.905
X214.767 Z-12.038
X215.022 Z-12.17
X219.52 Z-12.172
X219.587 Z-12.123
X219.694 Z-12.064
X219.808 Z-12.024
X219.936 Z-12.001
X270.009 Z-11.999
X270.042 Z-11.991
X270.075 Z-11.983
Y5.662
X270.042 Z-11.991
X270.009 Z-11.999
X219.936 Z-12.001
X219.808 Z-12.024
X219.694 Z-12.064
X219.564 Z-12.137
X215.108 Z-12.136
X214.697 Z-11.925
X214.297 Z-11.787
X213.992 Z-11.708
X213.63 Z-11.532
X213.283 Z-11.376
X213.129 Z-11.322
X212.97 Z-11.297
X212.71 Z-11.287
X212.595 Z-11.244
X211.827 Z-10.906
X211.507 Z-10.765
X211.229 Z-10.671
X211.039 Z-10.632
X210.909 Z-10.622
X210.775 Z-10.632
X210.659 Z-10.664
X210.436 Z-10.752
X210.117 Z-10.797
X210.004 Z-10.842
X209.846 Z-10.927
X209.795 Z-10.964
X209.745 Z-11.016
X209.624 Z-11.201
X209.49 Z-11.2
X209.358 Z-11.219
X209.29 Z-11.234
X208.472 Z-10.857
X208.111 Z-10.702
X207.464 Z-10.466
X206.865 Z-10.295
X206.355 Z-10.177
X205.853 Z-10.078
X204.946 Z-9.923
X204.309 Z-9.835
X203.918 Z-9.787
X202.874 Z-9.674
X201.973 Z-9.578
X201.207 Z-9.459
X200.847 Z-9.379
X200.719 Z-9.354
X200.461 Z-9.327
X200.319 Z-9.328
X200.228 Z-9.247
X200.094 Z-9.168
X199.858 Z-9.049
X199.538 Z-8.929
X199.238 Z-8.831
X198.776 Z-8.708
X198.372 Z-8.624
X198.061 Z-8.573
X197.56 Z-8.476
X197.116 Z-8.375
X197.017 Z-8.209
X196.906 Z-8.085
X196.722 Z-7.945
X196.585 Z-7.862
X196.37 Z-7.773
X196.117 Z-7.625
X195.878 Z-7.526
X195.721 Z-7.489
X195.429 Z-7.452
X195.113 Z-7.46
X194.721 Z-7.533
X194.325 Z-7.644
X193.974 Z-7.765
X193.808 Z-7.84
X193.716 Z-7.895
X193.552 Z-7.972
X193.401 Z-8.081
X193.271 Z-8.212
X193.196 Z-8.313
X193.133 Z-8.429
X193.091 Z-8.568
X193.055 Z-8.792
X193.051 Z-9.073
X192.846 Z-9.219
X192.676 Z-9.398
X192.522 Z-9.586
X192.363 Z-9.854
X192.308 Z-10.003
X192.223 Z-10.326
X192.206 Z-10.434
X192.098 Z-10.537
X192.015 Z-10.631
X191.896 Z-10.582
X191.739 Z-10.546
X191.575 Z-10.539
X191.333 Z-10.569
X191.217 Z-10.596
X191.105 Z-10.644
X190.552 Z-10.978
X190.238 Z-10.948
X190.106 Z-10.957
X189.869 Z-11.024
X189.759 Z-11.072
X189.631 Z-11.162
X189.453 Z-11.312
X189.157 Z-11.345
X189.005 Z-11.385
X188.812 Z-11.464
X188.682 Z-11.548
X188.586 Z-11.629
X188.127 Z-11.55
X188.043 Z-11.546
X187.94 Z-11.479
X187.824 Z-11.429
X187.667 Z-11.393
X187.505 Z-11.365
X187.328 Z-11.312
X187.2 Z-11.292
X187.004 Z-11.275
X186.838 Z-11.288
X186.501 Z-11.351
X186.079 Z-11.48
X185.674 Z-11.632
X185.159 Z-11.857
X184.91 Z-11.94
X184.526 Z-12.022
X183.753 Z-12.137
X179.607
X179.547 Z-12.028
X179.446 Z-11.864
X179.387 Z-11.794
X179.337 Z-11.657
X179.276 Z-11.565
X179.167 Z-11.46
X179.036 Z-11.377
X178.725 Z-11.244
X178.494 Z-11.166
X178.405 Z-11.095
X178.312 Z-11.032
X177.988 Z-10.84
X177.699 Z-10.737
X177.549 Z-10.687
X177.396 Z-10.661
X177.25 Z-10.624
X177.121 Z-10.611
X176.915 Z-10.619
X176.684
X176.33 Z-10.661
X175.794 Z-10.657
X175.559 Z-10.669
X174.981 Z-10.759
X174.744 Z-10.814
X174.137 Z-10.987
X173.732 Z-11.119
X173.378 Z-11.269
X173.204 Z-11.349
X172.859 Z-11.556
X172.547 Z-11.782
X172.26 Z-12.017
X172.131 Z-12.137
X167.258 Z-12.134
X166.813 Z-11.866
X166.58 Z-11.755
X166.059 Z-11.567
X165.668 Z-11.484
X165.343 Z-11.441
X165.08 Z-11.416
X164.598 Z-11.394
X163.747 Z-11.402
X163.351 Z-11.415
X162.846 Z-11.448
X161.765 Z-11.558
X161.475 Z-11.599
X161.212 Z-11.622
X161.056 Z-11.638
X160.091 Z-11.63
X159.905 Z-11.643
X159.787 Z-11.668
X159.674 Z-11.712
X159.568 Z-11.775
X159.473 Z-11.856
X159.39 Z-11.954
X159.323 Z-12.071
X159.294 Z-12.137
X34.914 Z-12.14
X34.454 Z-12.165
X33.957 Z-12.236
X33.477 Z-12.347
X33.015 Z-12.498
X32.571 Z-12.686
X32.127 Z-12.921
X32.004 Z-13.
X31.963 Z-13.012
X31.91
X31.893 Y5.663
X31.877 Y5.668
X31.862 Y5.676
X31.849 Y5.687
X31.838 Y5.7
X31.83 Y5.715
X31.825 Y5.731
X31.824 Y5.748
X31.825 Y5.765
X31.83 Y5.781
X31.838 Y5.796
X31.849 Y5.809
X31.862 Y5.82
X31.877 Y5.828
X31.893 Y5.833
X31.91 Y5.835
X31.951 Z-13.
X32.095 Z-12.906
X32.539 Z-12.667
X33.002 Z-12.469
X33.476 Z-12.313
X33.966 Z-12.199
X34.46 Z-12.13
X34.922 Z-12.106
X159.301 Z-12.103
X159.329 Z-12.043
X159.399 Z-11.928
X159.485 Z-11.832
X159.583 Z-11.754
X159.69 Z-11.694
X159.804 Z-11.653
X159.922 Z-11.631
X160.213 Z-11.623
X160.688 Z-11.622
X160.941 Z-11.604
X161.565 Z-11.526
X162.164 Z-11.449
X162.821 Z-11.367
X163.039 Z-11.362
X163.453 Z-11.323
X164.101 Z-11.304
X164.588 Z-11.31
X164.986 Z-11.326
X165.378 Z-11.365
X165.754 Z-11.421
X166.01 Z-11.476
X166.328 Z-11.551
X166.85 Z-11.727
X166.995 Z-11.788
X167.518 Z-12.103
X172.162
X172.251 Z-12.013
X172.538 Z-11.756
X172.771 Z-11.571
X172.968 Z-11.438
X173.315 Z-11.239
X173.768 Z-11.04
X173.987 Z-10.971
X174.268 Z-10.903
X174.533 Z-10.822
X175.104 Z-10.671
X175.728 Z-10.581
X175.981 Z-10.565
X176.249 Z-10.559
X176.642 Z-10.579
X176.828 Z-10.566
X177.158 Z-10.55
X177.538 Z-10.574
X177.843 Z-10.631
X177.983 Z-10.678
X178.121 Z-10.721
X178.337 Z-10.83
X178.468 Z-10.918
X178.77 Z-11.155
X179.175 Z-11.302
X179.311 Z-11.374
X179.425 Z-11.472
X179.499 Z-11.562
X179.59 Z-11.708
X179.626 Z-11.798
X179.645 Z-11.919
X179.739 Z-12.103
X182.736
X182.93 Z-12.086
X183.962 Z-11.978
X184.742 Z-11.872
X185.125 Z-11.793
X185.362 Z-11.714
X185.641 Z-11.602
X185.981 Z-11.481
X186.303 Z-11.379
X186.533 Z-11.319
X186.896 Z-11.258
X187.03 Z-11.248
X187.195 Z-11.258
X187.353 Z-11.285
X187.535 Z-11.357
X187.699 Z-11.391
X187.855 Z-11.427
X187.971 Z-11.477
X188.082 Z-11.549
X188.213 Z-11.556
X188.493 Z-11.58
X188.645 Z-11.454
X188.778 Z-11.38
X189.031 Z-11.289
X189.408 Z-11.239
X189.621 Z-11.063
X189.755 Z-10.975
X189.874 Z-10.928
X190.121 Z-10.874
X190.253 Z-10.87
X190.494 Z-10.896
X190.936 Z-10.624
X191.041 Z-10.568
X191.152 Z-10.515
X191.267 Z-10.484
X191.518 Z-10.447
X191.648 Z-10.452
X191.836 Z-10.497
X192.014 Z-10.571
X192.096 Z-10.47
X192.273 Z-10.304
X192.278 Z-10.267
X192.325 Z-10.043
X192.364 Z-9.894
X192.452 Z-9.696
X192.52 Z-9.561
X192.691 Z-9.332
X192.815 Z-9.193
X192.992 Z-9.051
X193. Z-8.767
X193.032 Z-8.551
X193.078 Z-8.414
X193.141 Z-8.293
X193.218 Z-8.188
X193.383 Z-8.03
X193.505 Z-7.918
X193.759 Z-7.751
X193.974 Z-7.666
X194.317 Z-7.558
X194.658 Z-7.464
X194.891 Z-7.421
X195.159 Z-7.411
X195.463 Z-7.433
X195.663 Z-7.473
X195.911 Z-7.549
X196.138 Z-7.671
X196.338 Z-7.743
X196.444 Z-7.786
X196.629 Z-7.879
X196.756 Z-7.97
X196.907 Z-8.121
X197.018 Z-8.268
X197.254 Z-8.319
X197.561 Z-8.384
X197.822 Z-8.424
X198.068 Z-8.465
X198.459 Z-8.514
X198.883 Z-8.59
X199.328 Z-8.703
X199.808 Z-8.875
X199.929 Z-8.923
X200.133 Z-9.017
X200.262 Z-9.103
X200.349 Z-9.188
X200.43 Z-9.181
X200.562 Z-9.185
X200.755 Z-9.216
X201.384 Z-9.358
X202.019 Z-9.46
X202.92 Z-9.562
X203.167 Z-9.594
X204.048 Z-9.695
X205.042 Z-9.839
X205.87 Z-9.98
X206.257 Z-10.053
X206.947 Z-10.211
X207.513 Z-10.378
X207.76 Z-10.466
X208.218 Z-10.644
X208.717 Z-10.862
X209.31 Z-11.136
X209.405 Z-11.118
X209.478 Z-10.969
X209.534 Z-10.863
X209.625 Z-10.767
X209.728 Z-10.697
X209.841 Z-10.65
X210.099 Z-10.598
X210.24 Z-10.541
X210.447 Z-10.463
X210.592 Z-10.425
X210.726 Z-10.416
X210.887 Z-10.432
X211.168 Z-10.517
X211.566 Z-10.665
X212.387 Z-11.061
X212.628 Z-11.156
X212.81 Z-11.166
X213.005 Z-11.19
X213.19 Z-11.241
X213.413 Z-11.349
X213.924 Z-11.617
X214.16 Z-11.678
X214.346 Z-11.737
X214.713 Z-11.874
X214.888 Z-11.962
X215.134 Z-12.1
X219.618 Z-12.103
X219.694 Z-12.064
X219.808 Z-12.024
X219.936 Z-12.001
X270.009 Z-11.999
X270.042 Z-11.991
X270.075 Z-11.983
Y6.008
X270.042 Z-11.991
X270.009 Z-11.999
X219.936 Z-12.001
X219.808 Z-12.024
X219.671 Z-12.074
X215.164
X214.936 Z-11.934
X214.586 Z-11.764
X214.293 Z-11.652
X214.172 Z-11.61
X213.863 Z-11.536
X213.726 Z-11.476
X213.531 Z-11.347
X213.147 Z-11.164
X212.964 Z-11.099
X212.805 Z-11.077
X212.652 Z-11.07
X212.513 Z-11.026
X211.567 Z-10.576
X211.066 Z-10.365
X210.818 Z-10.285
X210.627 Z-10.248
X210.464 Z-10.241
X210.188 Z-10.283
X210.075 Z-10.325
X209.807 Z-10.468
X209.667 Z-10.515
X209.424 Z-10.648
X209.366 Z-10.697
X209.324 Z-10.745
X209.283 Z-10.809
X209.227 Z-10.954
X209.217 Z-10.985
X208.494 Z-10.659
X208.009 Z-10.461
X207.58 Z-10.298
X207.014 Z-10.132
X206.632 Z-10.039
X206.247 Z-9.957
X205.614 Z-9.84
X205.096 Z-9.752
X204.314 Z-9.635
X203.823 Z-9.568
X202.924 Z-9.452
X202.403 Z-9.387
X202.026 Z-9.336
X201.521 Z-9.256
X200.907 Z-9.107
X200.616 Z-9.046
X200.521 Z-9.038
X200.384 Z-9.053
X200.292 Z-8.962
X200.191 Z-8.894
X199.957 Z-8.78
X199.837 Z-8.731
X199.48 Z-8.599
X199.357 Z-8.56
X198.988 Z-8.468
X198.614 Z-8.403
X197.723 Z-8.311
X197.216 Z-8.232
X196.887 Z-8.165
X196.766 Z-8.018
X196.626 Z-7.891
X196.469 Z-7.786
X196.295 Z-7.703
X196.051 Z-7.609
X195.789 Z-7.545
X195.556 Z-7.464
X195.428 Z-7.439
X195.32 Z-7.405
X195.193 Z-7.384
X194.808 Z-7.37
X194.674 Z-7.387
X194.418 Z-7.439
X193.981 Z-7.579
X193.745 Z-7.666
X193.558 Z-7.763
X193.383 Z-7.879
X193.293 Z-7.97
X193.137 Z-8.207
X193.038 Z-8.404
X192.969 Z-8.585
X192.944 Z-8.71
X192.938 Z-9.028
X192.8 Z-9.163
X192.652 Z-9.347
X192.511 Z-9.563
X192.412 Z-9.801
X192.357 Z-10.014
X192.33 Z-10.196
X192.219 Z-10.297
X192.065 Z-10.487
X192.021 Z-10.552
X191.851 Z-10.46
X191.731 Z-10.415
X191.606 Z-10.388
X191.475 Z-10.38
X191.261 Z-10.405
X191.059 Z-10.453
X190.893 Z-10.525
X190.453 Z-10.822
X190.259 Z-10.793
X190.11 Z-10.796
X189.885 Z-10.831
X189.771 Z-10.871
X189.638 Z-10.95
X189.358 Z-11.177
X188.968 Z-11.233
X188.796 Z-11.287
X188.662 Z-11.356
X188.462 Z-11.491
X188.406 Z-11.541
X188.121 Z-11.552
X188.017 Z-11.484
X187.902 Z-11.432
X187.748 Z-11.394
X187.666 Z-11.383
X187.435 Z-11.28
X187.262 Z-11.24
X187.047 Z-11.229
X186.913 Z-11.238
X186.678 Z-11.27
X186.389 Z-11.328
X186.104 Z-11.408
X185.614 Z-11.57
X185.28 Z-11.672
X184.777 Z-11.76
X184.478 Z-11.798
X183.67 Z-11.885
X181.931 Z-12.045
X181.664 Z-12.074
X179.872 Z-12.072
X179.838 Z-11.944
X179.82 Z-11.846
X179.754 Z-11.679
X179.676 Z-11.532
X179.607 Z-11.446
X179.518 Z-11.367
X179.359 Z-11.271
X179.074 Z-11.163
X179.02 Z-11.145
X178.702 Z-10.864
X178.573 Z-10.776
X178.402 Z-10.689
X178.092 Z-10.593
X177.836 Z-10.539
X177.576 Z-10.511
X177.211 Z-10.512
X176.866 Z-10.527
X176.539 Z-10.491
X176.254 Z-10.483
X175.793 Z-10.519
X175.203 Z-10.617
X174.809 Z-10.714
X174.743 Z-10.732
X174.52 Z-10.756
X174.21 Z-10.828
X173.817 Z-10.96
X173.507 Z-11.092
X173.043 Z-11.357
X172.759 Z-11.55
X172.517 Z-11.748
X172.275 Z-11.989
X172.193 Z-12.074
X167.741 Z-12.073
X167.264 Z-11.808
X166.952 Z-11.67
X166.405 Z-11.496
X165.935 Z-11.373
X165.669 Z-11.317
X165.443 Z-11.277
X164.744 Z-11.236
X164.309 Z-11.234
X163.873 Z-11.243
X163.571 Z-11.266
X163.331 Z-11.267
X162.481 Z-11.358
X161.494 Z-11.497
X160.843 Z-11.581
X160.414 Z-11.611
X160.149 Z-11.627
X159.894 Z-11.641
X159.775 Z-11.668
X159.663 Z-11.714
X159.558 Z-11.778
X159.463 Z-11.86
X159.382 Z-11.96
X159.315 Z-12.074
X34.938 Z-12.076
X34.462 Z-12.1
X33.968 Z-12.168
X33.48 Z-12.28
X33.001 Z-12.435
X32.529 Z-12.639
X32.177 Z-12.825
X32.073 Z-12.886
X31.898 Z-13.
X31.857 Z-13.012
X31.816
X31.799 Y6.009
X31.782 Y6.014
X31.768 Y6.022
X31.754 Y6.033
X31.744 Y6.046
X31.736 Y6.061
X31.731 Y6.077
X31.729 Y6.094
X31.731 Y6.111
X31.736 Y6.127
X31.744 Y6.142
X31.754 Y6.155
X31.768 Y6.166
X31.782 Y6.174
X31.799 Y6.179
X31.816 Y6.181
X31.856 Z-13.
X32.105 Z-12.84
X32.536 Z-12.612
X32.977 Z-12.425
X33.312 Z-12.313
X33.552 Z-12.241
X33.795 Z-12.186
X34.041 Z-12.135
X34.485 Z-12.076
X34.953 Z-12.054
X159.332 Z-12.053
X159.416 Z-11.925
X159.504 Z-11.832
X159.603 Z-11.758
X159.711 Z-11.702
X159.826 Z-11.664
X160.001 Z-11.639
X160.641 Z-11.578
X161.224 Z-11.51
X162.481 Z-11.343
X162.792 Z-11.314
X162.908 Z-11.295
X163.32 Z-11.246
X163.65 Z-11.232
X164.081 Z-11.202
X164.461 Z-11.177
X164.86 Z-11.174
X165.462 Z-11.208
X165.708 Z-11.245
X166.03 Z-11.302
X166.344 Z-11.392
X166.546 Z-11.467
X166.907 Z-11.595
X167.275 Z-11.729
X167.575 Z-11.859
X167.946 Z-12.053
X172.241
X172.394 Z-11.877
X172.681 Z-11.616
X173.067 Z-11.322
X173.514 Z-11.062
X173.919 Z-10.879
X174.344 Z-10.715
X174.642 Z-10.633
X174.982 Z-10.561
X175.551 Z-10.493
X175.752 Z-10.491
X175.966 Z-10.464
X176.334 Z-10.43
X176.535 Z-10.423
X176.93 Z-10.451
X177.126 Z-10.482
X177.751 Z-10.474
X178.032 Z-10.498
X178.353 Z-10.56
X178.539 Z-10.618
X178.778 Z-10.72
X178.884 Z-10.782
X179.112 Z-10.984
X179.23 Z-11.13
X179.334 Z-11.171
X179.512 Z-11.235
X179.617 Z-11.301
X179.707 Z-11.381
X179.895 Z-11.623
X179.955 Z-11.719
X179.995 Z-11.815
X180.041 Z-12.053
X180.739
X181.597 Z-11.953
X183.523 Z-11.781
X184.427 Z-11.7
X184.804 Z-11.656
X185.065 Z-11.624
X185.439 Z-11.557
X185.617 Z-11.514
X186.272 Z-11.331
X186.627 Z-11.256
X186.986 Z-11.22
X187.185 Z-11.216
X187.442 Z-11.255
X187.592 Z-11.307
X187.726 Z-11.385
X187.866 Z-11.414
X187.987 Z-11.456
X188.153 Z-11.545
X188.214 Z-11.541
X188.32 Z-11.521
X188.418 Z-11.427
X188.54 Z-11.329
X188.7 Z-11.246
X188.871 Z-11.189
X189.327 Z-11.12
X189.47 Z-10.988
X189.667 Z-10.845
X189.807 Z-10.784
X189.952 Z-10.751
X190.209 Z-10.729
X190.419 Z-10.751
X190.739 Z-10.526
X190.936 Z-10.413
X191.19 Z-10.328
X191.353 Z-10.304
X191.484 Z-10.31
X191.611 Z-10.333
X191.79 Z-10.398
X191.963 Z-10.501
X192.085 Z-10.474
X192.159 Z-10.357
X192.279 Z-10.213
X192.384 Z-10.122
X192.4 Z-9.954
X192.463 Z-9.686
X192.547 Z-9.478
X192.628 Z-9.337
X192.774 Z-9.147
X192.901 Z-9.019
X192.902 Z-8.766
X192.919 Z-8.623
X193.008 Z-8.298
X193.049 Z-8.148
X193.076 Z-8.089
X193.133 Z-7.993
X193.225 Z-7.879
X193.322 Z-7.799
X193.477 Z-7.706
X193.651 Z-7.624
X193.925 Z-7.513
X194.044 Z-7.465
X194.333 Z-7.375
X194.566 Z-7.335
X194.834 Z-7.323
X194.964 Z-7.334
X195.283 Z-7.399
X195.469 Z-7.457
X195.718 Z-7.486
X195.908 Z-7.527
X196.152 Z-7.609
X196.458 Z-7.786
X196.603 Z-7.909
X196.732 Z-8.055
X196.864 Z-8.085
X197.341 Z-8.175
X197.609 Z-8.198
X197.857 Z-8.225
X198.385 Z-8.253
X198.646 Z-8.273
X198.957 Z-8.318
X199.276 Z-8.387
X199.402 Z-8.42
X199.924 Z-8.61
X200.231 Z-8.77
X200.335 Z-8.836
X200.422 Z-8.917
X200.462 Z-8.912
X200.596 Z-8.903
X200.676 Z-8.912
X201.589 Z-9.141
X201.978 Z-9.207
X202.485 Z-9.283
X202.876 Z-9.342
X204.122 Z-9.511
X204.918 Z-9.628
X205.808 Z-9.78
X206.31 Z-9.877
X206.695 Z-9.962
X207.204 Z-10.092
X207.392 Z-10.146
X207.827 Z-10.293
X208.437 Z-10.533
X209.042 Z-10.806
X209.059 Z-10.767
X209.122 Z-10.664
X209.21 Z-10.566
X209.312 Z-10.484
X209.586 Z-10.333
X209.919 Z-10.151
X210.03 Z-10.1
X210.147 Z-10.07
X210.277 Z-10.066
X210.651 Z-10.129
X210.949 Z-10.222
X211.545 Z-10.485
X212.547 Z-10.969
X212.613 Z-10.989
X212.871 Z-11.025
X213.055 Z-11.084
X213.539 Z-11.322
X213.719 Z-11.444
X213.902 Z-11.497
X214.174 Z-11.552
X214.496 Z-11.67
X214.672 Z-11.748
X215.073 Z-11.968
X215.196 Z-12.05
X219.717 Z-12.053
X219.808 Z-12.024
X219.936 Z-12.001
X270.009 Z-11.999
X270.042 Z-11.991
X270.075 Z-11.983
Y6.354
X270.042 Z-11.991
X270.009 Z-11.999
X219.936 Z-12.001
X219.774 Z-12.033
X215.209
X215.078 Z-11.942
X214.566 Z-11.667
X214.261 Z-11.551
X214.091 Z-11.493
X214.012 Z-11.473
X213.615 Z-11.322
X213.449 Z-11.27
X213.233 Z-11.145
X212.938 Z-11.005
X212.657 Z-10.934
X212.512 Z-10.887
X211.816 Z-10.549
X211.041 Z-10.189
X210.813 Z-10.093
X210.41 Z-9.959
X210.251 Z-9.932
X210.053 Z-9.927
X209.869 Z-9.956
X209.728 Z-10.01
X209.589 Z-10.08
X209.437 Z-10.197
X209.186 Z-10.352
X209.054 Z-10.468
X208.95 Z-10.58
X208.905 Z-10.648
X208.431 Z-10.441
X207.834 Z-10.209
X207.338 Z-10.039
X206.589 Z-9.844
X206.043 Z-9.733
X204.562 Z-9.479
X203.925 Z-9.388
X203.04 Z-9.271
X202.796 Z-9.222
X201.785 Z-9.053
X200.93 Z-8.844
X200.803 Z-8.809
X200.631 Z-8.778
X200.494 Z-8.774
X200.445 Z-8.777
X200.325 Z-8.682
X200.133 Z-8.566
X199.956 Z-8.486
X199.371 Z-8.264
X199.165 Z-8.219
X198.765 Z-8.152
X198.264 Z-8.123
X197.834 Z-8.119
X197.314 Z-8.084
X197.066 Z-8.053
X196.707 Z-7.981
X196.616 Z-7.966
X196.489 Z-7.829
X196.343 Z-7.717
X196.158 Z-7.609
X195.971 Z-7.509
X195.726 Z-7.427
X195.534 Z-7.395
X195.176 Z-7.384
X194.929 Z-7.323
X194.669 Z-7.295
X194.468 Z-7.292
X194.255 Z-7.326
X194.054 Z-7.377
X193.459 Z-7.626
X193.234 Z-7.742
X193.157 Z-7.798
X193.068 Z-7.892
X192.995 Z-8.007
X192.947 Z-8.137
X192.877 Z-8.488
X192.859 Z-8.788
X192.857 Z-8.998
X192.761 Z-9.108
X192.588 Z-9.362
X192.527 Z-9.507
X192.456 Z-9.737
X192.43 Z-9.892
X192.418 Z-10.069
X192.298 Z-10.182
X192.203 Z-10.309
X192.155 Z-10.392
X191.904 Z-10.446
X191.787 Z-10.366
X191.614 Z-10.284
X191.49 Z-10.249
X191.362 Z-10.235
X191.231 Z-10.245
X190.976 Z-10.314
X190.828 Z-10.385
X190.565 Z-10.548
X190.378 Z-10.687
X190.182 Z-10.669
X189.897 Z-10.7
X189.709 Z-10.751
X189.6 Z-10.805
X189.458 Z-10.914
X189.294 Z-11.07
X188.912 Z-11.122
X188.627 Z-11.206
X188.483 Z-11.287
X188.355 Z-11.395
X188.287 Z-11.458
X188.199 Z-11.527
X188.167 Z-11.534
X188.054 Z-11.48
X187.887 Z-11.432
X187.84 Z-11.421
X187.738 Z-11.353
X187.564 Z-11.271
X187.406 Z-11.229
X187.183 Z-11.199
X186.925 Z-11.207
X186.617 Z-11.236
X186.328 Z-11.288
X185.784 Z-11.418
X185.41 Z-11.49
X185.017 Z-11.542
X183.714 Z-11.662
X182.569 Z-11.747
X181.68 Z-11.825
X181.053 Z-11.893
X180.676 Z-11.947
X180.201 Z-12.02
X180.17 Z-11.854
X180.113 Z-11.71
X180.051 Z-11.61
X179.903 Z-11.453
X179.806 Z-11.347
X179.71 Z-11.27
X179.543 Z-11.179
X179.456 Z-11.139
X179.295 Z-10.907
X179.16 Z-10.79
X178.999 Z-10.685
X178.885 Z-10.626
X178.749 Z-10.583
X178.461 Z-10.508
X178.2 Z-10.472
X178.003 Z-10.448
X177.455 Z-10.447
X177.009 Z-10.395
X176.577 Z-10.369
X176.439 Z-10.379
X176.175 Z-10.368
X175.706 Z-10.362
X175.332 Z-10.401
X174.814 Z-10.508
X174.445 Z-10.621
X173.971 Z-10.825
X173.547 Z-11.035
X173.354 Z-11.146
X173.141 Z-11.281
X172.912 Z-11.446
X172.677 Z-11.646
X172.432 Z-11.89
X172.314 Z-12.033
X168.096
X167.646 Z-11.82
X167.018 Z-11.553
X166.717 Z-11.423
X166.375 Z-11.297
X165.989 Z-11.225
X165.534 Z-11.163
X164.832 Z-11.149
X164.401 Z-11.157
X164.09 Z-11.181
X163.783 Z-11.211
X163.43 Z-11.247
X162.792 Z-11.328
X161.382 Z-11.495
X161.148 Z-11.525
X160.716 Z-11.566
X160.398 Z-11.592
X159.889 Z-11.651
X159.772 Z-11.678
X159.66 Z-11.724
X159.555 Z-11.789
X159.46 Z-11.872
X159.378 Z-11.974
X159.342 Z-12.033
X34.963 Z-12.034
X34.561 Z-12.051
X34.428 Z-12.063
X34.05 Z-12.113
X33.805 Z-12.164
X33.549 Z-12.221
X33.055 Z-12.374
X32.553 Z-12.583
X32.095 Z-12.826
X31.824 Z-13.
X31.784 Z-13.012
X31.752
Y6.527
X31.792 Z-13.
X32.094 Z-12.807
X32.539 Z-12.571
X33.01 Z-12.372
X33.436 Z-12.236
X33.564 Z-12.2
X33.936 Z-12.118
X34.066 Z-12.095
X34.46 Z-12.043
X34.912 Z-12.02
X159.358 Z-12.017
X159.451 Z-11.894
X159.544 Z-11.809
X159.647 Z-11.742
X159.759 Z-11.693
X159.882 Z-11.662
X160.477 Z-11.596
X161.073 Z-11.56
X161.219 Z-11.54
X161.579 Z-11.502
X162.438 Z-11.401
X164.137 Z-11.193
X164.63 Z-11.156
X164.876 Z-11.149
X165.118 Z-11.138
X165.508 Z-11.145
X165.928 Z-11.173
X166.317 Z-11.229
X166.539 Z-11.281
X166.975 Z-11.433
X167.16 Z-11.507
X167.521 Z-11.714
X167.692 Z-11.784
X168.219 Z-12.016
X172.384 Z-12.017
X172.494 Z-11.882
X172.659 Z-11.706
X172.872 Z-11.508
X173.169 Z-11.274
X173.328 Z-11.165
X173.567 Z-11.015
X174.077 Z-10.748
X174.455 Z-10.581
X174.835 Z-10.437
X175.127 Z-10.363
X175.372 Z-10.313
X175.502 Z-10.294
X175.871 Z-10.256
X176.541 Z-10.27
X176.936 Z-10.299
X177.39 Z-10.371
X177.579 Z-10.412
X177.914 Z-10.419
X178.171 Z-10.43
X178.503 Z-10.452
X178.833 Z-10.518
X179.117 Z-10.62
X179.286 Z-10.704
X179.385 Z-10.779
X179.513 Z-10.911
X179.678 Z-11.173
X179.715 Z-11.194
X179.869 Z-11.286
X180.043 Z-11.424
X180.163 Z-11.55
X180.255 Z-11.697
X180.315 Z-11.812
X180.34 Z-11.894
X181.094 Z-11.769
X181.633 Z-11.712
X182.144 Z-11.669
X183.703 Z-11.564
X185.062 Z-11.448
X185.59 Z-11.391
X185.979 Z-11.336
X186.279 Z-11.271
X186.571 Z-11.222
X186.819 Z-11.195
X187.087 Z-11.183
X187.218 Z-11.187
X187.356 Z-11.204
X187.537 Z-11.24
X187.688 Z-11.303
X187.828 Z-11.375
X187.924 Z-11.448
X188.018 Z-11.476
X188.133 Z-11.526
X188.156 Z-11.506
X188.35 Z-11.323
X188.583 Z-11.168
X188.695 Z-11.122
X188.925 Z-11.063
X189.244 Z-11.031
X189.332 Z-10.946
X189.502 Z-10.806
X189.64 Z-10.722
X189.753 Z-10.68
X189.986 Z-10.635
X190.145 Z-10.62
X190.34 Z-10.63
X190.575 Z-10.463
X190.803 Z-10.328
X190.964 Z-10.264
X191.181 Z-10.215
X191.315 Z-10.2
X191.445 Z-10.209
X191.57 Z-10.238
X191.726 Z-10.308
X191.851 Z-10.396
X192.083 Z-10.34
X192.22 Z-10.315
X192.319 Z-10.165
X192.444 Z-10.032
X192.448 Z-9.938
X192.472 Z-9.711
X192.522 Z-9.493
X192.59 Z-9.322
X192.781 Z-9.021
X192.788 Z-8.459
X192.842 Z-8.176
X192.895 Z-8.034
X192.99 Z-7.876
X193.082 Z-7.761
X193.179 Z-7.682
X193.284 Z-7.622
X193.826 Z-7.385
X194.028 Z-7.321
X194.407 Z-7.274
X194.589 Z-7.279
X194.864 Z-7.33
X195.175 Z-7.298
X195.525 Z-7.326
X195.691 Z-7.363
X195.866 Z-7.439
X196.002 Z-7.491
X196.1 Z-7.545
X196.401 Z-7.767
X196.514 Z-7.884
X196.672 Z-7.916
X197.26 Z-7.998
X197.528 Z-8.009
X197.79 Z-8.014
X198.334 Z-8.005
X198.797 Z-8.024
X199.063 Z-8.06
X199.254 Z-8.101
X199.564 Z-8.202
X199.796 Z-8.292
X200.159 Z-8.436
X200.349 Z-8.554
X200.469 Z-8.651
X200.572
X200.767 Z-8.676
X200.881 Z-8.7
X201.758 Z-8.925
X202.715 Z-9.099
X203.021 Z-9.167
X203.985 Z-9.299
X204.554 Z-9.392
X206.067 Z-9.658
X206.437 Z-9.73
X206.933 Z-9.845
X207.329 Z-9.959
X207.804 Z-10.114
X208.423 Z-10.356
X208.783 Z-10.502
X208.897 Z-10.373
X209.131 Z-10.18
X209.209 Z-10.104
X209.431 Z-9.929
X209.536 Z-9.863
X209.649 Z-9.818
X209.767 Z-9.793
X209.901 Z-9.792
X210.161 Z-9.822
X210.35 Z-9.867
X210.771 Z-10.01
X211.11 Z-10.157
X211.345 Z-10.264
X211.903 Z-10.531
X211.993 Z-10.565
X212.407 Z-10.764
X212.487 Z-10.783
X212.62 Z-10.846
X212.9 Z-10.914
X213.122 Z-10.976
X213.262 Z-11.007
X213.71 Z-11.184
X213.964 Z-11.315
X214.25 Z-11.475
X214.454 Z-11.599
X214.939 Z-11.874
X215.171 Z-12.017
X219.808
X219.936 Z-12.001
X270.009 Z-11.999
X270.042 Z-11.991
X270.075 Z-11.983
Y6.7
X270.042 Z-11.991
X270.009 Z-11.999
X219.936 Z-12.001
X219.866 Z-12.01
X215.102 Z-12.006
X214.886 Z-11.81
X214.602 Z-11.591
X214.301 Z-11.36
X213.868 Z-11.072
X213.211 Z-10.771
X212.405 Z-10.566
X212.214 Z-10.523
X212.085 Z-10.505
X212.03 Z-10.487
X211.813 Z-10.372
X211.485 Z-10.25
X211.37 Z-10.23
X211.329 Z-10.216
X211.05 Z-10.08
X210.551 Z-9.874
X210.382 Z-9.811
X209.957 Z-9.683
X209.828 Z-9.669
X209.629 Z-9.672
X209.454 Z-9.703
X209.298 Z-9.762
X209.194 Z-9.834
X208.924 Z-10.115
X208.673 Z-10.348
X208.656 Z-10.369
X207.891 Z-10.064
X207.44 Z-9.916
X207.076 Z-9.808
X206.593 Z-9.691
X206.144 Z-9.593
X203.842 Z-9.188
X203.141 Z-9.09
X202.767 Z-9.005
X202.253 Z-8.904
X201.621 Z-8.779
X201.012 Z-8.616
X200.823 Z-8.563
X200.571 Z-8.533
X200.498 Z-8.531
X200.375 Z-8.426
X200.191 Z-8.32
X199.828 Z-8.171
X199.706 Z-8.124
X199.221 Z-7.966
X199.03 Z-7.929
X198.717 Z-7.899
X198.382 Z-7.887
X197.959 Z-7.896
X197.531 Z-7.919
X197.129 Z-7.912
X196.593 Z-7.839
X196.386 Z-7.798
X196.246 Z-7.667
X196.095 Z-7.55
X195.759 Z-7.356
X195.607 Z-7.306
X195.466 Z-7.279
X195.355 Z-7.248
X195.092 Z-7.227
X194.9 Z-7.237
X194.546 Z-7.284
X194.353 Z-7.266
X194.093 Z-7.277
X193.816 Z-7.326
X193.66 Z-7.378
X193.404 Z-7.489
X193.227 Z-7.565
X193.121 Z-7.625
X193.024 Z-7.703
X192.939 Z-7.8
X192.842 Z-7.949
X192.797 Z-8.029
X192.729 Z-8.227
X192.701 Z-8.375
X192.695 Z-8.519
X192.691 Z-9.08
X192.596 Z-9.253
X192.547 Z-9.373
X192.498 Z-9.581
X192.476 Z-9.702
X192.465 Z-9.84
X192.463 Z-10.008
X192.397 Z-10.079
X192.275 Z-10.121
X192.168 Z-10.183
X192.016 Z-10.302
X191.8 Z-10.351
X191.698 Z-10.28
X191.586 Z-10.224
X191.432 Z-10.18
X191.268 Z-10.167
X191.025 Z-10.188
X190.909 Z-10.215
X190.77 Z-10.276
X190.303 Z-10.58
X190.011 Z-10.582
X189.887 Z-10.598
X189.66 Z-10.669
X189.549 Z-10.721
X189.306 Z-10.901
X189.213 Z-10.992
X188.964 Z-11.017
X188.731 Z-11.057
X188.59 Z-11.11
X188.459 Z-11.187
X188.3 Z-11.302
X188.18 Z-11.418
X188.095 Z-11.509
X187.981 Z-11.465
X187.891 Z-11.386
X187.756 Z-11.307
X187.547 Z-11.223
X187.389 Z-11.192
X187.128 Z-11.166
X186.759 Z-11.18
X186.199 Z-11.251
X185.758 Z-11.312
X184.599 Z-11.403
X183.885 Z-11.458
X182.135 Z-11.563
X181.637 Z-11.603
X181.271 Z-11.641
X180.465 Z-11.77
X180.389 Z-11.644
X180.248 Z-11.476
X180.139 Z-11.374
X179.896 Z-11.207
X179.809 Z-11.044
X179.667 Z-10.859
X179.583 Z-10.779
X179.428 Z-10.675
X179.255 Z-10.591
X179.072 Z-10.53
X178.817 Z-10.468
X178.508 Z-10.417
X178.024 Z-10.391
X177.6 Z-10.267
X177.178 Z-10.209
X176.78 Z-10.186
X175.976 Z-10.163
X175.842 Z-10.173
X175.477 Z-10.219
X175.131 Z-10.297
X174.796 Z-10.397
X174.453 Z-10.545
X174.019 Z-10.765
X173.607 Z-10.995
X173.37 Z-11.145
X172.973 Z-11.452
X172.797 Z-11.616
X172.633 Z-11.79
X172.508 Z-11.935
X172.449 Z-12.01
X168.31
X167.913 Z-11.841
X167.622 Z-11.65
X167.508 Z-11.591
X167.216 Z-11.453
X166.668 Z-11.266
X166.249 Z-11.189
X165.89 Z-11.152
X165.421 Z-11.144
X164.988 Z-11.161
X164.489 Z-11.194
X164.327 Z-11.215
X164.282 Z-11.171
X164.183 Z-11.133
X163.945 Z-11.072
X163.368 Z-10.983
X162.747 Z-10.986
X162.035 Z-11.067
X161.657 Z-11.135
X161.137 Z-11.288
X161.01 Z-11.329
X160.752 Z-11.438
X160.589 Z-11.595
X160.496 Z-11.644
X160.128 Z-11.673
X159.927 Z-11.681
X159.803 Z-11.705
X159.689 Z-11.747
X159.583 Z-11.808
X159.487 Z-11.888
X159.385 Z-12.01
X34.94 Z-12.012
X34.467 Z-12.035
X33.969 Z-12.104
X33.475 Z-12.217
X32.997 Z-12.371
X32.539 Z-12.564
X32.091 Z-12.801
X31.779 Z-13.
X31.738 Z-13.012
X31.728
Y6.873
X31.768 Z-13.
X32.095 Z-12.792
X32.539 Z-12.557
X33.001 Z-12.363
X33.477 Z-12.209
X33.964 Z-12.098
X34.45 Z-12.031
X34.936 Z-12.005
X159.449 Z-12.003
X159.491 Z-11.959
X159.619 Z-11.853
X159.728 Z-11.795
X159.748 Z-11.688
X159.768 Z-11.647
X159.949 Z-11.415
X160.084 Z-11.32
X160.28 Z-11.207
X160.83 Z-10.975
X161.096 Z-10.911
X161.759 Z-10.779
X162.44 Z-10.678
X162.809 Z-10.646
X163.085 Z-10.639
X163.613 Z-10.65
X164.07 Z-10.691
X164.391 Z-10.756
X164.803 Z-10.871
X164.981 Z-10.952
X165.205 Z-11.084
X165.336 Z-11.178
X165.803 Z-11.166
X166.104 Z-11.178
X166.464 Z-11.213
X166.721 Z-11.255
X167.273 Z-11.417
X167.617 Z-11.555
X167.954 Z-11.737
X168.116 Z-11.858
X168.223 Z-11.931
X168.397 Z-12.003
X172.525
X172.648 Z-11.839
X172.892 Z-11.575
X173.335 Z-11.2
X173.688 Z-10.96
X174.083 Z-10.725
X174.658 Z-10.425
X175.056 Z-10.266
X175.457 Z-10.163
X175.702 Z-10.114
X176.012 Z-10.089
X176.414 Z-10.098
X177.477 Z-10.134
X177.67 Z-10.166
X177.925 Z-10.223
X178.05 Z-10.261
X178.297 Z-10.343
X178.418 Z-10.393
X178.538 Z-10.4
X178.757 Z-10.426
X179.078 Z-10.48
X179.45 Z-10.6
X179.622 Z-10.684
X179.722 Z-10.757
X179.894 Z-10.929
X180.002 Z-11.064
X180.094 Z-11.234
X180.261 Z-11.357
X180.446 Z-11.537
X180.537 Z-11.657
X181.396 Z-11.519
X182.025 Z-11.466
X182.416 Z-11.441
X183.406 Z-11.398
X184.795 Z-11.308
X185.315 Z-11.28
X186.206 Z-11.22
X186.706 Z-11.164
X187.104 Z-11.151
X187.234 Z-11.157
X187.365 Z-11.172
X187.492 Z-11.193
X187.739 Z-11.273
X187.852 Z-11.327
X187.953 Z-11.399
X188.036 Z-11.481
X188.057 Z-11.492
X188.125 Z-11.406
X188.266 Z-11.269
X188.41 Z-11.158
X188.627 Z-11.052
X188.785 Z-11.005
X189.223 Z-10.951
X189.296 Z-10.873
X189.44 Z-10.741
X189.588 Z-10.652
X189.811 Z-10.563
X189.936 Z-10.539
X190.271 Z-10.536
X190.547 Z-10.355
X190.704 Z-10.262
X190.927 Z-10.178
X191.101 Z-10.137
X191.235 Z-10.13
X191.365 Z-10.144
X191.489 Z-10.176
X191.607 Z-10.225
X191.755 Z-10.315
X191.85 Z-10.278
X191.905 Z-10.23
X192.059 Z-10.131
X192.222 Z-10.055
X192.465 Z-9.976
X192.467 Z-9.741
X192.478 Z-9.568
X192.541 Z-9.289
X192.608 Z-9.133
X192.609 Z-8.514
X192.616 Z-8.318
X192.666 Z-8.116
X192.719 Z-7.982
X192.852 Z-7.773
X192.957 Z-7.656
X193.08 Z-7.563
X193.307 Z-7.455
X193.709 Z-7.3
X193.915 Z-7.259
X194.077 Z-7.247
X194.267 Z-7.257
X194.46 Z-7.221
X194.796 Z-7.18
X195.064 Z-7.169
X195.354 Z-7.211
X195.501 Z-7.253
X195.631 Z-7.317
X195.764 Z-7.367
X195.96 Z-7.478
X196.115 Z-7.589
X196.241 Z-7.711
X196.623 Z-7.783
X196.87 Z-7.813
X197.108 Z-7.831
X197.47 Z-7.821
X198.121 Z-7.777
X198.59 Z-7.771
X198.788 Z-7.787
X199.047 Z-7.817
X199.374 Z-7.892
X199.816 Z-8.036
X200.28 Z-8.233
X200.434 Z-8.327
X200.529 Z-8.415
X200.545 Z-8.418
X200.799 Z-8.441
X201.59 Z-8.658
X201.978 Z-8.737
X202.735 Z-8.897
X203.17 Z-9.006
X204.001 Z-9.132
X205.41 Z-9.383
X206.184 Z-9.529
X206.697 Z-9.642
X207.079 Z-9.736
X207.443 Z-9.842
X207.816 Z-9.972
X208.063 Z-10.059
X208.553 Z-10.247
X208.618 Z-10.17
X208.739 Z-10.051
X208.767 Z-10.005
X208.849 Z-9.89
X208.909 Z-9.836
X209.105 Z-9.697
X209.267 Z-9.612
X209.411 Z-9.571
X209.541 Z-9.561
X209.769 Z-9.58
X209.961 Z-9.619
X210.334 Z-9.737
X211.046 Z-10.04
X211.115 Z-10.052
X211.303 Z-10.105
X211.51 Z-10.143
X211.719 Z-10.222
X212.211 Z-10.325
X212.354 Z-10.37
X212.783 Z-10.481
X213.185 Z-10.61
X213.702 Z-10.867
X213.929 Z-10.99
X214.253 Z-11.211
X214.552 Z-11.437
X214.915 Z-11.742
X215.193 Z-12.003
X219.92
X270.009 Z-11.999
X270.042 Z-11.991
X270.075 Z-11.983
Y7.045
X270.042 Z-11.991
X270.009 Z-11.999
X215.272
X215.145 Z-11.864
X214.857 Z-11.598
X214.574 Z-11.366
X214.435 Z-11.251
X213.743 Z-10.789
X213.149 Z-10.496
X212.816 Z-10.36
X212.171 Z-10.162
X211.79 Z-10.064
X211.597 Z-10.031
X211.243 Z-9.929
X211.117 Z-9.909
X210.983 Z-9.897
X210.78 Z-9.847
X210.652 Z-9.831
X210.41 Z-9.734
X210.287 Z-9.689
X209.847 Z-9.545
X209.61 Z-9.486
X209.424 Z-9.472
X209.223 Z-9.494
X209.05 Z-9.54
X208.938 Z-9.587
X208.785 Z-9.687
X208.695 Z-9.774
X208.652 Z-9.834
X208.522 Z-10.042
X208.443 Z-10.134
X207.951 Z-9.953
X207.333 Z-9.736
X206.838 Z-9.604
X206.037 Z-9.427
X204.778 Z-9.193
X203.887 Z-9.032
X203.251 Z-8.936
X203.007 Z-8.88
X202.704 Z-8.791
X201.598 Z-8.544
X200.823 Z-8.333
X200.617 Z-8.314
X200.551 Z-8.31
X200.429 Z-8.192
X200.312 Z-8.119
X200.011 Z-8.
X199.518 Z-7.824
X199.393 Z-7.788
X199.137 Z-7.729
X198.651 Z-7.654
X198.486 Z-7.652
X197.95 Z-7.679
X197.336 Z-7.741
X197.054 Z-7.753
X196.669 Z-7.725
X196.306 Z-7.666
X196.112 Z-7.635
X196.014 Z-7.543
X195.854 Z-7.442
X195.513 Z-7.264
X195.273 Z-7.19
X195.082 Z-7.153
X194.818 Z-7.135
X194.535 Z-7.145
X194.206 Z-7.193
X194.05 Z-7.229
X193.741 Z-7.251
X193.576 Z-7.297
X193.488 Z-7.322
X193.3 Z-7.379
X193.134 Z-7.446
X193.028 Z-7.5
X192.904 Z-7.595
X192.792 Z-7.7
X192.697 Z-7.831
X192.603 Z-8.02
X192.564 Z-8.144
X192.525 Z-8.356
X192.52 Z-9.212
X192.487 Z-9.344
X192.451 Z-9.572
X192.449 Z-9.927
X192.203 Z-10.
X192.022 Z-10.064
X191.888 Z-10.137
X191.816 Z-10.196
X191.745 Z-10.269
X191.69 Z-10.281
X191.583 Z-10.211
X191.469 Z-10.158
X191.346 Z-10.122
X191.217 Z-10.105
X191.083 Z-10.11
X190.966 Z-10.132
X190.618 Z-10.26
X190.46 Z-10.35
X190.259 Z-10.489
X189.945
X189.82 Z-10.507
X189.705 Z-10.544
X189.544 Z-10.632
X189.397 Z-10.734
X189.265 Z-10.87
X189.229 Z-10.911
X188.792 Z-10.965
X188.677 Z-10.994
X188.511 Z-11.065
X188.378 Z-11.134
X188.256 Z-11.229
X188.055 Z-11.449
X187.921 Z-11.332
X187.814 Z-11.27
X187.595 Z-11.196
X187.412 Z-11.158
X187.107 Z-11.135
X186.671 Z-11.146
X186.042 Z-11.184
X185.461 Z-11.205
X184.542 Z-11.251
X183.538 Z-11.304
X181.977 Z-11.365
X181.341 Z-11.428
X180.647 Z-11.55
X180.599 Z-11.557
X180.517 Z-11.459
X180.425 Z-11.371
X180.311 Z-11.274
X180.294 Z-11.255
X180.157 Z-11.029
X180.036 Z-10.9
X179.852 Z-10.734
X179.693 Z-10.63
X179.516 Z-10.561
X179.182 Z-10.47
X179.022 Z-10.436
X178.836 Z-10.407
X178.476 Z-10.26
X178.179 Z-10.164
X177.99 Z-10.112
X177.535 Z-10.062
X176.765 Z-10.042
X176.175 Z-10.012
X175.739 Z-10.042
X175.279 Z-10.151
X175.082 Z-10.221
X174.718 Z-10.383
X174.469 Z-10.525
X174.006 Z-10.784
X173.779 Z-10.932
X173.397 Z-11.21
X173.07 Z-11.49
X172.868 Z-11.685
X172.693 Z-11.9
X172.621 Z-11.999
X168.466 Z-11.998
X168.178 Z-11.789
X167.96 Z-11.665
X167.602 Z-11.506
X167.293 Z-11.396
X166.851 Z-11.283
X166.657 Z-11.255
X166.198 Z-11.209
X166.044 Z-11.204
X165.863 Z-11.066
X165.659 Z-10.94
X165.486 Z-10.858
X165.103 Z-10.704
X164.629 Z-10.577
X164.375 Z-10.516
X164.1 Z-10.472
X163.384 Z-10.426
X162.988 Z-10.434
X162.194 Z-10.506
X162.062 Z-10.524
X161.818 Z-10.573
X161.253 Z-10.654
X161.006 Z-10.704
X160.54 Z-10.838
X159.981 Z-11.05
X159.813 Z-11.136
X159.764 Z-11.172
X159.676 Z-11.268
X159.574 Z-11.434
X159.497 Z-11.607
X159.469 Z-11.731
X159.461 Z-11.999
X34.943 Z-12.
X34.464 Z-12.024
X34.086 Z-12.074
X33.956 Z-12.095
X33.585 Z-12.178
X33.456 Z-12.211
X33.093 Z-12.326
X32.968 Z-12.372
X32.544 Z-12.55
X32.128 Z-12.767
X31.761 Z-13.
X31.721 Z-13.012
Y7.218
X31.761 Z-13.
X32.128 Z-12.767
X32.544 Z-12.55
X32.968 Z-12.372
X33.093 Z-12.326
X33.456 Z-12.211
X33.585 Z-12.178
X33.956 Z-12.095
X34.086 Z-12.074
X34.464 Z-12.024
X34.956 Z-12.
X159.336 Z-11.999
X159.343 Z-11.707
X159.407 Z-11.425
X159.473 Z-11.223
X159.544 Z-11.105
X159.635 Z-11.012
X159.739 Z-10.945
X159.958 Z-10.852
X160.342 Z-10.729
X160.846 Z-10.588
X161.368 Z-10.49
X162.285 Z-10.365
X163.009 Z-10.302
X163.532 Z-10.297
X164.133 Z-10.334
X164.395 Z-10.36
X164.847 Z-10.436
X165.264 Z-10.539
X165.637 Z-10.671
X165.867 Z-10.763
X166.124 Z-10.865
X166.506 Z-11.059
X166.771 Z-11.228
X166.876 Z-11.308
X167.172 Z-11.367
X167.671 Z-11.504
X167.883 Z-11.586
X168.264 Z-11.765
X168.638 Z-11.995
X172.714 Z-11.999
X172.922 Z-11.735
X173.101 Z-11.562
X173.325 Z-11.353
X173.769 Z-10.996
X174.085 Z-10.78
X174.372 Z-10.599
X174.777 Z-10.354
X175.125 Z-10.189
X175.25 Z-10.139
X175.418 Z-10.082
X175.835 Z-9.979
X176.216 Z-9.937
X176.473 Z-9.948
X176.853 Z-9.979
X177.101 Z-10.002
X177.35 Z-10.022
X177.559 Z-10.011
X177.827 Z-10.018
X178.089 Z-10.046
X178.473 Z-10.127
X178.833 Z-10.242
X179.07 Z-10.348
X179.263 Z-10.454
X179.515 Z-10.514
X179.699 Z-10.572
X179.902 Z-10.67
X180.054 Z-10.771
X180.279 Z-10.968
X180.401 Z-11.125
X180.502 Z-11.288
X180.677 Z-11.47
X180.799 Z-11.438
X181.327 Z-11.334
X181.962 Z-11.276
X183.57 Z-11.224
X184.357 Z-11.189
X185.35 Z-11.146
X186.355 Z-11.125
X186.681 Z-11.115
X187.11 Z-11.116
X187.36 Z-11.13
X187.489 Z-11.144
X187.617 Z-11.167
X187.798 Z-11.228
X187.91 Z-11.29
X188.068 Z-11.399
X188.184 Z-11.27
X188.297 Z-11.161
X188.477 Z-11.047
X188.671 Z-10.963
X188.829 Z-10.927
X189.222 Z-10.875
X189.246 Z-10.847
X189.378 Z-10.71
X189.499 Z-10.621
X189.629 Z-10.542
X189.742 Z-10.498
X189.923 Z-10.457
X190.236 Z-10.448
X190.272 Z-10.427
X190.37 Z-10.358
X190.526 Z-10.266
X190.841 Z-10.136
X190.992 Z-10.093
X191.123 Z-10.082
X191.252 Z-10.094
X191.411 Z-10.132
X191.562 Z-10.183
X191.672 Z-10.243
X191.7 Z-10.234
X191.822 Z-10.117
X191.925 Z-10.047
X192.036 Z-9.996
X192.413 Z-9.895
Z-9.63
X192.432 Z-9.4
X192.435 Z-8.419
X192.461 Z-8.194
X192.494 Z-8.053
X192.581 Z-7.846
X192.665 Z-7.703
X192.731 Z-7.628
X192.894 Z-7.492
X193.024 Z-7.411
X193.175 Z-7.351
X193.344 Z-7.292
X193.531 Z-7.255
X193.646 Z-7.229
X193.762 Z-7.213
X194.139 Z-7.132
X194.39 Z-7.102
X194.509 Z-7.11
X194.688
X194.996 Z-7.15
X195.234 Z-7.206
X195.555 Z-7.32
X195.781 Z-7.438
X195.928 Z-7.551
X196.616 Z-7.655
X196.969 Z-7.673
X197.231 Z-7.661
X197.928 Z-7.57
X198.111 Z-7.551
X198.546 Z-7.544
X198.774 Z-7.565
X199.033 Z-7.607
X199.354 Z-7.67
X199.665 Z-7.768
X200.282 Z-7.994
X200.394 Z-8.047
X200.493 Z-8.119
X200.576 Z-8.205
X200.71 Z-8.207
X200.856 Z-8.227
X201.032 Z-8.28
X201.653 Z-8.452
X202.779 Z-8.711
X203.015 Z-8.787
X203.259 Z-8.855
X203.83 Z-8.943
X204.624 Z-9.09
X206.075 Z-9.367
X206.717 Z-9.505
X206.907 Z-9.552
X207.473 Z-9.717
X208.327 Z-10.024
X208.496 Z-9.727
X208.574 Z-9.623
X208.671 Z-9.542
X208.751 Z-9.495
X208.892 Z-9.444
X209.067 Z-9.409
X209.268 Z-9.397
X209.465 Z-9.408
X209.649 Z-9.44
X210.307 Z-9.665
X210.433 Z-9.663
X210.596 Z-9.666
X211.015 Z-9.742
X211.638 Z-9.9
X212.242 Z-10.097
X212.581 Z-10.193
X212.974 Z-10.355
X213.49 Z-10.612
X213.784 Z-10.765
X214.471 Z-11.224
X214.825 Z-11.516
X215.179 Z-11.832
X215.327 Z-11.999
X270.009
X270.042 Z-11.991
X270.075 Z-11.983
Y7.391
X270.042 Z-11.991
X270.009 Z-11.999
X215.337
X215.203 Z-11.847
X215.016 Z-11.666
X214.782 Z-11.458
X214.539 Z-11.26
X214.181 Z-11.002
X213.756 Z-10.725
X213.329 Z-10.487
X213.094 Z-10.374
X212.564 Z-10.143
X212.269 Z-10.039
X211.704 Z-9.837
X210.809 Z-9.568
X210.62 Z-9.516
X210.491 Z-9.501
X210.225
X209.986 Z-9.521
X209.72 Z-9.436
X209.434 Z-9.366
X209.175 Z-9.329
X208.976 Z-9.325
X208.784 Z-9.346
X208.668 Z-9.377
X208.558 Z-9.431
X208.457 Z-9.502
X208.367 Z-9.591
X208.292 Z-9.701
X208.177 Z-9.908
X208.098 Z-9.885
X207.696 Z-9.732
X207.572 Z-9.688
X206.787 Z-9.457
X206.306 Z-9.355
X205.018 Z-9.101
X203.872 Z-8.871
X203.208 Z-8.762
X203.057 Z-8.723
X202.821 Z-8.633
X202.57 Z-8.562
X201.809 Z-8.386
X201.369 Z-8.275
X200.861 Z-8.12
X200.766 Z-8.104
X200.613 Z-8.107
X200.606 Z-8.103
X200.524 Z-8.02
X200.424 Z-7.95
X200.311 Z-7.898
X199.63 Z-7.656
X199.242 Z-7.544
X198.868 Z-7.474
X198.475 Z-7.44
X198.075 Z-7.45
X197.774 Z-7.495
X197.333 Z-7.556
X197.02 Z-7.591
X196.754 Z-7.594
X196.524 Z-7.582
X196.03 Z-7.516
X195.787 Z-7.477
X195.623 Z-7.377
X195.431 Z-7.294
X195.212 Z-7.22
X195.045 Z-7.19
X194.476 Z-7.067
X194.254 Z-7.059
X194.068 Z-7.075
X193.951 Z-7.097
X193.594 Z-7.182
X193.279 Z-7.242
X193.044 Z-7.313
X192.928 Z-7.37
X192.726 Z-7.501
X192.634 Z-7.586
X192.556 Z-7.693
X192.415 Z-8.007
X192.374 Z-8.142
X192.35 Z-8.384
Z-9.874
X192.154 Z-9.927
X191.979 Z-9.99
X191.871 Z-10.048
X191.701 Z-10.187
X191.683 Z-10.198
X191.635 Z-10.211
X191.456 Z-10.125
X191.273 Z-10.064
X191.144 Z-10.048
X190.996 Z-10.057
X190.837 Z-10.1
X190.535 Z-10.225
X190.248 Z-10.39
X190.216 Z-10.412
X189.987 Z-10.42
X189.833 Z-10.449
X189.633 Z-10.507
X189.497 Z-10.576
X189.375 Z-10.673
X189.22 Z-10.839
X189.001 Z-10.865
X188.813 Z-10.899
X188.612 Z-10.952
X188.475 Z-11.019
X188.321 Z-11.112
X188.224 Z-11.192
X188.081 Z-11.352
X187.903 Z-11.236
X187.787 Z-11.185
X187.568 Z-11.132
X187.341 Z-11.105
X187.108 Z-11.092
X186.647 Z-11.086
X185.639 Z-11.076
X184.366 Z-11.116
X183.642 Z-11.145
X182.039 Z-11.188
X181.538 Z-11.236
X181.014 Z-11.317
X180.884 Z-11.346
X180.763 Z-11.379
X180.55 Z-11.087
X180.383 Z-10.909
X180.188 Z-10.759
X180.023 Z-10.664
X179.784 Z-10.564
X179.645 Z-10.516
X179.537 Z-10.441
X179.293 Z-10.293
X179.025 Z-10.164
X178.84 Z-10.109
X178.584 Z-10.053
X178.37 Z-10.031
X178.204 Z-10.004
X177.85 Z-9.991
X177.503 Z-9.982
X177.384 Z-9.963
X176.575 Z-9.872
X176.241 Z-9.868
X175.926 Z-9.917
X175.625 Z-9.995
X175.236 Z-10.14
X174.913 Z-10.299
X174.421 Z-10.611
X174.234 Z-10.733
X174.086 Z-10.826
X173.752 Z-11.032
X173.497 Z-11.245
X173.17 Z-11.563
X172.97 Z-11.796
X172.813 Z-11.999
X168.793 Z-11.997
X168.565 Z-11.873
X168.277 Z-11.727
X167.873 Z-11.56
X167.7 Z-11.505
X167.633 Z-11.401
X167.436 Z-11.207
X167.234 Z-11.094
X167.012 Z-10.991
X166.785 Z-10.896
X166.197 Z-10.675
X165.962 Z-10.602
X165.759 Z-10.53
X165.254 Z-10.392
X164.868 Z-10.316
X164.47 Z-10.266
X164.346 Z-10.26
X164.163 Z-10.233
X163.559 Z-10.206
X162.658 Z-10.239
X161.577 Z-10.362
X160.878 Z-10.473
X160.464 Z-10.579
X160.041 Z-10.7
X159.725 Z-10.823
X159.59 Z-10.905
X159.497 Z-10.994
X159.419 Z-11.097
X159.356 Z-11.225
X159.321 Z-11.366
X159.274 Z-11.734
X159.269 Z-11.999
X34.889 Z-12.003
X34.464 Z-12.024
X34.086 Z-12.074
X33.956 Z-12.095
X33.585 Z-12.178
X33.456 Z-12.211
X33.093 Z-12.326
X32.968 Z-12.372
X32.544 Z-12.55
X32.128 Z-12.767
X31.761 Z-13.
X31.721 Z-13.012
Y7.564
X31.761 Z-13.
X32.128 Z-12.767
X32.544 Z-12.55
X32.968 Z-12.372
X33.093 Z-12.326
X33.456 Z-12.211
X33.585 Z-12.178
X33.956 Z-12.095
X34.086 Z-12.074
X34.464 Z-12.024
X34.935 Z-12.001
X159.249 Z-11.999
X159.25 Z-11.741
X159.267 Z-11.371
X159.304 Z-11.209
X159.357 Z-11.082
X159.426 Z-10.97
X159.508 Z-10.871
X159.602 Z-10.789
X159.707 Z-10.725
X159.845 Z-10.667
X160.397 Z-10.505
X160.8 Z-10.414
X161.441 Z-10.308
X161.922 Z-10.241
X162.497 Z-10.2
X163.158 Z-10.161
X163.744 Z-10.162
X164.279 Z-10.183
X164.737 Z-10.225
X165.404 Z-10.331
X165.885 Z-10.433
X166.195 Z-10.516
X166.442 Z-10.585
X166.993 Z-10.756
X167.193 Z-10.825
X167.571 Z-10.996
X167.841 Z-11.135
X167.952 Z-11.223
X168.084 Z-11.351
X168.164 Z-11.467
X168.244 Z-11.609
X168.262 Z-11.69
X168.53 Z-11.8
X168.943 Z-11.999
X172.912
X173.171 Z-11.617
X173.423 Z-11.345
X173.726 Z-11.043
X174.142 Z-10.735
X174.487 Z-10.529
X174.665 Z-10.453
X174.727 Z-10.415
X174.93 Z-10.327
X174.98 Z-10.3
X175.312 Z-10.117
X175.605 Z-9.995
X175.93 Z-9.893
X176.132 Z-9.848
X176.614 Z-9.8
X177.273 Z-9.856
X177.662 Z-9.927
X177.915 Z-9.982
X178.049 Z-9.981
X178.382 Z-9.982
X178.597 Z-9.989
X178.967 Z-10.048
X179.276 Z-10.156
X179.541 Z-10.276
X179.835 Z-10.456
X180.043 Z-10.62
X180.104 Z-10.646
X180.336 Z-10.758
X180.494 Z-10.864
X180.711 Z-11.074
X180.876 Z-11.29
X181.067 Z-11.239
X181.802 Z-11.133
X182.17 Z-11.105
X183.242 Z-11.081
X185.386 Z-11.02
X185.989 Z-11.021
X187.082 Z-11.067
X187.364 Z-11.084
X187.566 Z-11.106
X187.874 Z-11.182
X187.99 Z-11.233
X188.096 Z-11.3
X188.126 Z-11.265
X188.252 Z-11.133
X188.359 Z-11.058
X188.621 Z-10.931
X188.927 Z-10.848
X189.239 Z-10.8
X189.323 Z-10.701
X189.442 Z-10.587
X189.545 Z-10.521
X189.656 Z-10.473
X189.826 Z-10.424
X189.943 Z-10.399
X190.211 Z-10.384
X190.242 Z-10.364
X190.481 Z-10.227
X190.809 Z-10.074
X190.924 Z-10.043
X191.05 Z-10.029
X191.181 Z-10.032
X191.307 Z-10.056
X191.425 Z-10.1
X191.591 Z-10.202
X191.704 Z-10.162
X191.74 Z-10.129
X191.863 Z-10.033
X191.971 Z-9.978
X192.267 Z-9.87
X192.27 Z-8.228
X192.292 Z-8.084
X192.318 Z-8.005
X192.477 Z-7.644
X192.552 Z-7.533
X192.643 Z-7.443
X192.82 Z-7.331
X192.983 Z-7.252
X193.184 Z-7.198
X193.498 Z-7.137
X193.855 Z-7.047
X194.039 Z-7.021
X194.238 Z-7.025
X194.432 Z-7.052
X194.675 Z-7.111
X194.848 Z-7.127
X194.977 Z-7.143
X195.278 Z-7.227
X195.512 Z-7.325
X195.657 Z-7.411
X195.826 Z-7.434
X196.072 Z-7.472
X196.437 Z-7.513
X196.781 Z-7.524
X197.109 Z-7.497
X198.013 Z-7.37
X198.336 Z-7.35
X198.796 Z-7.374
X199.154 Z-7.43
X199.663 Z-7.576
X200.326 Z-7.814
X200.491 Z-7.908
X200.618 Z-8.022
X200.773 Z-8.02
X201.029 Z-8.07
X201.329 Z-8.164
X201.766 Z-8.287
X202.514 Z-8.463
X202.816 Z-8.55
X202.978 Z-8.617
X203.148 Z-8.683
X203.733 Z-8.77
X204.439 Z-8.921
X206.358 Z-9.307
X206.856 Z-9.423
X207.58 Z-9.632
X208.035 Z-9.804
X208.092 Z-9.684
X208.165 Z-9.568
X208.255 Z-9.478
X208.407 Z-9.377
X208.573 Z-9.306
X208.726 Z-9.263
X208.88 Z-9.247
X209.01 Z-9.257
X209.234 Z-9.3
X209.648 Z-9.399
X209.722 Z-9.391
X209.881 Z-9.384
X210.048 Z-9.365
X210.236 Z-9.363
X210.595 Z-9.419
X210.885 Z-9.501
X212.098 Z-9.923
X212.571 Z-10.119
X213.213 Z-10.406
X213.486 Z-10.556
X213.717 Z-10.687
X213.88 Z-10.791
X214.432 Z-11.173
X214.932 Z-11.592
X215.071 Z-11.725
X215.333 Z-11.999
X215.519
X215.781 Z-11.953
X215.898 Z-11.944
X216.026 Z-11.968
X216.105 Z-11.97
X216.222 Z-11.996
X270.009 Z-11.999
X270.042 Z-11.991
X270.075 Z-11.983
Y7.737
X270.042 Z-11.991
X270.009 Z-11.999
X216.559 Z-11.995
X216.332 Z-11.858
X216.214 Z-11.812
X215.963 Z-11.739
X215.834 Z-11.723
X215.506 Z-11.738
X215.394 Z-11.752
X215.366 Z-11.748
X215.136 Z-11.619
X215.021 Z-11.559
X214.784 Z-11.438
X214.599 Z-11.324
X214.262 Z-11.066
X214.109 Z-10.959
X213.625 Z-10.643
X213.454 Z-10.541
X213.246 Z-10.41
X213.128 Z-10.362
X212.714 Z-10.158
X212.188 Z-9.929
X211.821 Z-9.789
X210.946 Z-9.47
X210.456 Z-9.325
X210.135 Z-9.265
X209.904 Z-9.253
X209.505 Z-9.251
X209.345 Z-9.286
X209.309 Z-9.296
X209.008 Z-9.216
X208.879 Z-9.204
X208.679 Z-9.214
X208.504 Z-9.244
X208.333 Z-9.297
X208.172 Z-9.381
X208.074 Z-9.456
X207.987 Z-9.549
X207.915 Z-9.668
X207.9 Z-9.699
X207.397 Z-9.527
X207.02 Z-9.414
X206.524 Z-9.294
X205.882 Z-9.156
X204.364 Z-8.845
X203.735 Z-8.708
X203.153 Z-8.614
X203.033 Z-8.565
X202.81 Z-8.466
X202.561 Z-8.392
X201.644 Z-8.165
X201.059 Z-7.99
X200.771 Z-7.935
X200.655 Z-7.933
X200.544 Z-7.83
X200.409 Z-7.754
X199.668 Z-7.49
X199.114 Z-7.344
X198.986 Z-7.321
X198.677 Z-7.282
X198.231 Z-7.265
X197.841 Z-7.305
X197.101 Z-7.413
X196.823 Z-7.452
X196.418 Z-7.451
X195.869 Z-7.394
X195.529 Z-7.349
X195.365 Z-7.253
X195.032 Z-7.126
X194.907 Z-7.095
X194.436 Z-7.055
X194.163 Z-7.
X193.967 Z-6.988
X193.765 Z-7.003
X192.97 Z-7.182
X192.795 Z-7.243
X192.635 Z-7.328
X192.538 Z-7.405
X192.454 Z-7.503
X192.387 Z-7.623
X192.231 Z-7.982
X192.193 Z-8.128
X192.185 Z-8.236
Z-9.886
X191.946 Z-9.982
X191.842 Z-10.047
X191.747 Z-10.128
X191.58 Z-10.184
X191.457 Z-10.105
X191.343 Z-10.053
X191.22 Z-10.02
X191.058 Z-10.01
X190.891 Z-10.027
X190.734 Z-10.077
X190.414 Z-10.237
X190.21 Z-10.361
X189.942 Z-10.373
X189.751 Z-10.419
X189.572 Z-10.485
X189.441 Z-10.565
X189.323 Z-10.677
X189.243 Z-10.773
X188.901 Z-10.827
X188.611 Z-10.916
X188.39 Z-11.024
X188.287 Z-11.089
X188.17 Z-11.194
X188.113 Z-11.26
X187.957 Z-11.18
X187.789 Z-11.128
X187.514 Z-11.073
X187.134 Z-11.039
X186.481 Z-10.995
X186.029 Z-10.966
X185.426 Z-10.96
X182.812 Z-11.019
X182.278 Z-11.038
X181.953 Z-11.056
X181.601 Z-11.096
X181.135 Z-11.173
X180.991 Z-11.214
X180.87 Z-11.062
X180.689 Z-10.895
X180.548 Z-10.796
X180.342 Z-10.685
X180.302 Z-10.668
X180.138 Z-10.505
X179.977 Z-10.395
X179.664 Z-10.208
X179.498 Z-10.143
X179.141 Z-10.034
X178.891 Z-9.988
X178.469 Z-9.961
X178.345 Z-9.964
X177.891 Z-9.862
X177.47 Z-9.792
X176.989 Z-9.753
X176.721 Z-9.746
X176.478 Z-9.773
X176.128 Z-9.829
X175.901 Z-9.9
X175.518 Z-10.047
X175.274 Z-10.109
X174.693 Z-10.366
X174.541 Z-10.458
X174.237 Z-10.644
X173.803 Z-11.008
X173.675 Z-11.137
X173.429 Z-11.409
X173.256 Z-11.606
X173.046 Z-11.921
X173.005 Z-11.999
X169.072 Z-11.997
X168.714 Z-11.843
X168.693 Z-11.744
X168.662 Z-11.648
X168.599 Z-11.526
X168.431 Z-11.325
X168.221 Z-11.135
X168.074 Z-11.034
X167.739 Z-10.858
X167.291 Z-10.679
X167.047 Z-10.616
X166.55 Z-10.487
X166.26 Z-10.429
X165.987 Z-10.362
X165.275 Z-10.244
X164.917 Z-10.198
X164.557 Z-10.169
X164.358 Z-10.155
X164.174 Z-10.138
X163.035 Z-10.131
X162.566 Z-10.149
X162.169 Z-10.177
X161.944 Z-10.188
X161.477 Z-10.25
X160.997 Z-10.329
X160.439 Z-10.449
X160.093 Z-10.546
X159.843 Z-10.598
X159.73 Z-10.634
X159.621 Z-10.689
X159.521 Z-10.763
X159.434 Z-10.856
X159.353 Z-10.983
X159.306 Z-11.095
X159.272 Z-11.218
X159.25 Z-11.399
Z-11.999
X34.935 Z-12.001
X34.464 Z-12.024
X34.086 Z-12.074
X33.956 Z-12.095
X33.585 Z-12.178
X33.456 Z-12.211
X33.093 Z-12.326
X32.968 Z-12.372
X32.544 Z-12.55
X32.128 Z-12.767
X31.761 Z-13.
X31.721 Z-13.012
Y7.91
X31.761 Z-13.
X32.128 Z-12.767
X32.544 Z-12.55
X32.968 Z-12.372
X33.093 Z-12.326
X33.456 Z-12.211
X33.585 Z-12.178
X33.956 Z-12.095
X34.086 Z-12.074
X34.464 Z-12.024
X34.935 Z-12.001
X159.249 Z-11.999
X159.253 Z-11.24
X159.283 Z-11.085
X159.315 Z-11.
X159.381 Z-10.881
X159.464 Z-10.78
X159.559 Z-10.697
X159.664 Z-10.633
X159.777 Z-10.588
X160.091 Z-10.52
X160.293 Z-10.462
X161.01 Z-10.3
X161.418 Z-10.239
X162.09 Z-10.161
X162.519 Z-10.131
X163.183 Z-10.115
X163.518 Z-10.119
X164.054 Z-10.123
X164.456 Z-10.139
X165.004 Z-10.181
X165.414 Z-10.234
X165.92 Z-10.306
X166.411 Z-10.388
X166.704 Z-10.432
X167.096 Z-10.509
X167.414 Z-10.586
X167.895 Z-10.757
X168.075 Z-10.83
X168.405 Z-11.007
X168.509 Z-11.078
X168.66 Z-11.205
X168.794 Z-11.328
X169.023 Z-11.624
X169.107 Z-11.776
X169.15 Z-11.895
X169.161 Z-11.989
X169.186 Z-11.999
X173.102
X173.172 Z-11.857
X173.313 Z-11.641
X173.479 Z-11.424
X173.836 Z-11.021
X174.04 Z-10.847
X174.21 Z-10.676
X174.511 Z-10.46
X174.766 Z-10.305
X175.26 Z-10.067
X175.643 Z-9.949
X175.959 Z-9.901
X175.992 Z-9.889
X176.251 Z-9.808
X176.438 Z-9.776
X176.553 Z-9.746
X176.703 Z-9.718
X177.137 Z-9.704
X177.653 Z-9.729
X178.239 Z-9.82
X178.544 Z-9.894
X178.832 Z-9.974
X179.049 Z-9.983
X179.308 Z-10.02
X179.529 Z-10.073
X179.696 Z-10.131
X179.838 Z-10.182
X179.992 Z-10.269
X180.347 Z-10.478
X180.449 Z-10.571
X180.547 Z-10.707
X180.72 Z-10.797
X180.947 Z-10.975
X181.108 Z-11.147
X181.207 Z-11.12
X181.62 Z-11.043
X182.117 Z-10.994
X182.431 Z-10.969
X182.994 Z-10.95
X185.239 Z-10.904
X185.977 Z-10.908
X186.363 Z-10.931
X186.951 Z-10.986
X187.341 Z-11.018
X187.784 Z-11.091
X187.999 Z-11.165
X188.144 Z-11.232
