(H2_04_T2_ODIN_FINISH)
(T2  2 Flute Ball Nose 3.175*22      D=3.175 CR=1.588 - ZMIN=-13.317 - ball end mill)
( =================================================== )
(   Z Origin Set To   : Stock Top )
(   Stock Height                    : 50. mm )
(   Toolpath Z Maximum from Stock Top: 15. mm )
(   Toolpath Z Min from Stock Top: -13.317 mm )
(  )
( =================================================== )

( The following values are based on the part position info used in fusion and can be used to roughly align the machine offset from anchor 1 if you use that feature. )
(   X Offset   : 45. mm )
(   Y Offset   : -29.999 mm )

( =================================================== )

G90 G94
G17
G21
(When using Fusion for Personal Use, the feedrate of rapid)
(moves is reduced to match the feedrate of cutting moves,)
(which can increase machining time. Unrestricted rapid moves)
(are available with a Fusion Subscription.)

(H2_T2_ODIN_FINISH)
M6 T2 
(6)
M400
M851 S100
S18000 M3
G54
G0 X270.319 Y0.991
Z15.
G1 Z-10.013 F1500.
Z-11.681 F200.
X270.001 Z-11.999 F1500.
X219.958
X219.775 Z-12.015
X219.605 Z-12.048
X219.439 Z-12.101
X219.279 Z-12.172
X219.126 Z-12.261
X218.983 Z-12.367
X218.852 Z-12.49
X218.734 Z-12.629
X218.631 Z-12.783
X218.528 Z-12.993
X218.525 Z-12.998
Y1.117
X218.526 Y1.243
X218.601 Z-12.836
X218.698 Z-12.677
X218.812 Z-12.533
X218.939 Z-12.405
X219.079 Z-12.293
X219.229 Z-12.199
X219.387 Z-12.122
X219.551 Z-12.063
X219.72 Z-12.024
X219.929 Z-12.
X270.009 Z-11.999
X270.079 Z-11.982
X270.149 Z-11.966
X270.275 Y1.369
X270.149 Y1.495
X270.079 Z-11.982
X270.009 Z-11.999
X219.929 Z-12.
X219.72 Z-12.024
X219.551 Z-12.063
X219.387 Z-12.122
X219.229 Z-12.199
X219.079 Z-12.293
X218.939 Z-12.405
X218.812 Z-12.533
X218.698 Z-12.677
X218.601 Z-12.836
X218.526 Z-12.998
Y1.747
X218.601 Z-12.836
X218.698 Z-12.677
X218.812 Z-12.533
X218.939 Z-12.405
X219.079 Z-12.293
X219.229 Z-12.199
X219.387 Z-12.122
X219.551 Z-12.063
X219.72 Z-12.024
X219.929 Z-12.
X270.009 Z-11.999
X270.079 Z-11.982
X270.149 Z-11.966
X270.275 Y1.873
X270.149 Y1.999
X270.079 Z-11.982
X270.009 Z-11.999
X219.929 Z-12.
X219.72 Z-12.024
X219.551 Z-12.063
X219.387 Z-12.122
X219.229 Z-12.199
X219.079 Z-12.293
X218.939 Z-12.405
X218.812 Z-12.533
X218.698 Z-12.677
X218.601 Z-12.836
X218.526 Z-12.998
Y2.251
X218.601 Z-12.836
X218.698 Z-12.677
X218.812 Z-12.533
X218.939 Z-12.405
X219.079 Z-12.293
X219.229 Z-12.199
X219.387 Z-12.122
X219.551 Z-12.063
X219.72 Z-12.024
X219.929 Z-12.
X270.009 Z-11.999
X270.079 Z-11.982
X270.149 Z-11.966
X270.275 Y2.377
X270.149 Y2.503
X270.079 Z-11.982
X270.009 Z-11.999
X219.929 Z-12.
X219.72 Z-12.024
X219.551 Z-12.063
X219.387 Z-12.122
X219.229 Z-12.199
X219.079 Z-12.293
X218.939 Z-12.405
X218.812 Z-12.533
X218.698 Z-12.677
X218.601 Z-12.836
X218.526 Z-12.998
Y2.755
X218.601 Z-12.836
X218.698 Z-12.677
X218.812 Z-12.533
X218.939 Z-12.405
X219.079 Z-12.293
X219.229 Z-12.199
X219.387 Z-12.122
X219.551 Z-12.063
X219.72 Z-12.024
X219.929 Z-12.
X270.009 Z-11.999
X270.079 Z-11.982
X270.149 Z-11.966
X270.275 Y2.881
X270.149 Y3.007
X270.079 Z-11.982
X270.009 Z-11.999
X219.929 Z-12.
X219.72 Z-12.024
X219.551 Z-12.063
X219.387 Z-12.122
X219.229 Z-12.199
X219.079 Z-12.293
X218.939 Z-12.405
X218.812 Z-12.533
X218.698 Z-12.677
X218.601 Z-12.836
X218.526 Z-12.998
X218.271 Z-13.123
X218.094 Z-12.902
Z5.
X205.613 Y1.747
Z-10.054
Z-12.688 F200.
X205.497 Z-12.933 F1500.
X205.234 Z-13.
X204.664 Z-12.889
X203.815 Z-12.755
X202.743 Z-12.626
X202.029 Z-12.569
X201.026 Z-12.53
X199.563 Z-12.511
X199.344 Z-12.546
X199.224 Z-12.598
X199.116 Z-12.519
X199.01 Z-12.472
X198.228 Z-12.316
X197.746 Z-12.214
X197.699 Z-12.201
X197.696 Z-11.273
X197.662 Z-10.928
X197.627 Z-10.81
X197.502 Z-10.539
X197.454 Z-10.471
X197.317 Z-10.348
X197.184 Z-10.264
X196.937 Z-10.14
X196.802 Z-10.11
X196.33 Z-10.063
X196.187 Z-10.076
X196.017 Z-10.112
X195.843 Z-10.17
X195.696 Z-10.268
X195.627 Z-10.315
X195.516 Z-10.373
X195.3 Z-10.459
X195.133 Z-10.541
X195.056 Z-10.601
X194.963 Z-10.72
X194.947 Z-10.738
X194.75 Z-10.805
X194.447 Z-10.99
X194.24 Z-11.162
X194.121 Z-11.31
X194.056 Z-11.438
X193.977 Z-11.706
X193.966 Z-11.76
X193.927 Z-11.785
X193.747 Z-11.856
X193.302 Z-12.079
X192.948 Z-12.296
X192.708 Z-12.474
X192.301 Z-12.807
X192.1 Z-13.
X191.924 Y1.79
X191.753 Y1.847 Z-12.999
X191.586 Y1.915
X191.425 Y1.999
X191.635 Z-12.766
X192. Z-12.415
X192.435 Z-12.061
X192.772 Z-11.822
X193.145 Z-11.602
X193.55 Z-11.404
X193.591 Z-11.276
X193.664 Z-11.111
X193.744 Z-10.992
X193.89 Z-10.814
X194.102 Z-10.634
X194.31 Z-10.492
X194.538 Z-10.36
X194.645 Z-10.318
X194.747 Z-10.216
X194.892 Z-10.108
X194.99 Z-10.054
X195.227 Z-9.95
X195.312 Z-9.918
X195.4 Z-9.851
X195.592 Z-9.742
X195.784 Z-9.665
X196.036 Z-9.6
X196.269 Z-9.569
X196.365 Z-9.57
X196.833 Z-9.611
X197.005 Z-9.638
X197.095 Z-9.665
X197.179 Z-9.7
X197.43 Z-9.836
X197.586 Z-9.929
X197.728 Z-10.049
X197.847 Z-10.173
X197.939 Z-10.311
X198.033 Z-10.498
X198.11 Z-10.698
X198.154 Z-10.885
X198.188 Z-11.24
X198.192 Z-11.791
X198.265 Z-11.808
X199.115 Z-11.991
X199.289 Z-12.052
X199.328 Z-12.047
X199.57 Z-12.017
X200.961 Z-12.036
X201.891 Z-12.069
X202.562 Z-12.114
X203.462 Z-12.213
X204.319 Z-12.332
X205.198 Z-12.487
X205.822 Z-12.638
X206.052 Z-12.713
X206.351 Z-12.853
X206.584 Z-12.999
X206.777 Y2.06 Z-13.
X206.97 Y2.121
X207.162 Y2.186
X207.353 Y2.251
X207.169 Z-12.868
X206.902 Z-12.72
X206.597 Z-12.593
X206.237 Z-12.475
X205.961 Z-12.396
X205.592 Z-12.303
X205.239 Z-12.222
X204.494 Z-12.089
X203.92 Z-12.004
X203.18 Z-11.911
X202.8 Z-11.868
X202.247 Z-11.823
X201.657 Z-11.79
X200.34 Z-11.753
X199.535 Z-11.742
X199.406 Z-11.754
X198.864 Z-11.597
X198.456 Z-11.481
X198.446 Z-11.153
X198.411 Z-10.82
X198.365 Z-10.627
X198.324 Z-10.504
X198.244 Z-10.329
X198.116 Z-10.096
X198.011 Z-9.959
X197.805 Z-9.763
X197.572 Z-9.592
X197.433 Z-9.516
X197.17 Z-9.41
X196.989 Z-9.363
X196.492 Z-9.312
X196.179 Z-9.303
X195.892 Z-9.316
X195.554 Z-9.38
X195.347 Z-9.447
X195.188 Z-9.525
X195.041 Z-9.629
X194.956 Z-9.692
X194.81 Z-9.761
X194.66 Z-9.863
X194.474 Z-10.047
X194.343 Z-10.107
X194.063 Z-10.294
X193.858 Z-10.463
X193.66 Z-10.673
X193.511 Z-10.863
X193.41 Z-11.028
X193.357 Z-11.144
X192.849 Z-11.412
X192.7 Z-11.507
X192.399 Z-11.719
X192.053 Z-11.986
X191.787 Z-12.225
X191.586 Z-12.417
X191.179 Z-12.866
X191.091 Z-12.998
G18 G3 X190.509 Z-12.822 I-0.264 K0.176
G1 Z5.
X188.002
Z-10.326
Z-12.689 F200.
X187.885 Z-12.935 F1500.
X187.62 Z-13.
X187.517 Z-12.978
X187.265
X187.133 Z-13.
X187.003 Y2.271
X186.746 Y2.316
X186.617 Y2.341
X186.492 Y2.376
X186.367 Y2.414
X186.243 Y2.458
X186.12 Y2.503
X186.187 Z-12.942
X186.411 Z-12.797
X186.651 Z-12.689
X187.07 Z-12.588
X187.253 Z-12.564
X187.541 Z-12.566
X187.633 Z-12.579
X187.91 Z-12.65
X188.176 Z-12.734
X188.26 Z-12.775
X188.406 Z-12.876
X188.529 Z-12.999
X188.674 Y2.594
X188.819 Y2.692
X188.965 Y2.793
X189.11 Y2.903
X189.256 Y3.01
X189.401 Y3.074
X189.546 Y3.149 Z-12.998
X189.692 Y3.158
X189.837 Y3.134
X189.982 Y3.112
X190.128 Y3.101
X190.273 Y3.1
X190.419 Y3.053
X190.564 Y2.966
X190.637 Y2.822
X190.709 Y2.705
X190.855 Y2.503
X190.956 Z-12.835
X191.178 Z-12.54
X191.552 Z-12.126
X191.941 Z-11.749
X192.258 Z-11.491
X192.556 Z-11.282
X192.85 Z-11.089
X193.321 Z-10.836
X193.371 Z-10.746
X193.487 Z-10.562
X193.609 Z-10.375
X193.727 Z-10.232
X193.986 Z-9.992
X194.138 Z-9.882
X194.258 Z-9.819
X194.381 Z-9.694
X194.523 Z-9.578
X194.695 Z-9.48
X194.868 Z-9.336
X195.022 Z-9.246
X195.186 Z-9.182
X195.479 Z-9.113
X195.705 Z-9.088
X196.394 Z-9.091
X196.796 Z-9.141
X196.983 Z-9.171
X197.418 Z-9.291
X197.586 Z-9.365
X197.741 Z-9.461
X197.88 Z-9.576
X198.048 Z-9.753
X198.198 Z-9.917
X198.296 Z-10.06
X198.383 Z-10.225
X198.487 Z-10.451
X198.559 Z-10.688
X198.588 Z-10.854
X198.62 Z-11.188
X198.893 Z-11.29
X199.259 Z-11.405
X199.428 Z-11.46
X199.572 Z-11.518
X199.794 Z-11.501
X200.184 Z-11.511
X201.513 Z-11.568
X201.895 Z-11.587
X202.619 Z-11.636
X203.19 Z-11.69
X204.025 Z-11.785
X204.496 Z-11.861
X205.249 Z-11.995
X205.529 Z-12.053
X205.993 Z-12.167
X206.361 Z-12.267
X207.003 Z-12.465
X207.336 Z-12.586
X207.561 Z-12.697
X207.785 Z-12.848
X207.958 Z-13.
X208.115 Y2.574
X208.273 Y2.647
X208.43 Y2.727
X208.587 Y2.809
X208.745 Y2.895
X208.902 Y2.986
X209.059 Y3.077
X209.217 Y3.172
X209.374 Y3.182
X209.531 Y3.101
X209.689 Y2.982
X209.846 Y2.853
X210.003 Y2.741
X210.161 Y2.646
X210.318 Y2.568
X210.475 Y2.503
X210.504 Z-12.973
X210.637 Z-12.873
X210.718 Z-12.829
X210.799 Z-12.797
X210.894 Z-12.771
X210.99 Z-12.756
X211.084 Z-12.753
X211.179 Z-12.76
X211.268 Z-12.778
X211.358 Z-12.806
X211.438 Z-12.841
X211.518 Z-12.887
X211.654 Z-12.999
X211.861 Y2.613 Z-12.998
X212.048 Y2.755
X211.949 Z-12.856
X211.827 Z-12.729
X211.685 Z-12.62
X211.525 Z-12.534
X211.35 Z-12.473
X211.164 Z-12.442
X210.974 Z-12.441
X210.783 Z-12.473
X210.617 Z-12.529
X210.381 Z-12.642
X210.232 Z-12.736
X210.094 Z-12.857
X209.982 Z-12.998
X209.795 Y2.897
X209.608 Y3.044
X209.42 Y3.17
X209.233 Y3.183 Z-12.999
X209.045 Y3.069
X208.858 Y2.962
X208.671 Y2.854
X208.483 Y2.755
X208.305 Z-12.826
X208.125 Z-12.697
X207.83 Z-12.539
X207.402 Z-12.361
X207.101 Z-12.262
X206.278 Z-12.01
X206.002 Z-11.938
X205.135 Z-11.753
X204.333 Z-11.624
X204.144 Z-11.595
X203.385 Z-11.506
X202.815 Z-11.446
X201.843 Z-11.38
X200.196 Z-11.292
X199.909 Z-11.278
X199.736 Z-11.291
X198.707 Z-10.914
X198.672 Z-10.683
X198.584 Z-10.393
X198.457 Z-10.106
X198.345 Z-9.923
X198.059 Z-9.57
X197.938 Z-9.448
X197.795 Z-9.337
X197.638 Z-9.242
X197.469 Z-9.168
X197.29 Z-9.105
X197.04 Z-9.011
X196.855 Z-8.973
X196.477 Z-8.926
X195.923 Z-8.885
X195.515 Z-8.88
X195.238 Z-8.919
X195.006 Z-8.973
X194.842 Z-9.038
X194.688 Z-9.127
X194.546 Z-9.241
X194.505 Z-9.275
X194.421 Z-9.315
X194.323 Z-9.372
X194.179 Z-9.485
X194.016 Z-9.66
X193.874 Z-9.757
X193.741 Z-9.878
X193.508 Z-10.147
X193.394 Z-10.322
X193.244 Z-10.6
X192.825 Z-10.811
X192.359 Z-11.122
X192.017 Z-11.393
X191.605 Z-11.771
X191.163 Z-12.277
X190.77 Z-12.83
X190.678 Z-12.998
X190.499 Z-13.075
X190.38 Z-12.922
Z-12.899
X190.221 Z-12.74
X189.354
X189.196 Z-12.899
X189.09 Z-13.048
X188.914 Z-12.999
X188.804 Z-12.863
X188.674 Z-12.737
X188.492 Z-12.595
X188.376 Z-12.525
X188.207 Z-12.451
X188.026 Z-12.403
X187.555 Z-12.327
X187.266 Z-12.324
X187.071 Z-12.342
X186.668 Z-12.406
X186.356 Z-12.499
X186.155 Z-12.583
X185.929 Z-12.722
X185.787 Z-12.831
X185.724 Z-12.895
X185.641 Z-12.998
X185.48 Y2.879 Z-12.999
X185.322 Y3.007 Z-13.
X185.406 Z-12.881
X185.527 Z-12.745
X185.659 Z-12.624
X185.804 Z-12.518
X185.959 Z-12.434
X186.12 Z-12.37
X186.368 Z-12.289
X186.704 Z-12.219
X187.003 Z-12.18
X187.378 Z-12.163
X187.617 Z-12.171
X187.712 Z-12.179
X188.088 Z-12.234
X188.268 Z-12.284
X188.528 Z-12.396
X188.77 Z-12.532
X188.989 Z-12.702
X189.112 Z-12.829
X189.21 Z-12.964
X189.248 Z-12.999
X189.409 Y3.078
X189.571 Y3.161
X189.732 Y3.151
X189.893 Y3.125
X190.055 Y3.104
X190.216 Y3.099
X190.378 Y3.069
X190.539 Y3.007
X190.549 Z-12.992
X190.587 Z-12.911
X190.769 Z-12.605
X191.099 Z-12.127
X191.341 Z-11.818
X191.571 Z-11.551
X191.964 Z-11.182
X192.098 Z-11.068
X192.445 Z-10.805
X192.744 Z-10.605
X193.166 Z-10.379
X193.276 Z-10.16
X193.468 Z-9.89
X193.602 Z-9.733
X193.735 Z-9.618
X193.781 Z-9.558
X193.899 Z-9.413
X194.032 Z-9.291
X194.21 Z-9.169
X194.349 Z-9.029
X194.495 Z-8.922
X194.654 Z-8.841
X194.981 Z-8.727
X195.151 Z-8.691
X195.346 Z-8.678
X195.632 Z-8.691
X196.467 Z-8.782
X196.656 Z-8.806
X197.073 Z-8.896
X197.295 Z-8.968
X197.554 Z-9.094
X197.756 Z-9.203
X197.941 Z-9.336
X198.137 Z-9.527
X198.427 Z-9.89
X198.518 Z-10.037
X198.59 Z-10.189
X198.676 Z-10.428
X198.739 Z-10.645
X198.748 Z-10.652
X199.851 Z-11.083
X199.947 Z-11.082
X202.083 Z-11.208
X202.846 Z-11.264
X203.607 Z-11.334
X204.176 Z-11.405
X204.554 Z-11.462
X205.438 Z-11.601
X206.332 Z-11.811
X207.317 Z-12.113
X207.853 Z-12.312
X208.028 Z-12.386
X208.371 Z-12.546
X208.589 Z-12.677
X208.785 Z-12.836
X208.94 Z-13.
X209.119 Y3.113 Z-12.999
X209.298 Y3.209
X209.477 Y3.143 Z-12.998
X209.657 Y3.007
X209.79 Z-12.782
X209.905 Z-12.632
X210.04 Z-12.508
X210.191 Z-12.41
X210.353 Z-12.34
X210.511 Z-12.301
X210.655 Z-12.284
X210.925 Z-12.246
X211.12 Z-12.24
X211.308 Z-12.261
X211.489 Z-12.308
X211.66 Z-12.378
X211.819 Z-12.47
X211.961 Z-12.582
X212.085 Z-12.709
X212.189 Z-12.849
X212.273 Z-12.998
X212.563 Z-13.121
X212.755 Z-12.872
Z5.
X175.277 Y1.999
Z-10.148
Z-12.703 F200.
G3 X174.844 Z-12.999 I-0.317 K0. F1500.
G1 X174.755 Z-12.965
X174.623 Z-12.939
X174.482 Z-12.932
X174.197 Z-12.9
X174.036 Z-12.908
X173.912 Z-12.906
X173.757 Z-12.937
X173.731 Z-12.943
X173.613 Z-12.937
X173.539 Z-12.945
X173.412 Z-12.979
X173.356 Z-13.
X173.221 Y2.011
X173.085 Y2.025
X172.951 Y2.045
X172.818 Y2.067
X172.687 Y2.1 Z-12.999
X172.559 Y2.145
X172.433 Y2.198
X172.308 Y2.251
X172.321 Z-12.986
X172.512 Z-12.829
X172.664 Z-12.733
X172.828 Z-12.665
X173.039 Z-12.617
X173.421 Z-12.567
X173.607 Z-12.544
X173.757 Z-12.546
X173.858 Z-12.531
X174.04 Z-12.528
X174.204 Z-12.524
X174.57 Z-12.543
X174.758 Z-12.56
X175.032 Z-12.631
X175.199 Z-12.691
X175.431 Z-12.815
X175.558 Z-12.871
X175.781 Z-13.
X175.986 Y2.306
X176.191 Y2.363 Z-12.999
X176.393 Y2.428
X176.592 Y2.503
X176.356 Z-12.821
X176.194 Z-12.737
X175.835 Z-12.601
X175.544 Z-12.494
X175.007 Z-12.358
X174.63 Z-12.312
X174.096 Z-12.299
X174.047 Z-12.302
X173.861 Z-12.304
X173.787 Z-12.311
X173.553 Z-12.308
X173.046 Z-12.359
X172.876 Z-12.384
X172.687 Z-12.437
X172.386 Z-12.562
X172.233 Z-12.656
X172.094 Z-12.773
X171.971 Z-12.915
X171.917 Z-12.998
X171.797 Y2.623
X171.69 Y2.755
X171.693 Z-12.993
X171.812 Z-12.797
X171.931 Z-12.656
X172.065 Z-12.534
X172.212 Z-12.433
X172.369 Z-12.353
X172.533 Z-12.294
X172.95 Z-12.189
X173.416 Z-12.107
X173.653 Z-12.086
X173.994 Z-12.048
X174.189 Z-12.041
X174.55 Z-12.077
X174.928 Z-12.127
X175.287 Z-12.204
X175.549 Z-12.232
X175.922 Z-12.301
X176.104 Z-12.361
X176.388 Z-12.502
X176.635 Z-12.617
X176.79 Z-12.713
X176.973 Z-12.844
X177.122 Z-12.999
X177.34 Y2.88
X177.557 Y3.007 Z-12.998
X177.417 Z-12.843
X177.2 Z-12.664
X177.083 Z-12.584
X176.918 Z-12.445
X176.742 Z-12.335
X176.507 Z-12.228
X176.329 Z-12.17
X175.913 Z-12.067
X175.853 Z-12.055
X175.669 Z-11.992
X175.315 Z-11.914
X175.127 Z-11.892
X174.377 Z-11.854
X174.258 Z-11.858
X174.081 Z-11.854
X173.542 Z-11.922
X172.859 Z-12.065
X172.375 Z-12.211
X172.215 Z-12.283
X172.063 Z-12.375
X171.854 Z-12.538
X171.727 Z-12.665
X171.614 Z-12.811
X171.509 Z-12.997
G3 X171.021 Z-12.868 I-0.227 K0.129
G1 Z5.
X270.327 Y3.259
Z-10.014
Z-11.681 F200.
X270.009 Z-11.999 F1500.
X219.929 Z-12.
X219.72 Z-12.024
X219.551 Z-12.063
X219.387 Z-12.122
X219.229 Z-12.199
X219.079 Z-12.293
X218.939 Z-12.405
X218.812 Z-12.533
X218.698 Z-12.677
X218.601 Z-12.836
X218.527 Z-12.99
X212.413
X212.333 Z-12.834
X212.236 Z-12.689
X212.12 Z-12.554
X211.987 Z-12.433
X211.838 Z-12.328
X211.675 Z-12.241
X211.501 Z-12.175
X211.319 Z-12.131
X210.77 Z-12.062
X210.579 Z-12.065
X210.408 Z-12.091
X210.241 Z-12.14
X210.079 Z-12.205
X209.923 Z-12.288
X209.776 Z-12.39
X209.642 Z-12.515
X209.527 Z-12.666
X209.434 Z-12.81
X209.358 Z-12.852
X209.279 Z-12.905
X209.1 Z-12.735
X208.89 Z-12.585
X208.601 Z-12.429
X208.362 Z-12.314
X208.013 Z-12.159
X207.659 Z-12.022
X207.289 Z-11.889
X206.77 Z-11.729
X206.403 Z-11.629
X205.799 Z-11.485
X205.284 Z-11.385
X204.387 Z-11.244
X203.77 Z-11.173
X202.818 Z-11.084
X201.813 Z-11.01
X200.013 Z-10.898
X199.966 Z-10.893
X199.791 Z-10.813
X198.742 Z-10.39
X198.659 Z-10.163
X198.594 Z-10.026
X198.503 Z-9.879
X198.333 Z-9.647
X198.218 Z-9.499
X198.047 Z-9.302
X197.914 Z-9.181
X197.724 Z-9.051
X197.519 Z-8.935
X197.348 Z-8.86
X197.123 Z-8.797
X196.725 Z-8.703
X196.442 Z-8.654
X195.989 Z-8.589
X195.443 Z-8.5
X195.252 Z-8.494
X195.057 Z-8.512
X194.721 Z-8.58
X194.515 Z-8.646
X194.375 Z-8.715
X194.226 Z-8.818
X194.093 Z-8.944
X194.006 Z-9.044
X193.776 Z-9.239
X193.68 Z-9.344
X193.567 Z-9.51
X193.492 Z-9.612
X193.305 Z-9.856
X193.15 Z-10.099
X193.103 Z-10.186
X192.743 Z-10.375
X192.52 Z-10.508
X192.027 Z-10.896
X191.894 Z-11.015
X191.574 Z-11.333
X191.291 Z-11.67
X191.03 Z-12.018
X190.838 Z-12.311
X190.73 Z-12.494
X190.626 Z-12.534
X190.47 Z-12.617
X190.331 Z-12.698
X190.067 Z-12.704
X189.896 Z-12.738
X189.583 Z-12.828
X189.442 Z-12.718
X189.286 Z-12.617
X189.111 Z-12.536
X189.054 Z-12.515
X188.906 Z-12.413
X188.742 Z-12.328
X188.391 Z-12.188
X188.12 Z-12.104
X187.888 Z-12.056
X187.557 Z-12.02
X186.901 Z-12.04
X186.73 Z-12.065
X186.29 Z-12.156
X185.92 Z-12.28
X185.647 Z-12.418
X185.499 Z-12.511
X185.326 Z-12.655
X185.233 Z-12.754
X185.122 Z-12.903
X185.069 Z-12.99
X177.919 Z-12.988
X177.581 Z-12.641
X177.309 Z-12.388
X177.16 Z-12.284
X176.913 Z-12.16
X176.624 Z-12.056
X176.404 Z-11.989
X176.244 Z-11.911
X176.056 Z-11.851
X175.694 Z-11.775
X175.221 Z-11.712
X174.932 Z-11.707
X174.317 Z-11.706
X173.999 Z-11.735
X173.437 Z-11.822
X172.819 Z-11.973
X172.491 Z-12.077
X172.172 Z-12.207
X171.953 Z-12.325
X171.798 Z-12.439
X171.667 Z-12.563
X171.55 Z-12.705
X171.449 Z-12.861
X171.384 Z-12.99
X34.912 Z-12.993
X34.768 Z-13.
X34.601 Z-12.841
X34.465 Y3.29 Z-12.505
X34.137 Y3.366 Z-12.365
X33.972 Y3.404
X33.644 Y3.48 Z-12.505
X33.508 Y3.511 Z-12.841
Z-12.846
X33.706 Z-13.
X33.788 Z-12.979
X33.977 Z-12.944
X34.384 Z-12.883
X34.896 Z-12.853
X162.295 Z-12.849
X162.38 Z-12.831
X162.612 Z-12.81
X162.895 Z-12.811
X163.171 Z-12.812
X163.485 Z-12.846
X171.348 Z-12.849
X171.367 Z-12.82
X171.492 Z-12.637
X171.614 Z-12.501
X171.749 Z-12.382
X171.971 Z-12.235
X172.137 Z-12.153
X172.385 Z-12.053
X172.834 Z-11.897
X173.496 Z-11.726
X174.092 Z-11.631
X174.655 Z-11.585
X175.382 Z-11.584
X175.794 Z-11.617
X176.17 Z-11.67
X176.351 Z-11.717
X176.615 Z-11.817
X176.85 Z-11.942
X177.077 Z-12.015
X177.236 Z-12.089
X177.392 Z-12.185
X177.716 Z-12.385
X177.916 Z-12.531
X178.065 Z-12.675
X178.191 Z-12.849
X184.932
X185.066 Z-12.68
X185.196 Z-12.555
X185.41 Z-12.396
X185.62 Z-12.278
X186.06 Z-12.105
X186.4 Z-12.
X186.726 Z-11.933
X186.978 Z-11.899
X187.163 Z-11.9
X187.528
X187.777 Z-11.919
X188.094 Z-11.969
X188.334 Z-12.034
X188.633 Z-12.146
X188.906 Z-12.273
X189.117 Z-12.319
X189.382 Z-12.42
X189.545 Z-12.503
X189.607 Z-12.486
X189.998 Z-12.42
X190.229 Z-12.407
X190.329 Z-12.342
X190.489 Z-12.265
X190.656 Z-12.214
X190.827 Z-12.185
X191.144 Z-11.665
X191.525 Z-11.19
X191.858 Z-10.847
X192.102 Z-10.626
X192.514 Z-10.307
X192.763 Z-10.154
X193.053 Z-10.
X193.068 Z-9.981
X193.234 Z-9.711
X193.388 Z-9.441
X193.516 Z-9.256
X193.666 Z-9.095
X193.693 Z-9.048
X193.8 Z-8.892
X193.925 Z-8.757
X194.085 Z-8.633
X194.296 Z-8.517
X194.541 Z-8.423
X194.71 Z-8.382
X195.015 Z-8.351
X195.256 Z-8.348
X195.445 Z-8.369
X196.082 Z-8.494
X196.751 Z-8.604
X197.073 Z-8.683
X197.382 Z-8.785
X197.597 Z-8.883
X197.837 Z-9.036
X197.984 Z-9.144
X198.107 Z-9.259
X198.358 Z-9.544
X198.654 Z-9.987
X198.73 Z-10.143
X199.624 Z-10.51
X200.097 Z-10.716
X200.152 Z-10.721
X202.743 Z-10.904
X203.505 Z-10.973
X204.436 Z-11.074
X205.101 Z-11.169
X205.735 Z-11.289
X206.275 Z-11.405
X206.83 Z-11.547
X207.013 Z-11.601
X207.376 Z-11.717
X207.916 Z-11.908
X208.091 Z-11.979
X208.459 Z-12.142
X208.763 Z-12.291
X209.101 Z-12.467
X209.262 Z-12.559
X209.279 Z-12.552
X209.308 Z-12.51
X209.427 Z-12.366
X209.564 Z-12.244
X209.713 Z-12.147
X209.872 Z-12.07
X210.12 Z-11.987
X210.374 Z-11.937
X210.618 Z-11.914
X210.834 Z-11.919
X211.011 Z-11.948
X211.371 Z-12.05
X211.595 Z-12.123
X211.807 Z-12.219
X211.963 Z-12.316
X212.105 Z-12.43
X212.231 Z-12.558
X212.34 Z-12.697
X212.431 Z-12.847
X218.593 Z-12.849
X218.698 Z-12.677
X218.812 Z-12.533
X218.939 Z-12.405
X219.079 Z-12.293
X219.229 Z-12.199
X219.387 Z-12.122
X219.551 Z-12.063
X219.72 Z-12.024
X219.929 Z-12.
X270.009 Z-11.999
X270.079 Z-11.982
X270.149 Z-11.966
X270.275 Y3.637
X270.149 Y3.763
X270.079 Z-11.982
X270.009 Z-11.999
X219.929 Z-12.
X219.72 Z-12.024
X219.551 Z-12.063
X219.387 Z-12.122
X219.229 Z-12.199
X219.079 Z-12.293
X218.939 Z-12.405
X218.812 Z-12.533
X218.669 Z-12.722
X218.655 Z-12.729
X212.543 Z-12.727
X212.358 Z-12.661
X212.247 Z-12.522
X212.119 Z-12.395
X211.977 Z-12.282
X211.82 Z-12.185
X211.524 Z-12.04
X211.217 Z-11.912
X211.037 Z-11.859
X210.851 Z-11.827
X210.518 Z-11.804
X210.274 Z-11.808
X210.005 Z-11.841
X209.837 Z-11.885
X209.595 Z-11.983
X209.441 Z-12.069
X209.257 Z-12.205
X209.167 Z-12.284
X208.861 Z-12.124
X208.343 Z-11.88
X208.17 Z-11.805
X207.992 Z-11.734
X207.814 Z-11.67
X206.951 Z-11.39
X206.536 Z-11.282
X206.163 Z-11.198
X205.789 Z-11.118
X205.414 Z-11.05
X204.754 Z-10.945
X204.043 Z-10.86
X203.178 Z-10.774
X201.843 Z-10.673
X201.1 Z-10.619
X200.379 Z-10.541
X200.188 Z-10.528
X200.024 Z-10.448
X199.451 Z-10.213
X198.726 Z-9.926
X198.668 Z-9.903
X198.364 Z-9.47
X198.178 Z-9.275
X197.971 Z-9.082
X197.665 Z-8.874
X197.452 Z-8.765
X197.25 Z-8.67
X196.893 Z-8.547
X196.616 Z-8.475
X196.264 Z-8.422
X196.146 Z-8.409
X195.789 Z-8.335
X195.416 Z-8.25
X195.228 Z-8.226
X194.94 Z-8.228
X194.671 Z-8.249
X194.417 Z-8.295
X194.25 Z-8.346
X194.01 Z-8.453
X193.858 Z-8.545
X193.684 Z-8.683
X193.587 Z-8.784
X193.476 Z-8.938
X193.431 Z-9.018
X193.356 Z-9.194
X193.266 Z-9.315
X193.158 Z-9.508
X193.008 Z-9.824
X192.487 Z-10.135
X192.107 Z-10.436
X191.88 Z-10.652
X191.632 Z-10.91
X191.381 Z-11.214
X191.076 Z-11.632
X190.951 Z-11.849
X190.893 Z-11.961
X190.607 Z-11.988
X190.415 Z-12.031
X190.251 Z-12.091
X190.094 Z-12.175
X190.017 Z-12.23
X189.668 Z-12.266
X189.503 Z-12.303
X189.33 Z-12.234
X189.055 Z-12.161
X188.833 Z-12.129
X188.814 Z-12.122
X188.432 Z-11.96
X188.115 Z-11.864
X187.894 Z-11.824
X187.633 Z-11.806
X187.439 Z-11.804
X187.234 Z-11.778
X186.947 Z-11.785
X186.704 Z-11.815
X186.45 Z-11.862
X185.993 Z-12.009
X185.639 Z-12.156
X185.33 Z-12.306
X185.14 Z-12.431
X184.975 Z-12.575
X184.837 Z-12.729
X178.518 Z-12.726
X178.408 Z-12.587
X178.244 Z-12.43
X177.977 Z-12.249
X177.814 Z-12.153
X177.646 Z-12.078
X177.309 Z-11.947
X177.041 Z-11.789
X176.832 Z-11.702
X176.388 Z-11.561
X176.213 Z-11.52
X176.001 Z-11.495
X175.369 Z-11.472
X175.027 Z-11.475
X174.27 Z-11.534
X173.995 Z-11.571
X173.552 Z-11.649
X173.032 Z-11.784
X172.543 Z-11.947
X172.221 Z-12.072
X171.984 Z-12.175
X171.793 Z-12.287
X171.617 Z-12.427
X171.462 Z-12.589
X171.359 Z-12.729
X164.426 Z-12.727
X164.17 Z-12.611
X163.99 Z-12.566
X163.731 Z-12.526
X163.539 Z-12.501
X162.939 Z-12.445
X162.503 Z-12.435
X162.121 Z-12.45
X161.927 Z-12.487
X161.769 Z-12.506
X161.23 Z-12.647
X160.981 Z-12.729
X34.905 Z-12.731
X34.396 Z-12.759
X33.824 Z-12.845
X33.276 Z-12.981
X33.22 Z-13.
X33.1 Z-12.992
X33.031 Z-12.976
X32.693
X32.567 Y3.889
X32.693 Y4.015
X32.762 Z-12.992
X32.763 Z-12.993
X32.885 Z-13.
X33.258 Z-12.871
X33.82 Z-12.73
X34.392 Z-12.644
X34.892 Z-12.616
X160.174 Z-12.612
X160.403 Z-12.521
X160.732 Z-12.415
X161.15 Z-12.316
X161.424 Z-12.272
X161.676 Z-12.224
X161.867 Z-12.197
X162.075 Z-12.2
X162.514 Z-12.185
X162.802 Z-12.199
X163.168 Z-12.222
X163.453 Z-12.243
X163.811 Z-12.308
X163.93 Z-12.321
X164.151 Z-12.359
X164.592 Z-12.493
X164.844 Z-12.61
X171.405 Z-12.612
X171.506 Z-12.498
X171.638 Z-12.374
X171.781 Z-12.267
X171.933 Z-12.177
X172.208 Z-12.05
X172.608 Z-11.889
X173.074 Z-11.732
X173.424 Z-11.63
X173.758 Z-11.54
X174.389 Z-11.427
X174.73 Z-11.384
X175.184 Z-11.359
X175.476
X176.232 Z-11.41
X176.561 Z-11.463
X176.838 Z-11.534
X177.018 Z-11.591
X177.194 Z-11.658
X177.44 Z-11.783
X177.638 Z-11.884
X177.83 Z-11.954
X178.103 Z-12.084
X178.32 Z-12.196
X178.514 Z-12.328
X178.707 Z-12.485
X178.827 Z-12.611
X184.755 Z-12.612
X184.788 Z-12.578
X184.958 Z-12.431
X185.251 Z-12.24
X185.731 Z-11.998
X186.134 Z-11.839
X186.572 Z-11.735
X186.827 Z-11.688
X187.119 Z-11.675
X187.407 Z-11.686
X187.583 Z-11.714
X187.636 Z-11.715
X187.872 Z-11.72
X188.058 Z-11.75
X188.512 Z-11.887
X188.864 Z-12.044
X189.166 Z-12.09
X189.393 Z-12.15
X189.415 Z-12.145
X189.633 Z-12.093
X189.827 Z-12.075
X189.982 Z-11.972
X190.141 Z-11.897
X190.389 Z-11.821
X190.609 Z-11.785
X190.95 Z-11.778
X191.181 Z-11.384
X191.445 Z-11.006
X191.728 Z-10.653
X191.971 Z-10.395
X192.166 Z-10.217
X192.512 Z-9.95
X192.917 Z-9.711
X192.944 Z-9.643
X193.029 Z-9.431
X193.151 Z-9.218
X193.217 Z-9.024
X193.313 Z-8.842
X193.424 Z-8.692
X193.551 Z-8.56
X193.691 Z-8.448
X193.841 Z-8.353
X194.001 Z-8.278
X194.166 Z-8.224
X194.42 Z-8.168
X194.724 Z-8.129
X195.01 Z-8.12
X195.254 Z-8.137
X195.63 Z-8.203
X195.795 Z-8.239
X195.886 Z-8.245
X196.27 Z-8.281
X196.57 Z-8.346
X196.94 Z-8.473
X197.335 Z-8.636
X197.585 Z-8.776
X197.852 Z-8.948
X198.043 Z-9.094
X198.245 Z-9.292
X198.4 Z-9.456
X198.532 Z-9.64
X199.204 Z-9.9
X200.003 Z-10.219
X200.252 Z-10.342
X200.347 Z-10.348
X200.536 Z-10.371
X201.257 Z-10.461
X202.914 Z-10.587
X203.867 Z-10.67
X204.606 Z-10.759
X204.985 Z-10.81
X205.767 Z-10.941
X206.281 Z-11.047
X206.653 Z-11.131
X207.022 Z-11.229
X207.205 Z-11.285
X207.75 Z-11.46
X208.108 Z-11.59
X208.372 Z-11.694
X208.804 Z-11.895
X209.114 Z-12.051
X209.162 Z-12.021
X209.406 Z-11.877
X209.568 Z-11.809
X209.819 Z-11.74
X210.074 Z-11.7
X210.269 Z-11.689
X210.554 Z-11.712
X210.812 Z-11.757
X211.157 Z-11.841
X211.374 Z-11.927
X211.625 Z-12.058
X211.86 Z-12.203
X211.929 Z-12.214
X212.256 Z-12.273
X212.621 Z-12.385
X212.979 Z-12.511
X213.241 Z-12.475
X213.581 Z-12.479
X214.054 Z-12.536
X214.324 Z-12.611
X218.746 Z-12.612
X218.812 Z-12.533
X218.939 Z-12.405
X219.079 Z-12.293
X219.229 Z-12.199
X219.387 Z-12.122
X219.551 Z-12.063
X219.72 Z-12.024
X219.929 Z-12.
X270.009 Z-11.999
X270.079 Z-11.982
X270.149 Z-11.966
X270.275 Y4.141
X270.149 Y4.267
X270.079 Z-11.982
X270.009 Z-11.999
X219.929 Z-12.
X219.72 Z-12.024
X219.551 Z-12.063
X219.387 Z-12.122
X219.229 Z-12.199
X219.079 Z-12.293
X218.939 Z-12.405
X218.83 Z-12.512
X214.649 Z-12.51
X214.49 Z-12.425
X214.316 Z-12.361
X213.991 Z-12.297
X213.298 Z-12.22
X213.033 Z-12.227
X213.008 Z-12.229
X212.674 Z-12.091
X212.287 Z-11.97
X211.935 Z-11.916
X211.376 Z-11.875
X211.288 Z-11.873
X210.853 Z-11.72
X210.588 Z-11.648
X210.402 Z-11.619
X210.114 Z-11.605
X209.821 Z-11.616
X209.566 Z-11.659
X209.317 Z-11.738
X209.099 Z-11.842
X208.794 Z-11.696
X208.312 Z-11.488
X207.641 Z-11.24
X207.049 Z-11.058
X206.326 Z-10.882
X205.716 Z-10.766
X205.057 Z-10.657
X204.698 Z-10.603
X203.768 Z-10.496
X202.625 Z-10.402
X201.349 Z-10.297
X200.419 Z-10.177
X200.325 Z-10.169
X200.154 Z-10.077
X199.985 Z-9.996
X199.292 Z-9.726
X198.378 Z-9.393
X198.068 Z-9.067
X197.944 Z-8.961
X197.828 Z-8.833
X197.691 Z-8.715
X197.538 Z-8.615
X197.125 Z-8.377
X196.869 Z-8.257
X196.668 Z-8.195
X196.319 Z-8.12
X196.13 Z-8.103
X195.635 Z-8.082
X195.486 Z-8.094
X195.207 Z-8.054
X194.874 Z-8.025
X194.631 Z-8.03
X194.243 Z-8.086
X194.101 Z-8.117
X193.81 Z-8.223
X193.62 Z-8.325
X193.475 Z-8.43
X193.343 Z-8.551
X193.222 Z-8.686
X193.114 Z-8.838
X193.024 Z-9.007
X192.953 Z-9.202
X192.923 Z-9.338
X192.804 Z-9.624
X192.434 Z-9.844
X192.293 Z-9.956
X191.85 Z-10.37
X191.624 Z-10.646
X191.42 Z-10.932
X191.228 Z-11.234
X191.04 Z-11.563
X190.879 Z-11.612
X190.49 Z-11.623
X190.235 Z-11.664
X190.067 Z-11.707
X189.904 Z-11.771
X189.749 Z-11.858
X189.652 Z-11.927
X189.484 Z-11.948
X189.255 Z-12.007
X189.201 Z-12.025
X189.017 Z-11.986
X188.831 Z-11.968
X188.584 Z-11.839
X188.365 Z-11.76
X188.043 Z-11.676
X187.855 Z-11.653
X187.695 Z-11.647
X187.519 Z-11.609
X187.33 Z-11.591
X187.04 Z-11.59
X186.739 Z-11.613
X186.431 Z-11.668
X186.181 Z-11.734
X186.099 Z-11.76
X185.935 Z-11.82
X185.775 Z-11.885
X185.29 Z-12.113
X184.918 Z-12.336
X184.776 Z-12.441
X184.694 Z-12.512
X179.076 Z-12.509
X178.92 Z-12.343
X178.751 Z-12.206
X178.543 Z-12.08
X178.267 Z-11.952
X178.019 Z-11.859
X177.768 Z-11.722
X177.431 Z-11.572
X176.984 Z-11.424
X176.537 Z-11.335
X176.363 Z-11.278
X176.177 Z-11.246
X175.712 Z-11.193
X175.344 Z-11.204
X174.83 Z-11.247
X174.154 Z-11.376
X173.736 Z-11.481
X173.143 Z-11.667
X173.061 Z-11.698
X172.628 Z-11.823
X172.408 Z-11.922
X172.169 Z-12.025
X171.748 Z-12.248
X171.602 Z-12.35
X171.425 Z-12.512
X165.265 Z-12.509
X165.119 Z-12.469
X164.99 Z-12.428
X164.674 Z-12.316
X164.398 Z-12.245
X163.93 Z-12.153
X163.402 Z-12.069
X163.115 Z-12.055
X162.889 Z-12.032
X162.651 Z-12.022
X162.386 Z-11.998
X161.985 Z-12.008
X161.772 Z-12.016
X161.515 Z-12.04
X161.235 Z-12.058
X160.556 Z-12.174
X160.18 Z-12.265
X159.618 Z-12.467
X159.52 Z-12.512
X34.903 Z-12.515
X34.407 Z-12.54
X33.97 Z-12.601
X33.781 Z-12.635
X33.26 Z-12.761
X32.771 Z-12.926
X32.599 Z-13.
X32.467 Z-12.997
X32.398 Z-12.981
X32.181
X32.055 Y4.393
X32.181 Y4.519
X32.25 Z-12.997
X32.251
X32.385 Z-13.
X32.678 Z-12.871
X32.859 Z-12.803
X33.203 Z-12.687
X33.37 Z-12.639
X33.808 Z-12.535
X34.38 Z-12.451
X34.89 Z-12.422
X159.221 Z-12.419
X159.308 Z-12.356
X159.442 Z-12.278
X159.623 Z-12.2
X160.034 Z-12.072
X160.308 Z-12.009
X161.312 Z-11.893
X161.622 Z-11.892
X161.796 Z-11.886
X162.36 Z-11.874
X162.588 Z-11.891
X163.149 Z-11.936
X163.606 Z-11.989
X163.959 Z-11.995
X164.278 Z-11.986
X164.48 Z-11.99
X165.187 Z-12.086
X165.371 Z-12.121
X165.818 Z-12.284
X166.124 Z-12.418
X171.489 Z-12.419
X171.599 Z-12.328
X171.746 Z-12.228
X172.134 Z-12.011
X172.351 Z-11.914
X172.528 Z-11.829
X172.851 Z-11.708
X173.726 Z-11.433
X174.325 Z-11.266
X174.661 Z-11.191
X175.213 Z-11.105
X175.622 Z-11.069
X176.16 Z-11.085
X176.592 Z-11.141
X176.913 Z-11.201
X177.241 Z-11.3
X177.514 Z-11.422
X177.902 Z-11.549
X178.269 Z-11.701
X178.573 Z-11.849
X178.776 Z-11.984
X179.001 Z-12.114
X179.187 Z-12.251
X179.351 Z-12.419
X184.648
X184.748 Z-12.346
X185.041 Z-12.167
X185.384 Z-11.978
X185.933 Z-11.732
X186.241 Z-11.632
X186.493 Z-11.569
X186.902 Z-11.519
X187.144 Z-11.506
X187.382 Z-11.52
X187.617 Z-11.55
X187.796 Z-11.594
X187.939 Z-11.601
X188.126 Z-11.627
X188.326 Z-11.68
X188.572 Z-11.768
X188.852 Z-11.911
X188.939 Z-11.925
X189.086 Z-11.872
X189.325 Z-11.813
X189.507 Z-11.791
X189.611 Z-11.723
X189.766 Z-11.639
X190.008 Z-11.541
X190.206 Z-11.493
X190.445 Z-11.463
X190.72 Z-11.459
X190.883 Z-11.4
X191.001 Z-11.353
X191.18 Z-11.282
X191.274 Z-11.098
X191.496 Z-10.728
X191.754 Z-10.362
X191.994 Z-10.103
X192.25 Z-9.866
X192.458 Z-9.699
X192.694 Z-9.552
X192.735 Z-9.451
X192.769 Z-9.241
X192.799 Z-9.119
X192.83 Z-9.029
X192.914 Z-8.849
X193.018 Z-8.691
X193.139 Z-8.552
X193.275 Z-8.433
X193.544 Z-8.243
X193.797 Z-8.113
X194.042 Z-8.022
X194.211 Z-7.983
X194.467 Z-7.953
X194.748 Z-7.936
X195.136 Z-7.97
X195.513 Z-7.926
X195.95 Z-7.925
X196.293 Z-7.956
X196.513 Z-8.003
X196.873 Z-8.117
X197.044 Z-8.191
X197.371 Z-8.382
X197.724 Z-8.616
X197.899 Z-8.763
X198.019 Z-8.895
X198.127 Z-9.047
X198.235 Z-9.179
X198.572 Z-9.278
X199.278 Z-9.511
X199.902 Z-9.747
X200.057 Z-9.813
X200.386 Z-9.984
X200.534 Z-9.996
X201.147 Z-10.091
X201.698 Z-10.157
X203.449 Z-10.305
X204.115 Z-10.372
X204.684 Z-10.439
X204.873 Z-10.466
X205.769 Z-10.609
X206.472 Z-10.749
X206.936 Z-10.861
X207.211 Z-10.937
X207.665 Z-11.08
X208.249 Z-11.287
X208.731 Z-11.494
X209.107 Z-11.663
X209.206 Z-11.62
X209.372 Z-11.568
X209.627 Z-11.523
X209.822 Z-11.509
X210.107 Z-11.525
X210.6 Z-11.612
X210.765 Z-11.584
X210.862 Z-11.579
X211.701 Z-11.595
X211.891 Z-11.614
X212.206 Z-11.683
X212.758 Z-11.867
X213.031 Z-11.99
X213.181 Z-11.989
X213.464 Z-12.022
X213.76 Z-12.083
X214.006 Z-12.13
X214.221 Z-12.179
X214.464 Z-12.248
X214.634 Z-12.323
X214.788 Z-12.418
X218.918 Z-12.419
X219.079 Z-12.293
X219.229 Z-12.199
X219.387 Z-12.122
X219.551 Z-12.063
X219.72 Z-12.024
X219.929 Z-12.
X270.009 Z-11.999
X270.079 Z-11.982
X270.149 Z-11.966
X270.275 Y4.645
X270.149 Y4.771
X270.079 Z-11.982
X270.009 Z-11.999
X219.929 Z-12.
X219.72 Z-12.024
X219.551 Z-12.063
X219.387 Z-12.122
X219.229 Z-12.199
X219.028 Z-12.331
X219.006 Z-12.336
X215.036
X214.776 Z-12.221
X214.563 Z-12.166
X214.507 Z-12.155
X214.343 Z-12.076
X214.074 Z-11.989
X213.374 Z-11.799
X213.188 Z-11.768
X212.964 Z-11.757
X212.301 Z-11.489
X212.201 Z-11.454
X212.062 Z-11.394
X211.892 Z-11.346
X211.613 Z-11.293
X211.234 Z-11.255
X211.039 Z-11.257
X210.868 Z-11.288
X210.801 Z-11.3
X210.402 Z-11.333
X210.126 Z-11.386
X209.977 Z-11.439
X209.691 Z-11.426
X209.508 Z-11.44
X209.338 Z-11.472
X209.174 Z-11.519
X208.829 Z-11.362
X208.478 Z-11.214
X207.945 Z-11.01
X207.584 Z-10.884
X207.403 Z-10.827
X206.758 Z-10.649
X205.788 Z-10.45
X204.69 Z-10.279
X204.026 Z-10.202
X203.265 Z-10.126
X201.78 Z-9.994
X200.912 Z-9.861
X200.554 Z-9.803
X200.448 Z-9.796
X200.363 Z-9.741
X200.149 Z-9.631
X199.909 Z-9.535
X199.55 Z-9.401
X199.208 Z-9.286
X198.771 Z-9.154
X198.515 Z-9.085
X198.269 Z-9.013
X198.15 Z-8.983
X198.045 Z-8.842
X197.879 Z-8.671
X197.545 Z-8.396
X197.332 Z-8.253
X196.998 Z-8.079
X196.65 Z-7.928
X196.472 Z-7.871
X196.141 Z-7.797
X195.863 Z-7.771
X195.48 Z-7.769
X195.005 Z-7.828
X194.755 Z-7.879
X194.525 Z-7.882
X194.172 Z-7.92
X193.888 Z-7.985
X193.653 Z-8.069
X193.408 Z-8.189
X193.257 Z-8.278
X193.113 Z-8.385
X192.982 Z-8.511
X192.866 Z-8.655
X192.757 Z-8.836
X192.687 Z-8.993
X192.617 Z-9.225
X192.576 Z-9.42
X192.565 Z-9.503
X192.321 Z-9.686
X192.091 Z-9.885
X191.851 Z-10.144
X191.739 Z-10.279
X191.483 Z-10.67
X191.366 Z-10.893
X191.306 Z-11.023
X191.119 Z-11.07
X190.927 Z-11.151
X190.578 Z-11.322
X190.273 Z-11.325
X190.017 Z-11.361
X189.808 Z-11.417
X189.685 Z-11.465
X189.529 Z-11.55
X189.379 Z-11.657
X189.105 Z-11.698
X188.938 Z-11.746
X188.775 Z-11.81
X188.522 Z-11.686
X188.345 Z-11.627
X188.16 Z-11.589
X187.966 Z-11.567
X187.791 Z-11.509
X187.606 Z-11.471
X187.368 Z-11.455
X187.027 Z-11.444
X186.765 Z-11.462
X186.491 Z-11.499
X186.145 Z-11.586
X185.85 Z-11.693
X185.33 Z-11.924
X185.035 Z-12.082
X184.622 Z-12.328
X184.601 Z-12.336
X179.595 Z-12.334
X179.435 Z-12.183
X179.341 Z-12.107
X179.227 Z-11.987
X179.086 Z-11.872
X178.932 Z-11.771
X178.554 Z-11.579
X178.335 Z-11.49
X178.149 Z-11.442
X177.683 Z-11.209
X177.508 Z-11.142
X177.173 Z-11.058
X176.988 Z-11.019
X176.787 Z-10.985
X176.407 Z-10.954
X176.019 Z-10.947
X175.732 Z-10.961
X175.136 Z-11.042
X174.691 Z-11.125
X174.201 Z-11.251
X173.846 Z-11.331
X173.431 Z-11.447
X173.208 Z-11.523
X173.016 Z-11.587
X172.613 Z-11.771
X172.39 Z-11.904
X172.098 Z-12.044
X171.786 Z-12.213
X171.598 Z-12.336
X166.691
X166.454 Z-12.205
X166.117 Z-12.058
X165.71 Z-11.923
X165.302 Z-11.847
X164.753 Z-11.778
X164.348 Z-11.753
X163.617 Z-11.777
X163.129 Z-11.786
X162.696 Z-11.817
X162.037 Z-11.778
X161.123 Z-11.797
X160.68 Z-11.826
X160.233 Z-11.872
X159.831 Z-11.945
X159.56 Z-12.022
X159.398 Z-12.09
X159.244 Z-12.179
X159.074 Z-12.313
X159.047 Z-12.336
X34.918 Z-12.338
X34.401 Z-12.365
X33.828 Z-12.445
X33.264 Z-12.578
X32.691 Z-12.773
X32.185 Z-12.999
X32.184 Z-13.
X32.049 Z-12.998
X31.985 Z-12.984
X31.822
X31.696 Y4.897
X31.822 Y5.023
X31.886 Z-12.998
X31.895 Z-13.002
X32.039 Z-13.
X32.246 Z-12.892
X32.721 Z-12.688
X33.229 Z-12.518
X33.415 Z-12.469
X33.769 Z-12.387
X33.958 Z-12.353
X34.405 Z-12.293
X34.912 Z-12.267
X158.946 Z-12.265
X159.021 Z-12.193
X159.161 Z-12.081
X159.31 Z-11.986
X159.469 Z-11.91
X159.635 Z-11.854
X159.888 Z-11.804
X160.082 Z-11.782
X160.468 Z-11.738
X161.327 Z-11.712
X162.159 Z-11.726
X162.868 Z-11.661
X163.419 Z-11.628
X163.773 Z-11.622
X163.873 Z-11.615
X164.312 Z-11.602
X164.622 Z-11.611
X165.049 Z-11.638
X165.312 Z-11.656
X165.759 Z-11.724
X166.273 Z-11.87
X166.817 Z-12.089
X167.138 Z-12.265
X171.755
X171.802 Z-12.227
X172.021 Z-12.053
X172.492 Z-11.741
X172.919 Z-11.52
X173.378 Z-11.348
X173.725 Z-11.24
X174.057 Z-11.149
X174.732 Z-11.016
X175.09 Z-10.957
X175.418 Z-10.923
X176.015 Z-10.847
X176.37 Z-10.821
X176.758 Z-10.818
X177.33 Z-10.883
X177.667 Z-10.969
X177.884 Z-11.05
X178.006 Z-11.096
X178.211 Z-11.18
X178.601 Z-11.41
X178.648 Z-11.426
X179.092 Z-11.612
X179.347 Z-11.755
X179.497 Z-11.862
X179.628 Z-11.983
X179.74 Z-12.118
X179.828 Z-12.263
X184.514 Z-12.265
X184.593 Z-12.24
X184.956 Z-12.04
X185.303 Z-11.865
X185.539 Z-11.757
X186.02 Z-11.567
X186.456 Z-11.442
X186.776 Z-11.399
X186.971 Z-11.386
X187.432 Z-11.412
X187.715 Z-11.448
X187.898 Z-11.493
X188.066 Z-11.553
X188.267 Z-11.583
X188.449 Z-11.631
X188.639 Z-11.706
X188.693 Z-11.686
X188.995 Z-11.588
X189.248 Z-11.541
X189.44 Z-11.419
X189.693 Z-11.286
X189.858 Z-11.228
X190.028 Z-11.192
X190.162 Z-11.178
X190.472 Z-11.185
X190.839 Z-10.971
X191.001 Z-10.899
X191.127 Z-10.861
X191.391 Z-10.813
X191.44 Z-10.707
X191.564 Z-10.481
X191.724 Z-10.233
X192.002 Z-9.887
X192.146 Z-9.746
X192.421 Z-9.51
X192.448 Z-9.309
X192.477 Z-9.19
X192.506 Z-9.1
X192.558 Z-8.975
X192.685 Z-8.738
X192.835 Z-8.535
X192.989 Z-8.373
X193.162 Z-8.232
X193.313 Z-8.139
X193.472 Z-8.064
X193.757 Z-7.961
X194.008 Z-7.897
X194.302 Z-7.852
X194.475 Z-7.794
X194.884 Z-7.696
X195.065 Z-7.668
X195.53 Z-7.641
X195.796 Z-7.644
X196.079 Z-7.675
X196.263 Z-7.72
X196.533 Z-7.81
X196.794 Z-7.916
X197.031 Z-8.044
X197.366 Z-8.219
X197.52 Z-8.324
X197.716 Z-8.486
X198.024 Z-8.799
X198.36 Z-8.87
X198.887 Z-8.992
X199.46 Z-9.152
X199.809 Z-9.271
X199.987 Z-9.34
X200.247 Z-9.448
X200.504 Z-9.596
X200.519 Z-9.597
X200.848 Z-9.646
X201.185 Z-9.715
X201.902 Z-9.829
X203.005 Z-9.939
X204.146 Z-10.054
X204.904 Z-10.155
X205.47 Z-10.243
X206.015 Z-10.341
X206.764 Z-10.494
X206.948 Z-10.54
X207.132 Z-10.591
X207.656 Z-10.739
X208.216 Z-10.951
X208.749 Z-11.162
X209.271 Z-11.399
X209.434 Z-11.374
X209.446 Z-11.364
X209.596 Z-11.26
X209.796 Z-11.17
X210.033 Z-11.098
X210.256 Z-11.066
X210.341 Z-11.027
X210.505 Z-10.962
X210.638 Z-10.932
X210.879 Z-10.917
X211.164 Z-10.938
X211.374 Z-10.975
X211.76 Z-11.092
X212.161 Z-11.235
X212.383 Z-11.338
X212.912 Z-11.565
X213.018 Z-11.569
X213.207 Z-11.585
X213.391 Z-11.625
X213.845 Z-11.772
X214.432 Z-12.008
X214.695 Z-12.07
X214.872 Z-12.129
X215.153 Z-12.265
X219.119
X219.229 Z-12.199
X219.387 Z-12.122
X219.551 Z-12.063
X219.72 Z-12.024
X219.929 Z-12.
X270.009 Z-11.999
X270.079 Z-11.982
X270.149 Z-11.966
X270.275 Y5.149
X270.149 Y5.275
X270.079 Z-11.982
X270.009 Z-11.999
X219.929 Z-12.
X219.72 Z-12.024
X219.551 Z-12.063
X219.387 Z-12.122
X219.225 Z-12.198
X215.241
X214.981 Z-12.072
X214.624 Z-11.942
X214.322 Z-11.861
X213.685 Z-11.575
X213.412 Z-11.468
X213.231 Z-11.415
X213.044 Z-11.386
X212.83 Z-11.374
X212.072 Z-11.033
X211.764 Z-10.892
X211.211 Z-10.709
X210.935 Z-10.645
X210.746 Z-10.629
X210.551 Z-10.631
X210.299 Z-10.664
X210.042 Z-10.729
X209.96 Z-10.757
X209.748 Z-10.865
X209.588 Z-10.909
X209.427 Z-10.982
X209.275 Z-11.069
X209.128 Z-11.177
X208.634 Z-10.954
X208.459 Z-10.878
X208.104 Z-10.744
X207.655 Z-10.584
X206.966 Z-10.391
X206.454 Z-10.275
X205.934 Z-10.174
X204.944 Z-10.006
X204.211 Z-9.908
X202.9 Z-9.761
X202.16 Z-9.68
X201.423 Z-9.564
X200.808 Z-9.428
X200.575 Z-9.394
X200.382 Z-9.283
X200.036 Z-9.132
X199.515 Z-8.946
X199.008 Z-8.816
X198.539 Z-8.726
X198.219 Z-8.681
X197.833 Z-8.609
X197.664 Z-8.439
X197.483 Z-8.291
X197.166 Z-8.093
X196.792 Z-7.886
X196.409 Z-7.701
X196.186 Z-7.627
X195.861 Z-7.56
X195.577 Z-7.538
X195.286 Z-7.537
X194.954 Z-7.567
X194.479 Z-7.663
X193.892 Z-7.84
X193.39 Z-8.039
X193.178 Z-8.149
X193.03 Z-8.243
X192.89 Z-8.356
X192.734 Z-8.521
X192.548 Z-8.777
X192.458 Z-8.946
X192.388 Z-9.133
X192.336 Z-9.367
X192.315 Z-9.506
X192.037 Z-9.767
X191.888 Z-9.951
X191.683 Z-10.232
X191.545 Z-10.473
X191.471 Z-10.634
X191.214 Z-10.672
X191.045 Z-10.709
X190.88 Z-10.766
X190.683 Z-10.867
X190.376 Z-11.05
X190.187 Z-11.042
X189.991 Z-11.06
X189.739 Z-11.122
X189.494 Z-11.212
X189.338 Z-11.295
X189.172 Z-11.414
X189.15 Z-11.432
X188.959 Z-11.463
X188.729 Z-11.533
X188.502 Z-11.624
X188.321 Z-11.575
X188.149 Z-11.546
X187.976 Z-11.482
X187.794 Z-11.434
X187.29 Z-11.355
X186.961 Z-11.335
X186.693 Z-11.357
X186.438 Z-11.398
X185.954 Z-11.537
X185.679 Z-11.638
X185.36 Z-11.768
X184.782 Z-12.037
X184.72 Z-12.056
X184.439 Z-12.113
X183.82 Z-12.198
X180.115 Z-12.196
X179.958 Z-11.974
X179.805 Z-11.809
X179.701 Z-11.722
X179.548 Z-11.625
X179.297 Z-11.505
X179.027 Z-11.4
X178.728 Z-11.171
X178.439 Z-11.018
X178.064 Z-10.875
X177.695 Z-10.787
X177.506 Z-10.757
X177.34 Z-10.723
X177.151 Z-10.706
X176.956 Z-10.71
X176.695 Z-10.699
X176.426 Z-10.721
X176.277 Z-10.734
X176.1 Z-10.75
X175.62 Z-10.756
X175.351 Z-10.785
X174.7 Z-10.889
X174.071 Z-11.052
X173.586 Z-11.194
X173.115 Z-11.376
X172.722 Z-11.552
X172.439 Z-11.716
X172.185 Z-11.88
X171.79 Z-12.186
X171.777 Z-12.198
X167.498
X167.254 Z-12.053
X166.906 Z-11.911
X166.295 Z-11.698
X165.737 Z-11.579
X165.358 Z-11.531
X165.168 Z-11.514
X164.783 Z-11.494
X164.413 Z-11.49
X163.609 Z-11.497
X162.973 Z-11.532
X162.802 Z-11.544
X161.643 Z-11.658
X161.501 Z-11.674
X160.816 Z-11.667
X160.335 Z-11.677
X159.946 Z-11.699
X159.712 Z-11.731
X159.543 Z-11.774
X159.38 Z-11.836
X159.224 Z-11.918
X159.041 Z-12.046
X158.876 Z-12.198
X34.89 Z-12.201
X34.355 Z-12.231
X33.802 Z-12.311
X33.237 Z-12.445
X32.708 Z-12.622
X32.176 Z-12.855
X31.907 Z-13.
X31.832 Z-13.019
X31.718
X31.696 Y5.277
X31.675 Y5.282
X31.655 Y5.292
X31.637 Y5.304
X31.621 Y5.32
X31.609 Y5.338
X31.6 Y5.358
X31.594 Y5.379
X31.592 Y5.401
X31.594 Y5.423
X31.6 Y5.444 Z-13.018
X31.609 Y5.464
X31.621 Y5.482
X31.637 Y5.497
X31.655 Y5.51
X31.675 Y5.519
X31.696 Y5.525
X31.718 Y5.527
X31.792 Z-13.
X32.236 Z-12.767
X32.775 Z-12.542
X33.193 Z-12.407
X33.361 Z-12.36
X33.884 Z-12.245
X34.395 Z-12.176
X34.913 Z-12.15
X158.849 Z-12.148
X158.989 Z-12.016
X159.131 Z-11.909
X159.284 Z-11.82
X159.444 Z-11.749
X159.61 Z-11.696
X159.78 Z-11.663
X160.049 Z-11.64
X161.012 Z-11.641
X161.211 Z-11.621
X161.636 Z-11.564
X162.082 Z-11.511
X162.718 Z-11.433
X162.95 Z-11.42
X163.4 Z-11.383
X164.262 Z-11.358
X164.846 Z-11.375
X165.324 Z-11.407
X165.608 Z-11.442
X165.959 Z-11.505
X166.541 Z-11.637
X167.148 Z-11.832
X167.397 Z-11.941
X167.784 Z-12.148
X171.811
X172.038 Z-11.967
X172.352 Z-11.738
X172.644 Z-11.551
X172.948 Z-11.388
X173.3 Z-11.228
X173.55 Z-11.126
X173.992 Z-10.999
X174.488 Z-10.858
X174.906 Z-10.752
X175.415 Z-10.671
X175.779 Z-10.633
X176.284 Z-10.612
X176.593 Z-10.632
X177.115 Z-10.604
X177.574 Z-10.631
X177.81 Z-10.662
X178.229 Z-10.751
X178.546 Z-10.85
X178.764 Z-10.936
X179.015 Z-11.067
X179.235 Z-11.214
X179.421 Z-11.386
X179.567 Z-11.445
X179.812 Z-11.576
X179.962 Z-11.68
X180.096 Z-11.798
X180.21 Z-11.93
X180.346 Z-12.148
X182.411
X183.705 Z-12.031
X184.426 Z-11.951
X184.803 Z-11.897
X184.984 Z-11.855
X185.327 Z-11.717
X185.83 Z-11.529
X186.34 Z-11.376
X186.7 Z-11.31
X186.929 Z-11.286
X187.192 Z-11.299
X187.465 Z-11.333
X187.689 Z-11.394
X187.877 Z-11.428
X188.104 Z-11.488
X188.268 Z-11.556
X188.33 Z-11.568
X188.427 Z-11.519
X188.587 Z-11.454
X188.835 Z-11.373
X189.088 Z-11.33
X189.205 Z-11.236
X189.354 Z-11.14
X189.513 Z-11.063
X189.678 Z-11.006
X189.867 Z-10.966
X190.101 Z-10.93
X190.29 Z-10.928
X190.506 Z-10.793
X190.66 Z-10.709
X190.902 Z-10.608
X191.07 Z-10.561
X191.282 Z-10.527
X191.528 Z-10.505
X191.586 Z-10.369
X191.699 Z-10.161
X191.918 Z-9.85
X192.225 Z-9.503
X192.254 Z-9.3
X192.303 Z-9.092
X192.372 Z-8.906
X192.461 Z-8.737
X192.567 Z-8.585
X192.705 Z-8.431
X192.793 Z-8.337
X192.92 Z-8.208
X193.097 Z-8.072
X193.411 Z-7.886
X193.617 Z-7.799
X194.231 Z-7.606
X194.523 Z-7.533
X194.778 Z-7.487
X195.134 Z-7.46
X195.472 Z-7.463
X195.85 Z-7.508
X196.081 Z-7.559
X196.349 Z-7.648
X196.52 Z-7.722
X196.748 Z-7.856
X196.899 Z-7.928
X197.124 Z-8.051
X197.391 Z-8.236
X197.601 Z-8.426
X197.801 Z-8.464
X198.617 Z-8.55
X198.99 Z-8.607
X199.274 Z-8.663
X199.64 Z-8.76
X200.173 Z-8.96
X200.302 Z-9.017
X200.616 Z-9.187
X200.723 Z-9.202
X201.05 Z-9.271
X201.568 Z-9.4
X202.105 Z-9.492
X202.685 Z-9.566
X203.234 Z-9.639
X204.089 Z-9.743
X204.94 Z-9.865
X205.864 Z-10.019
X206.428 Z-10.124
X207.079 Z-10.269
X207.859 Z-10.499
X208.575 Z-10.779
X208.941 Z-10.937
X209.009 Z-10.889
X209.316 Z-10.721
X209.774 Z-10.476
X209.939 Z-10.415
X210.12 Z-10.38
X210.218 Z-10.374
X210.406 Z-10.387
X210.514 Z-10.385
X210.727 Z-10.404
X211.052 Z-10.474
X211.321 Z-10.562
X211.872 Z-10.784
X212.766 Z-11.212
X212.824 Z-11.214
X213.048 Z-11.236
X213.347 Z-11.309
X213.544 Z-11.382
X214.224 Z-11.727
X214.454 Z-11.788
X214.991 Z-11.98
X215.33 Z-12.148
X219.325
X219.551 Z-12.063
X219.72 Z-12.024
X219.929 Z-12.
X270.009 Z-11.999
X270.079 Z-11.982
X270.149 Z-11.966
X270.275 Y5.653
X270.149 Y5.779
X270.079 Z-11.982
X270.009 Z-11.999
X219.929 Z-12.
X219.72 Z-12.024
X219.551 Z-12.063
X219.447 Z-12.098
X215.378 Z-12.096
X215.132 Z-11.966
X214.852 Z-11.84
X214.447 Z-11.685
X214.129 Z-11.605
X213.862 Z-11.449
X213.457 Z-11.257
X213.28 Z-11.189
X213.064 Z-11.133
X212.806 Z-11.103
X211.859 Z-10.648
X211.201 Z-10.368
X210.793 Z-10.244
X210.43 Z-10.162
X210.227 Z-10.146
X209.961 Z-10.16
X209.706 Z-10.205
X209.539 Z-10.251
X209.377 Z-10.319
X209.216 Z-10.422
X208.976 Z-10.596
X208.791 Z-10.722
X208.061 Z-10.433
X207.62 Z-10.285
X207.299 Z-10.194
X206.743 Z-10.055
X206.182 Z-9.94
X205.524 Z-9.821
X204.864 Z-9.713
X204.127 Z-9.607
X203.047 Z-9.464
X202.596 Z-9.391
X201.785 Z-9.26
X200.799 Z-9.012
X200.652 Z-8.992
X200.344 Z-8.821
X200.157 Z-8.739
X199.572 Z-8.521
X199.273 Z-8.452
X199.086 Z-8.416
X198.728 Z-8.368
X198.44 Z-8.35
X197.973 Z-8.335
X197.642 Z-8.302
X197.434 Z-8.28
X197.188 Z-8.082
X196.983 Z-7.955
X196.705 Z-7.826
X196.607 Z-7.784
X196.343 Z-7.651
X196.169 Z-7.579
X195.896 Z-7.503
X195.616 Z-7.447
X195.159 Z-7.406
X194.948 Z-7.403
X194.753 Z-7.401
X194.485 Z-7.433
X194.231 Z-7.479
X193.815 Z-7.603
X193.369 Z-7.779
X193.083 Z-7.921
X192.861 Z-8.063
X192.722 Z-8.178
X192.598 Z-8.312
X192.489 Z-8.465
X192.398 Z-8.635
X192.328 Z-8.826
X192.309 Z-8.89
X192.199 Z-9.184
X192.151 Z-9.397
X192.137 Z-9.521
X191.868 Z-9.871
X191.771 Z-10.024
X191.578 Z-10.412
X191.386 Z-10.404
X191.191 Z-10.418
X190.938 Z-10.472
X190.69 Z-10.554
X190.492 Z-10.648
X190.227 Z-10.82
X189.972 Z-10.836
X189.78 Z-10.86
X189.611 Z-10.901
X189.448 Z-10.963
X189.291 Z-11.043
X189.044 Z-11.216
X188.995 Z-11.251
X188.723 Z-11.295
X188.503 Z-11.364
X188.276 Z-11.47
X188.21 Z-11.505
X188.032 Z-11.445
X187.804 Z-11.394
X187.588 Z-11.315
X187.358 Z-11.266
X187.073 Z-11.248
X186.878 Z-11.254
X186.537 Z-11.305
X186.368 Z-11.336
X186.2 Z-11.374
X185.827 Z-11.483
X185.253 Z-11.678
X184.946 Z-11.735
X184.417 Z-11.8
X183.389 Z-11.89
X181.848 Z-12.024
X181.296 Z-12.079
X181.126 Z-12.098
X180.558 Z-12.096
X180.382 Z-11.882
X180.264 Z-11.737
X180.141 Z-11.617
X179.997 Z-11.506
X179.798 Z-11.393
X179.679 Z-11.265
X179.462 Z-11.094
X179.226 Z-10.944
X179.014 Z-10.85
X178.63 Z-10.709
X178.166 Z-10.608
X177.884 Z-10.565
X177.503 Z-10.539
X177.121 Z-10.543
X176.943 Z-10.548
X176.571 Z-10.518
X176.242 Z-10.515
X175.689 Z-10.557
X175.265 Z-10.617
X174.82 Z-10.68
X174.441 Z-10.763
X174.028 Z-10.873
X173.519 Z-11.048
X173.161 Z-11.201
X172.613 Z-11.504
X172.282 Z-11.724
X171.93 Z-12.01
X171.83 Z-12.098
X168.022
X167.551 Z-11.876
X167.13 Z-11.716
X166.492 Z-11.504
X166.124 Z-11.406
X165.561 Z-11.306
X164.846 Z-11.264
X164.291 Z-11.266
X163.792 Z-11.278
X163.527 Z-11.295
X163.276 Z-11.3
X162.837 Z-11.344
X162.39 Z-11.393
X161.037 Z-11.58
X160.782 Z-11.61
X160.62 Z-11.622
X160.036 Z-11.626
X159.777 Z-11.644
X159.607 Z-11.678
X159.441 Z-11.73
X159.28 Z-11.801
X159.127 Z-11.89
X158.984 Z-11.997
X158.872 Z-12.098
X34.877 Z-12.102
X34.36 Z-12.131
X33.79 Z-12.213
X33.239 Z-12.343
X32.841 Z-12.47
X32.678 Z-12.53
X32.256 Z-12.708
X31.719 Z-12.989
X31.702 Z-12.999
X31.622 Z-13.021
X31.548
X31.526 Y5.781
X31.505 Y5.786
X31.485 Y5.796
X31.467 Y5.808
X31.451 Y5.824
X31.439 Y5.842 Z-13.022
X31.43 Y5.862
X31.424 Y5.883
X31.422 Y5.905
X31.424 Y5.927
X31.43 Y5.948
X31.439 Y5.968 Z-13.023
X31.451 Y5.986
X31.467 Y6.001
X31.485 Y6.014
X31.505 Y6.023
X31.526 Y6.029
X31.548 Y6.031
X31.631 Z-13.
X31.724 Z-12.943
X32.244 Z-12.673
X32.785 Z-12.451
X33.222 Z-12.312
X33.409 Z-12.264
X33.744 Z-12.189
X33.934 Z-12.154
X34.379 Z-12.095
X34.915 Z-12.067
X158.91 Z-12.065
X159.024 Z-11.969
X159.17 Z-11.867
X159.326 Z-11.783
X159.488 Z-11.717
X159.656 Z-11.67
X159.826 Z-11.642
X160.057 Z-11.629
X160.383 Z-11.609
X161.077 Z-11.534
X161.233 Z-11.491
X162.113 Z-11.329
X162.397 Z-11.311
X162.785 Z-11.26
X163.235 Z-11.258
X163.652 Z-11.242
X163.986 Z-11.22
X164.408 Z-11.191
X164.846 Z-11.186
X165.411 Z-11.216
X165.709 Z-11.235
X166.486 Z-11.368
X166.668 Z-11.414
X167.253 Z-11.639
X167.505 Z-11.757
X167.887 Z-11.918
X168.203 Z-12.063
X171.85 Z-12.065
X171.882 Z-12.034
X172.067 Z-11.866
X172.401 Z-11.613
X172.607 Z-11.469
X173.15 Z-11.155
X173.484 Z-11.009
X174.122 Z-10.748
X174.354 Z-10.673
X174.611 Z-10.599
X175.182 Z-10.477
X175.759 Z-10.412
X176.534 Z-10.427
X176.914 Z-10.446
X177.339 Z-10.489
X177.738 Z-10.488
X178.109 Z-10.507
X178.572 Z-10.58
X179.015 Z-10.683
X179.193 Z-10.746
X179.534 Z-10.905
X179.69 Z-11.
X179.905 Z-11.176
X180.031 Z-11.306
X180.161 Z-11.475
X180.318 Z-11.602
X180.551 Z-11.814
X180.701 Z-11.98
X181.152 Z-11.919
X182.112 Z-11.829
X183.856 Z-11.707
X185.148 Z-11.585
X185.524 Z-11.519
X185.873 Z-11.423
X186.123 Z-11.356
X186.545 Z-11.271
X186.887 Z-11.234
X187.118 Z-11.223
X187.367 Z-11.241
X187.647 Z-11.293
X187.826 Z-11.35
X187.989 Z-11.42
X188.092 Z-11.449
X188.235 Z-11.37
X188.396 Z-11.301
X188.729 Z-11.206
X188.945 Z-11.171
X189.065 Z-11.073
X189.212 Z-10.974
X189.369 Z-10.893
X189.532 Z-10.831
X189.784 Z-10.769
X190.147 Z-10.733
X190.203 Z-10.696
X190.57 Z-10.484
X190.753 Z-10.411
X191.066 Z-10.324
X191.257 Z-10.3
X191.448
X191.635 Z-10.324
X191.663 Z-10.251
X191.773 Z-10.002
X191.911 Z-9.762
X192.077 Z-9.537
X192.105 Z-9.237
X192.176 Z-8.859
X192.249 Z-8.618
X192.343 Z-8.423
X192.447 Z-8.266
X192.568 Z-8.127
X192.703 Z-8.007
X192.85 Z-7.906
X193.161 Z-7.749
X193.794 Z-7.486
X194.086 Z-7.406
X194.34 Z-7.358
X194.707 Z-7.337
X194.987 Z-7.344
X195.402 Z-7.403
X195.628 Z-7.458
X195.79 Z-7.487
X196.074 Z-7.552
X196.433 Z-7.671
X196.628 Z-7.765
X196.756 Z-7.826
X196.998 Z-7.966
X197.222 Z-8.128
X197.393 Z-8.15
X197.807 Z-8.172
X198.449 Z-8.169
X198.81 Z-8.186
X199.118 Z-8.222
X199.397 Z-8.278
X199.714 Z-8.377
X200.276 Z-8.59
X200.48 Z-8.678
X200.718 Z-8.825
X200.95 Z-8.86
X201.952 Z-9.112
X202.893 Z-9.28
X203.154 Z-9.337
X203.723 Z-9.414
X204.578 Z-9.534
X206.118 Z-9.798
X206.726 Z-9.917
X207.511 Z-10.122
X208.054 Z-10.304
X208.63 Z-10.526
X208.736 Z-10.413
X208.865 Z-10.287
X208.976 Z-10.203
X209.169 Z-10.098
X209.332 Z-10.036
X209.585 Z-9.972
X209.768 Z-9.951
X209.892
X210.341 Z-9.994
X210.619 Z-10.05
X210.8 Z-10.108
X211.246 Z-10.269
X212.006 Z-10.619
X212.694 Z-10.951
X213.028 Z-11.036
X213.394 Z-11.128
X214.088 Z-11.433
X214.325 Z-11.575
X214.418 Z-11.602
X214.731 Z-11.714
X214.991 Z-11.822
X215.439 Z-12.065
X219.534
X219.72 Z-12.024
X219.929 Z-12.
X270.009 Z-11.999
X270.079 Z-11.982
X270.149 Z-11.966
X270.275 Y6.157
X270.149 Y6.283
X270.079 Z-11.982
X270.009 Z-11.999
X219.929 Z-12.
X219.72 Z-12.024
X219.635 Z-12.035
X215.458
X214.933 Z-11.754
X214.898 Z-11.739
X214.594 Z-11.516
X214.239 Z-11.279
X213.468 Z-10.911
X213.292 Z-10.846
X212.604 Z-10.655
X212.535 Z-10.637
X212.343 Z-10.582
X212.053 Z-10.521
X211.69 Z-10.378
X211.429 Z-10.258
X211.306 Z-10.206
X211.036 Z-10.091
X210.542 Z-9.923
X210.141 Z-9.817
X209.955 Z-9.786
X209.667 Z-9.778
X209.397 Z-9.796
X209.227 Z-9.826
X209.06 Z-9.88
X208.882 Z-9.968
X208.571 Z-10.181
X208.414 Z-10.319
X208.016 Z-10.172
X207.672 Z-10.058
X207.307 Z-9.947
X207.143 Z-9.904
X206.584 Z-9.774
X206.417 Z-9.738
X205.119 Z-9.507
X203.961 Z-9.306
X203.27 Z-9.212
X202.539 Z-9.054
X201.788 Z-8.908
X201.049 Z-8.707
X200.836 Z-8.663
X200.775 Z-8.653
X200.575 Z-8.535
X200.407 Z-8.457
X200.054 Z-8.311
X199.876 Z-8.247
X199.421 Z-8.103
X199.237 Z-8.061
X198.811 Z-8.011
X198.573 Z-7.997
X198.283
X197.894 Z-8.008
X197.551 Z-8.028
X197.273 Z-8.027
X196.997 Z-7.986
X196.708 Z-7.791
X196.353 Z-7.596
X196.147 Z-7.516
X195.909 Z-7.429
X195.726 Z-7.384
X195.259 Z-7.333
X195.037 Z-7.328
X194.745 Z-7.301
X194.454 Z-7.292
X194.174 Z-7.321
X193.827 Z-7.383
X193.466 Z-7.496
X192.874 Z-7.758
X192.685 Z-7.873
X192.546 Z-7.986
X192.42 Z-8.117
X192.31 Z-8.266
X192.162 Z-8.51
X192.083 Z-8.694
X192.027 Z-8.877
X191.983 Z-9.102
X191.968 Z-9.332
X191.966 Z-9.624
X191.85 Z-9.811
X191.769 Z-9.986
X191.669 Z-10.264
X191.435 Z-10.233
X191.292 Z-10.232
X191.097 Z-10.251
X190.843 Z-10.3
X190.594 Z-10.376
X190.434 Z-10.45
X190.136 Z-10.63
X190.092 Z-10.656
X189.837 Z-10.685
X189.583 Z-10.733
X189.416 Z-10.784
X189.255 Z-10.855
X189.102 Z-10.944
X188.899 Z-11.093
X188.647 Z-11.142
X188.397 Z-11.214
X188.236 Z-11.284
X188.034 Z-11.403
X187.857 Z-11.326
X187.685 Z-11.272
X187.406 Z-11.223
X187.217 Z-11.203
X186.929 Z-11.207
X186.66 Z-11.229
X186.489 Z-11.248
X186.192 Z-11.298
X185.816 Z-11.388
X185.63 Z-11.418
X184.746 Z-11.496
X183.975 Z-11.56
X182.142 Z-11.671
X181.438 Z-11.73
X181.268 Z-11.748
X181.077 Z-11.772
X180.78 Z-11.818
X180.601 Z-11.649
X180.497 Z-11.567
X180.399 Z-11.427
X180.151 Z-11.147
X179.977 Z-11.002
X179.722 Z-10.844
X179.468 Z-10.722
X179.048 Z-10.584
X178.646 Z-10.499
X178.311 Z-10.473
X178.053 Z-10.449
X177.974 Z-10.445
X177.704 Z-10.382
X177.231 Z-10.322
X176.655 Z-10.288
X175.924 Z-10.273
X175.485 Z-10.316
X175.11 Z-10.38
X174.837 Z-10.443
X174.579 Z-10.514
X174.106 Z-10.689
X173.616 Z-10.906
X173.192 Z-11.115
X172.808 Z-11.335
X172.465 Z-11.563
X172.1 Z-11.853
X171.902 Z-12.035
X168.356
X168.046 Z-11.894
X167.775 Z-11.75
X167.434 Z-11.581
X166.852 Z-11.376
X166.578 Z-11.299
X166.061 Z-11.213
X165.53 Z-11.163
X165.102 Z-11.149
X164.576 Z-10.996
X164.146 Z-10.919
X163.36 Z-10.865
X162.802 Z-10.871
X162.203 Z-10.93
X161.778 Z-10.995
X161.145 Z-11.113
X160.686 Z-11.216
X160.417 Z-11.303
X159.882 Z-11.516
X159.663 Z-11.643
X159.577 Z-11.7
X159.417 Z-11.754
X159.257 Z-11.828
X159.105 Z-11.919
X158.956 Z-12.035
X34.872 Z-12.039
X34.501 Z-12.056
X34.324 Z-12.072
X33.964 Z-12.12
X33.775 Z-12.152
X33.337 Z-12.25
X32.788 Z-12.42
X32.247 Z-12.642
X31.768 Z-12.889
X31.584 Z-13.
X31.502 Z-13.023
X31.461
X31.439 Y6.285
X31.418 Y6.29
X31.398 Y6.3
X31.38 Y6.312
X31.365 Y6.328
X31.352 Y6.346
X31.343 Y6.366
X31.337 Y6.387
X31.335 Y6.409
X31.337 Y6.431
X31.343 Y6.452
X31.352 Y6.472
X31.365 Y6.49
X31.38 Y6.505
X31.398 Y6.518
X31.418 Y6.527
X31.439 Y6.533
X31.461 Y6.535
X31.544 Z-13.
X31.747 Z-12.876
X32.137 Z-12.673
X32.313 Z-12.591
X32.648 Z-12.452
X32.831 Z-12.385
X33.177 Z-12.276
X33.364 Z-12.223
X33.803 Z-12.126
X34.375 Z-12.046
X34.887 Z-12.019
X158.942 Z-12.016
X159.006 Z-11.87
X159.087 Z-11.718
X159.145 Z-11.635
X159.271 Z-11.499
X159.414 Z-11.388
X159.57 Z-11.305
X160.148 Z-11.089
X160.917 Z-10.868
X161.721 Z-10.748
X161.974 Z-10.701
X163.002 Z-10.601
X163.391 Z-10.596
X164.106 Z-10.641
X164.485 Z-10.684
X164.858 Z-10.763
X165.41 Z-10.908
X165.945 Z-11.106
X166.111 Z-11.177
X166.239 Z-11.196
X166.64 Z-11.26
X166.963 Z-11.332
X167.577 Z-11.541
X167.936 Z-11.694
X168.301 Z-11.889
X168.497 Z-12.016
X171.983
X172.231 Z-11.782
X172.568 Z-11.51
X172.854 Z-11.311
X173.147 Z-11.127
X173.715 Z-10.827
X174.081 Z-10.65
X174.468 Z-10.481
X174.806 Z-10.368
X175.117 Z-10.288
X175.453 Z-10.213
X175.709 Z-10.18
X176.067 Z-10.158
X176.358 Z-10.165
X176.531 Z-10.174
X177.547 Z-10.206
X177.943 Z-10.268
X178.184 Z-10.311
X178.595 Z-10.436
X178.967 Z-10.498
X179.245 Z-10.558
X179.606 Z-10.674
X179.867 Z-10.783
X180.107 Z-10.921
X180.264 Z-11.038
X180.584 Z-11.345
X180.698 Z-11.482
X180.792 Z-11.622
X180.825 Z-11.663
X181.344 Z-11.584
X182.133 Z-11.519
X183.261 Z-11.473
X184.383 Z-11.406
X185.583 Z-11.33
X185.858 Z-11.306
X186.204 Z-11.258
X186.663 Z-11.199
X186.946 Z-11.182
X187.235 Z-11.181
X187.566 Z-11.22
X187.795 Z-11.274
X187.986 Z-11.348
X188.021 Z-11.326
X188.253 Z-11.198
X188.415 Z-11.133
X188.592 Z-11.084
X188.856 Z-11.04
X189.103 Z-10.867
X189.259 Z-10.784
X189.439 Z-10.713
X189.667 Z-10.639
X189.837 Z-10.608
X190.048 Z-10.597
X190.222 Z-10.482
X190.461 Z-10.348
X190.686 Z-10.262
X190.855 Z-10.221
X191.208 Z-10.184
X191.448 Z-10.191
X191.682 Z-10.23
X191.76 Z-9.957
X191.841 Z-9.762
X191.842 Z-9.207
X191.864 Z-9.003
X191.894 Z-8.866
X191.966 Z-8.622
X192.048 Z-8.445
X192.164 Z-8.251
X192.303 Z-8.066
X192.428 Z-7.938
X192.566 Z-7.823
X192.715 Z-7.726
X192.87 Z-7.647
X193.285 Z-7.473
X193.532 Z-7.384
X193.954 Z-7.302
X194.205 Z-7.282
X194.501 Z-7.273
X194.907 Z-7.235
X195.133 Z-7.234
X195.499 Z-7.274
X195.664 Z-7.313
X195.849 Z-7.354
X196.027 Z-7.412
X196.244 Z-7.517
X196.352 Z-7.566
X196.515 Z-7.653
X196.824 Z-7.871
X197.09 Z-7.9
X197.285
X197.922 Z-7.849
X198.369 Z-7.826
X198.681
X199.101 Z-7.879
X199.573 Z-7.98
X199.799 Z-8.047
X200.303 Z-8.232
X200.637 Z-8.373
X200.831 Z-8.494
X200.94 Z-8.514
X201.713 Z-8.721
X202.723 Z-8.944
X203.023 Z-9.016
X203.338 Z-9.092
X204.047 Z-9.199
X205.6 Z-9.475
X206.35 Z-9.618
X206.909 Z-9.742
X207.28 Z-9.833
X207.555 Z-9.912
X208.205 Z-10.129
X208.298 Z-10.038
X208.405 Z-9.955
X208.596 Z-9.845
X208.838 Z-9.747
X209.089 Z-9.679
X209.344 Z-9.638
X209.587 Z-9.629
X209.918 Z-9.665
X210.197 Z-9.718
X210.593 Z-9.844
X211.179 Z-10.081
X211.407 Z-10.121
X211.713 Z-10.209
X211.948 Z-10.256
X212.317 Z-10.35
X212.984 Z-10.548
X213.473 Z-10.728
X214.011 Z-10.994
X214.299 Z-11.155
X214.694 Z-11.421
X214.997 Z-11.65
X215.435 Z-12.015
X219.764 Z-12.016
X219.929 Z-12.
X270.009 Z-11.999
X270.079 Z-11.982
X270.149 Z-11.966
X270.275 Y6.661
X270.149 Y6.787
X270.079 Z-11.982
X270.009 Z-11.999
X219.929 Z-12.
X219.707 Z-12.006
X215.57
X215.311 Z-11.778
X215.162 Z-11.662
X214.961 Z-11.485
X214.224 Z-10.985
X213.977 Z-10.852
X213.498 Z-10.617
X213.106 Z-10.448
X212.702 Z-10.308
X212.079 Z-10.122
X211.731 Z-10.02
X210.842 Z-9.798
X210.655 Z-9.762
X210.506 Z-9.75
X210.07 Z-9.614
X209.699 Z-9.529
X209.475 Z-9.508
X209.134 Z-9.518
X208.877 Z-9.549
X208.624 Z-9.606
X208.46 Z-9.663
X208.301 Z-9.738
X208.151 Z-9.835
X208.006 Z-9.963
X207.556 Z-9.808
X206.888 Z-9.633
X206.165 Z-9.475
X204.849 Z-9.23
X204.116 Z-9.095
X203.381 Z-8.98
X203.087 Z-8.89
X202.869 Z-8.831
X201.789 Z-8.583
X201.172 Z-8.41
X200.999 Z-8.36
X200.859 Z-8.331
X200.708 Z-8.238
X200.54 Z-8.162
X200.002 Z-7.964
X199.65 Z-7.845
X199.388 Z-7.781
X198.895 Z-7.695
X198.635 Z-7.668
X198.247 Z-7.665
X197.933 Z-7.681
X197.214 Z-7.777
X197.012 Z-7.787
X196.711 Z-7.761
X196.625 Z-7.742
X196.251 Z-7.505
X196.085 Z-7.42
X195.865 Z-7.34
X195.661 Z-7.266
X195.477 Z-7.224
X195.195 Z-7.179
X194.907 Z-7.169
X194.489 Z-7.187
X194.042 Z-7.247
X194.02 Z-7.251
X193.805 Z-7.269
X193.571 Z-7.306
X193.403 Z-7.35
X193.28 Z-7.389
X192.994 Z-7.477
X192.737 Z-7.583
X192.583 Z-7.668
X192.399 Z-7.805
X192.235 Z-7.946
X192.112 Z-8.083
X192.005 Z-8.238
X191.9 Z-8.444
X191.813 Z-8.658
X191.78 Z-8.769
X191.738 Z-9.003
X191.716 Z-9.205
X191.715 Z-9.974
X191.667 Z-10.187
X191.653 Z-10.193
X191.469 Z-10.154
X191.28 Z-10.133
X191.088 Z-10.135
X190.875 Z-10.165
X190.642 Z-10.231
X190.341 Z-10.343
X190.107 Z-10.466
X190.007 Z-10.528
X189.796 Z-10.54
X189.625 Z-10.571
X189.458 Z-10.621
X189.297 Z-10.691
X189.037 Z-10.84
X188.85 Z-10.982
X188.572 Z-11.029
X188.405 Z-11.077
X188.085 Z-11.215
X187.937 Z-11.296
X187.646 Z-11.211
X187.365 Z-11.171
X187.127 Z-11.155
X186.666 Z-11.169
X186.233 Z-11.214
X184.724 Z-11.276
X183.606 Z-11.337
X181.981 Z-11.39
X181.266 Z-11.453
X180.97 Z-11.508
X180.808 Z-11.318
X180.64 Z-11.164
X180.398 Z-10.969
X180.163 Z-10.815
X179.955 Z-10.71
X179.692 Z-10.62
X179.423 Z-10.54
X179.163 Z-10.424
X178.639 Z-10.267
X178.104 Z-10.149
X177.796 Z-10.118
X177.438 Z-10.101
X176.864 Z-10.084
X176.233 Z-10.049
X175.723 Z-10.079
X175.515 Z-10.112
X174.982 Z-10.243
X174.646 Z-10.365
X174.193 Z-10.56
X173.581 Z-10.884
X173.174 Z-11.12
X172.866 Z-11.319
X172.442 Z-11.648
X172.169 Z-11.899
X172.061 Z-12.006
X168.689 Z-12.003
X168.367 Z-11.815
X167.91 Z-11.601
X167.852 Z-11.577
X167.591 Z-11.435
X167.246 Z-11.277
X166.335 Z-10.948
X166.112 Z-10.874
X165.813 Z-10.77
X165.374 Z-10.643
X165.002 Z-10.561
X164.341 Z-10.467
X163.603 Z-10.417
X162.999 Z-10.42
X162.231 Z-10.486
X161.275 Z-10.614
X160.642 Z-10.734
X159.736 Z-10.998
X159.417 Z-11.135
X159.264 Z-11.225
X159.122 Z-11.338
X158.995 Z-11.471
X158.886 Z-11.625
X158.797 Z-11.801
X158.731 Z-12.006
X34.891 Z-12.009
X34.364 Z-12.038
X33.939 Z-12.093
X33.75 Z-12.128
X33.396 Z-12.206
X33.228 Z-12.25
X32.8 Z-12.385
X32.278 Z-12.596
X31.915 Z-12.778
X31.632 Z-12.934
X31.529 Z-13.
X31.528
X31.443 Z-13.025
X31.434
X31.412 Y6.789
X31.391 Y6.794
X31.371 Y6.804
X31.353 Y6.816
X31.337 Y6.832
X31.325 Y6.85
X31.315 Y6.87 Z-13.024
X31.31 Y6.891
X31.308 Y6.913
X31.31 Y6.935
X31.315 Y6.956
X31.325 Y6.976
X31.337 Y6.994
X31.353 Y7.009
X31.371 Y7.022
X31.391 Y7.031
X31.412 Y7.037
X31.434 Y7.039
X31.517 Z-13.
X31.746 Z-12.859
X32.152 Z-12.647
X32.329 Z-12.567
X32.664 Z-12.429
X32.846 Z-12.363
X33.234 Z-12.241
X33.799 Z-12.11
X34.359 Z-12.031
X34.893 Z-12.002
X158.585 Z-11.999
X158.6 Z-11.939
X158.667 Z-11.742
X158.753 Z-11.568
X158.832 Z-11.448
X158.978 Z-11.274
X159.112 Z-11.152
X159.258 Z-11.049
X159.413 Z-10.965
X159.672 Z-10.858
X160.062 Z-10.735
X160.679 Z-10.575
X161.408 Z-10.456
X162.508 Z-10.328
X162.801 Z-10.308
X163.553 Z-10.283
X164.187 Z-10.311
X164.428 Z-10.34
X164.547 Z-10.346
X164.973 Z-10.4
X165.394 Z-10.48
X166.117 Z-10.653
X167.172 Z-10.96
X167.473 Z-11.065
X167.737 Z-11.172
X168.081 Z-11.331
X168.324 Z-11.47
X168.472 Z-11.579
X168.75 Z-11.828
X168.898 Z-11.996
X172.147 Z-11.999
X172.302 Z-11.838
X172.562 Z-11.611
X172.902 Z-11.337
X173.439 Z-10.977
X174.074 Z-10.621
X174.421 Z-10.432
X174.897 Z-10.224
X175.204 Z-10.125
X175.664 Z-10.016
X176.047 Z-9.959
X176.285 Z-9.941
X176.641 Z-9.953
X177.359 Z-10.036
X177.553 Z-10.03
X177.915 Z-10.041
X178.285 Z-10.078
X178.512 Z-10.116
X178.654 Z-10.134
X178.935 Z-10.186
X179.209 Z-10.252
X179.561 Z-10.393
X179.816 Z-10.518
X180.085 Z-10.68
X180.221 Z-10.745
X180.47 Z-10.878
X180.706 Z-11.03
X180.889 Z-11.169
X181.091 Z-11.365
X181.388 Z-11.325
X181.943 Z-11.27
X182.975 Z-11.238
X184.124 Z-11.204
X185.149 Z-11.162
X185.94 Z-11.148
X186.622 Z-11.136
X187.097 Z-11.132
X187.456 Z-11.151
X187.761 Z-11.197
X187.943 Z-11.246
X188.088 Z-11.164
X188.326 Z-11.054
X188.492 Z-11.
X188.828 Z-10.935
X189.005 Z-10.806
X189.211 Z-10.674
X189.37 Z-10.6
X189.534 Z-10.543
X189.787 Z-10.487
X189.977 Z-10.471
X190.073 Z-10.419
X190.282 Z-10.314
X190.65 Z-10.173
X190.819 Z-10.13
X190.99 Z-10.107
X191.185 Z-10.1
X191.374 Z-10.115
X191.56 Z-10.15
X191.591 Z-10.136
Z-9.216
X191.605 Z-8.986
X191.641 Z-8.769
X191.674 Z-8.657
X191.839 Z-8.258
X191.944 Z-8.073
X192.057 Z-7.925
X192.187 Z-7.796
X192.33 Z-7.687
X192.629 Z-7.505
X192.791 Z-7.435
X193.122 Z-7.332
X193.287 Z-7.298
X193.728 Z-7.206
X193.982 Z-7.155
X194.299 Z-7.122
X194.551 Z-7.124
X194.902 Z-7.134
X195.281 Z-7.172
X195.605 Z-7.246
X195.827 Z-7.32
X196.124 Z-7.464
X196.434 Z-7.636
X196.634 Z-7.664
X196.927 Z-7.673
X197.466 Z-7.612
X197.925 Z-7.539
X198.443 Z-7.514
X198.942 Z-7.55
X199.34 Z-7.624
X199.685 Z-7.714
X200.025 Z-7.825
X200.519 Z-8.003
X200.735 Z-8.092
X200.904 Z-8.192
X201.089 Z-8.23
X201.435 Z-8.336
X201.879 Z-8.458
X202.66 Z-8.639
X203.027 Z-8.739
X203.313 Z-8.843
X203.402 Z-8.862
X203.902 Z-8.943
X204.09 Z-8.977
X205.947 Z-9.34
X206.929 Z-9.54
X207.617 Z-9.739
X207.841 Z-9.811
X207.894 Z-9.77
X208.117 Z-9.627
X208.313 Z-9.531
X208.518 Z-9.458
X208.688 Z-9.423
X208.957 Z-9.403
X209.249 Z-9.406
X209.534 Z-9.429
X209.815 Z-9.475
X210.037 Z-9.547
X210.223 Z-9.543
X210.65 Z-9.583
X210.836 Z-9.617
X211.925 Z-9.944
X212.552 Z-10.168
X212.871 Z-10.262
X213.224 Z-10.407
X213.568 Z-10.571
X214.225 Z-10.91
X214.966 Z-11.408
X215.317 Z-11.698
X215.659 Z-11.999
X270.009
X270.079 Z-11.982
X270.149 Z-11.966
X270.275 Y7.165
X270.149 Y7.291
X270.079 Z-11.982
X270.009 Z-11.999
X216.527 Z-11.997
X216.224 Z-11.893
X215.951 Z-11.834
X215.739 Z-11.808
X215.574 Z-11.798
X215.518 Z-11.762
X215.245 Z-11.554
X215.09 Z-11.471
X214.786 Z-11.246
X214.31 Z-10.929
X214.15 Z-10.83
X213.903 Z-10.687
X213.514 Z-10.487
X212.8 Z-10.18
X212.283 Z-9.983
X211.147 Z-9.59
X210.781 Z-9.487
X210.325 Z-9.404
X210.027 Z-9.383
X209.533 Z-9.375
X209.157 Z-9.316
X208.968 Z-9.296
X208.777
X208.563 Z-9.326
X208.27 Z-9.402
X208.009 Z-9.501
X207.794 Z-9.619
X207.7 Z-9.679
X207.149 Z-9.519
X206.629 Z-9.391
X204.551 Z-8.973
X203.897 Z-8.832
X203.344 Z-8.75
X203.163 Z-8.667
X202.908 Z-8.583
X202.726 Z-8.532
X202. Z-8.36
X201.184 Z-8.122
X200.93 Z-8.071
X200.762 Z-7.971
X200.562 Z-7.887
X199.975 Z-7.676
X199.668 Z-7.584
X199.242 Z-7.473
X198.818 Z-7.413
X198.362 Z-7.388
X197.986 Z-7.407
X197.582 Z-7.46
X196.864 Z-7.561
X196.695 Z-7.569
X196.329 Z-7.544
X196.139 Z-7.514
X195.83 Z-7.36
X195.472 Z-7.238
X195.172 Z-7.171
X194.747 Z-7.108
X194.519 Z-7.074
X194.243 Z-7.06
X193.961 Z-7.069
X193.703 Z-7.107
X193.369 Z-7.19
X192.912 Z-7.285
X192.663 Z-7.361
X192.424 Z-7.468
X192.198 Z-7.605
X192.059 Z-7.719
X191.933 Z-7.853
X191.825 Z-8.005
X191.726 Z-8.196
X191.556 Z-8.586
X191.517 Z-8.709
X191.479 Z-8.916
X191.47 Z-9.086
X191.468 Z-10.093
X191.283 Z-10.062
X191.093 Z-10.053
X190.898 Z-10.068
X190.728 Z-10.1
X190.561 Z-10.151
X190.171 Z-10.315
X189.961 Z-10.425
X189.795 Z-10.444
X189.459 Z-10.526
X189.294 Z-10.583
X189.136 Z-10.66
X188.986 Z-10.754
X188.822 Z-10.886
X188.484 Z-10.959
X188.319 Z-11.012
X188.158 Z-11.083
X187.945 Z-11.201
X187.669 Z-11.143
X187.385 Z-11.112
X187.098 Z-11.098
X186.342 Z-11.081
X186.172 Z-11.071
X185.494 Z-11.064
X183.068 Z-11.128
X182.102 Z-11.153
X181.794 Z-11.173
X181.219 Z-11.255
X181.015 Z-11.088
X180.791 Z-10.94
X180.562 Z-10.763
X180.323 Z-10.612
X180.003 Z-10.423
X179.799 Z-10.334
X179.21 Z-10.131
X179.002 Z-10.085
X178.672 Z-10.036
X178.385 Z-10.021
X178.036 Z-9.999
X177.94 Z-9.988
X177.497 Z-9.915
X176.746 Z-9.85
X176.489 Z-9.851
X176.324 Z-9.867
X176.143 Z-9.873
X175.749 Z-9.939
X175.365 Z-10.042
X174.899 Z-10.211
X174.575 Z-10.357
X174.298 Z-10.506
X173.959 Z-10.712
X173.507 Z-10.984
X173.074 Z-11.288
X172.792 Z-11.507
X172.465 Z-11.795
X172.259 Z-11.999
X169.405
X169.275 Z-11.836
X169.154 Z-11.718
X168.806 Z-11.434
X168.651 Z-11.336
X168.358 Z-11.177
X167.992 Z-11.012
X167.533 Z-10.84
X166.915 Z-10.685
X166.637 Z-10.619
X166.45 Z-10.582
X166.145 Z-10.5
X165.535 Z-10.383
X164.798 Z-10.273
X164.418 Z-10.236
X163.633 Z-10.199
X163.06 Z-10.208
X161.868 Z-10.286
X161.145 Z-10.39
X160.637 Z-10.477
X160.196 Z-10.576
X159.794 Z-10.69
X159.506 Z-10.78
X159.297 Z-10.875
X159.147 Z-10.971
X159.009 Z-11.085
X158.884 Z-11.216
X158.772 Z-11.361
X158.651 Z-11.559
X158.554 Z-11.784
X158.495 Z-11.995
X34.901 Z-12.001
X34.39 Z-12.027
X33.817 Z-12.106
X33.378 Z-12.203
X33.191 Z-12.254
X32.845 Z-12.363
X32.663 Z-12.429
X32.328 Z-12.568
X32.151 Z-12.648
X31.744 Z-12.86
X31.517 Z-13.
X31.434 Z-13.024
X31.308 Y7.417
X31.434 Y7.543
X31.517 Z-13.
X31.744 Z-12.86
X32.151 Z-12.648
X32.328 Z-12.568
X32.663 Z-12.429
X32.845 Z-12.363
X33.191 Z-12.254
X33.378 Z-12.203
X33.796 Z-12.11
X34.369 Z-12.03
X34.874 Z-12.003
X158.447 Z-11.999
X158.51 Z-11.743
X158.577 Z-11.561
X158.66 Z-11.389
X158.761 Z-11.233
X158.878 Z-11.092
X159.008 Z-10.967
X159.151 Z-10.86
X159.304 Z-10.771
X159.464 Z-10.701
X159.63 Z-10.649
X159.942 Z-10.582
X160.231 Z-10.496
X160.816 Z-10.373
X161.346 Z-10.283
X161.899 Z-10.209
X162.16 Z-10.2
X162.503 Z-10.174
X163.151 Z-10.146
X164.188 Z-10.157
X165.156 Z-10.241
X166.006 Z-10.373
X166.541 Z-10.477
X166.908 Z-10.54
X167.541 Z-10.676
X168.088 Z-10.844
X168.4 Z-10.959
X168.692 Z-11.089
X169.134 Z-11.334
X169.499 Z-11.6
X169.667 Z-11.757
X169.863 Z-11.996
X172.398 Z-11.999
X172.508 Z-11.896
X172.771 Z-11.632
X173.15 Z-11.27
X173.509 Z-10.997
X173.826 Z-10.768
X174.142 Z-10.582
X174.252 Z-10.518
X174.45 Z-10.417
X174.866 Z-10.231
X175.266 Z-10.064
X175.511 Z-9.98
X175.927 Z-9.867
X176.352 Z-9.801
X176.699 Z-9.769
X177.089 Z-9.775
X177.724 Z-9.817
X178.378 Z-9.914
X178.747 Z-9.989
X179.126 Z-10.037
X179.406 Z-10.095
X179.763 Z-10.189
X180.024 Z-10.282
X180.194 Z-10.356
X180.752 Z-10.672
X180.897 Z-10.783
X181.086 Z-10.971
X181.328 Z-11.143
X181.407 Z-11.134
X181.92 Z-11.078
X182.49 Z-11.045
X185.412 Z-10.98
X185.996 Z-10.985
X186.558 Z-11.02
X187.177 Z-11.061
X187.632 Z-11.101
X187.939 Z-11.164
X188.185 Z-11.043
X188.397 Z-10.957
X188.583 Z-10.905
X188.818 Z-10.848
X188.91 Z-10.774
X189.055 Z-10.671
X189.209 Z-10.586
X189.37 Z-10.519
X189.618 Z-10.443
X189.788 Z-10.406
X189.956 Z-10.388
X190.325 Z-10.199
X190.548 Z-10.106
X190.716 Z-10.061
X190.888 Z-10.035
X191.17 Z-10.027
X191.358 Z-10.047
X191.359 Z-9.201
X191.366 Z-8.955
X191.396 Z-8.732
X191.457 Z-8.518
X191.584 Z-8.205
X191.694 Z-7.975
X191.809 Z-7.8
X191.93 Z-7.662
X192.065 Z-7.541
X192.212 Z-7.439
X192.368 Z-7.357
X192.639 Z-7.259
X193.112 Z-7.148
X193.553 Z-7.047
X193.814 Z-7.016
X194.1 Z-7.01
X194.385 Z-7.035
X194.749 Z-7.1
X195.002 Z-7.123
X195.188 Z-7.158
X195.577 Z-7.281
X195.872 Z-7.406
X195.91 Z-7.414
X196.403 Z-7.467
X196.719 Z-7.466
X197.03 Z-7.418
X197.728 Z-7.312
X197.899 Z-7.293
X198.165 Z-7.272
X198.412 Z-7.274
X198.747 Z-7.289
X199.124 Z-7.341
X199.446 Z-7.41
X199.935 Z-7.546
X200.116 Z-7.608
X200.594 Z-7.775
X200.811 Z-7.863
X200.965 Z-7.951
X201.039 Z-7.969
X201.279 Z-8.025
X201.895 Z-8.205
X202.867 Z-8.448
X203.12 Z-8.538
X203.36 Z-8.653
X203.929 Z-8.75
X204.47 Z-8.869
X205.93 Z-9.17
X206.678 Z-9.33
X207.123 Z-9.436
X207.578 Z-9.567
X207.781 Z-9.454
X208.044 Z-9.353
X208.317 Z-9.282
X208.636 Z-9.237
X208.917 Z-9.225
X209.104 Z-9.241
X209.236 Z-9.226
X209.431 Z-9.222
X209.912 Z-9.243
X210.182 Z-9.275
X210.372 Z-9.287
X210.556 Z-9.325
X210.728 Z-9.39
X211.168 Z-9.523
X212.326 Z-9.938
X212.722 Z-10.101
X213.631 Z-10.514
X213.942 Z-10.692
X214.111 Z-10.785
X214.316 Z-10.912
X214.338 Z-10.915
X214.61 Z-10.95
X214.792 Z-10.989
X215.055 Z-11.086
X215.217 Z-11.171
X215.505 Z-11.375
X215.696 Z-11.56
X215.845 Z-11.576
X216.076 Z-11.624
X216.425 Z-11.751
X216.668 Z-11.861
X216.885 Z-11.999
X270.009
X270.079 Z-11.982
X270.149 Z-11.966
X270.275 Y7.669
X270.149 Y7.795
X270.079 Z-11.982
X270.009 Z-11.999
X217.08 Z-11.995
X216.745 Z-11.746
X216.586 Z-11.648
X216.332 Z-11.533
X216.066 Z-11.428
X215.885 Z-11.377
X215.763 Z-11.35
X215.541 Z-11.141
X215.4 Z-11.036
X215.078 Z-10.845
X214.908 Z-10.766
X214.73 Z-10.714
X214.091 Z-10.61
X213.765 Z-10.583
X213.554 Z-10.469
X213.101 Z-10.247
X212.929 Z-10.165
X212.282 Z-9.891
X211.44 Z-9.578
X211.296 Z-9.471
X211.136 Z-9.381
X210.942 Z-9.298
X210.784 Z-9.215
X210.628 Z-9.156
X210.422 Z-9.108
X210.162 Z-9.075
X209.969 Z-9.071
X209.787 Z-9.093
X209.605 Z-9.108
X209.322 Z-9.088
X208.949 Z-9.111
X208.651 Z-9.163
X208.505 Z-9.192
X208.259 Z-9.214
X208.004 Z-9.26
X207.837 Z-9.312
X207.676 Z-9.384
X207.513 Z-9.481
X207.096 Z-9.358
X206.725 Z-9.271
X205.81 Z-9.072
X204.707 Z-8.838
X203.887 Z-8.655
X203.396 Z-8.575
X203.188 Z-8.466
X202.937 Z-8.365
X202.755 Z-8.315
X202.032 Z-8.135
X201.439 Z-7.961
X201.156 Z-7.876
X200.961 Z-7.835
X200.758 Z-7.729
X200.267 Z-7.553
X199.744 Z-7.389
X199.352 Z-7.291
X199.072 Z-7.235
X198.694 Z-7.183
X198.208 Z-7.16
X197.684 Z-7.196
X196.932 Z-7.319
X196.569 Z-7.38
X196.247 Z-7.376
X195.673 Z-7.312
X195.489 Z-7.238
X195.268 Z-7.145
X195.041 Z-7.081
X194.715 Z-7.023
X194.526 Z-7.003
X194.294
X194.046 Z-6.976
X193.734 Z-6.967
X193.454 Z-6.984
X193.166 Z-7.036
X192.7 Z-7.156
X192.513 Z-7.206
X192.349 Z-7.269
X192.193 Z-7.35
X192.045 Z-7.45
X191.861 Z-7.613
X191.721 Z-7.762
X191.588 Z-7.948
X191.477 Z-8.148
X191.386 Z-8.372
X191.315 Z-8.601
X191.278 Z-8.805
X191.26 Z-9.078
X191.259 Z-10.01
X191.07 Z-10.
X190.875 Z-10.014
X190.621 Z-10.067
X190.385 Z-10.152
X190.13 Z-10.266
X189.959 Z-10.356
X189.788 Z-10.374
X189.619 Z-10.41
X189.291 Z-10.526
X189.059 Z-10.647
X188.913 Z-10.749
X188.829 Z-10.815
X188.603 Z-10.867
X188.335 Z-10.952
X188.098 Z-11.064
X187.988 Z-11.123
X187.695 Z-11.067
X187.431 Z-11.029
X187.017 Z-10.989
X186.423 Z-10.931
X186.012 Z-10.903
X185.092 Z-10.899
X183.032 Z-10.939
X182.558 Z-10.958
X181.854 Z-11.017
X181.467 Z-11.06
X181.323 Z-10.967
X181.044 Z-10.724
X180.75 Z-10.513
X180.59 Z-10.417
X180.078 Z-10.195
X179.908 Z-10.142
X179.747 Z-10.104
X179.607 Z-10.069
X179.28 Z-9.944
X179.031 Z-9.873
X178.631 Z-9.811
X178.081 Z-9.746
X177.676 Z-9.722
X177.144 Z-9.708
X176.664 Z-9.725
X176.488 Z-9.747
X176.164 Z-9.808
X175.878 Z-9.866
X175.644 Z-9.94
X175.481 Z-9.968
X174.986 Z-10.121
X174.733 Z-10.235
X174.306 Z-10.446
X173.822 Z-10.749
X173.637 Z-10.888
X173.473 Z-11.029
X173.161 Z-11.294
X172.771 Z-11.699
X172.581 Z-11.903
X172.505 Z-11.999
X170.327
X170.139 Z-11.782
X169.944 Z-11.612
X169.636 Z-11.38
X169.366 Z-11.208
X168.917 Z-10.983
X168.656 Z-10.873
X168.292 Z-10.758
X168.037 Z-10.678
X167.667 Z-10.588
X167.125 Z-10.477
X166.578 Z-10.398
X166.435 Z-10.381
X165.765 Z-10.281
X165.073 Z-10.192
X164.453 Z-10.143
X164.068 Z-10.129
X163.434 Z-10.121
X162.561 Z-10.132
X161.875 Z-10.182
X161.15 Z-10.273
X160.811 Z-10.329
X160.122 Z-10.487
X159.874 Z-10.554
X159.602 Z-10.611
X159.436 Z-10.664
X159.276 Z-10.736
X159.124 Z-10.825
X158.981 Z-10.932
X158.85 Z-11.056
X158.733 Z-11.196
X158.631 Z-11.351
X158.546 Z-11.522
X158.479 Z-11.71
X158.434 Z-11.927
X158.425 Z-11.999
X34.927 Z-12.
X34.361 Z-12.031
X33.799 Z-12.11
X33.234 Z-12.241
X32.846 Z-12.363
X32.664 Z-12.429
X32.329 Z-12.567
X32.152 Z-12.647
X31.746 Z-12.859
X31.517 Z-13.
X31.434 Z-13.024
X31.308 Y7.921
X31.434 Y8.047
X31.517 Z-13.
X31.746 Z-12.859
X32.152 Z-12.647
X32.329 Z-12.567
X32.664 Z-12.429
X32.846 Z-12.363
X33.234 Z-12.241
X33.799 Z-12.11
X34.361 Z-12.031
X34.922 Z-12.001
X158.42 Z-11.999
X158.444 Z-11.839
X158.499 Z-11.633
X158.574 Z-11.451
X158.667 Z-11.285
X158.776 Z-11.136
X158.899 Z-11.002
X159.035 Z-10.884
X159.182 Z-10.784
X159.328 Z-10.706
X159.483 Z-10.598
X159.643 Z-10.522
X160.235 Z-10.339
X160.854 Z-10.155
X161.657 Z-9.999
X162.546 Z-9.909
X163.131 Z-9.906
X163.798 Z-9.959
X164.356 Z-10.031
X164.631 Z-10.063
X165.104 Z-10.132
X165.691 Z-10.24
X166.113 Z-10.289
X167.422 Z-10.452
X168.244 Z-10.621
X168.943 Z-10.83
X169.268 Z-10.968
X169.766 Z-11.205
X170.003 Z-11.336
X170.51 Z-11.7
X170.659 Z-11.84
X170.787 Z-11.998
X172.615 Z-11.999
X172.653 Z-11.95
X173.179 Z-11.34
X173.458 Z-11.064
X173.787 Z-10.778
X174.171 Z-10.515
X174.63 Z-10.251
X175.027 Z-10.086
X175.297 Z-9.987
X175.768 Z-9.86
X176.021 Z-9.804
X176.358 Z-9.771
X176.443 Z-9.751
X176.712 Z-9.713
X177.145 Z-9.671
X177.513 Z-9.652
X178.196 Z-9.664
X178.672 Z-9.697
X179.055 Z-9.742
X179.421 Z-9.827
X179.872 Z-9.972
X180.369 Z-10.215
X180.44 Z-10.248
X180.669 Z-10.35
X180.99 Z-10.524
X181.218 Z-10.683
X181.44 Z-10.878
X181.609 Z-10.995
X181.702 Z-10.978
X182.214 Z-10.917
X183.091 Z-10.86
X185.257 Z-10.812
X186.033 Z-10.823
X186.5 Z-10.852
X186.966 Z-10.897
X187.845 Z-11.026
X188.075 Z-11.072
X188.259 Z-10.977
X188.599 Z-10.855
X188.836 Z-10.797
X188.988 Z-10.681
X189.139 Z-10.588
X189.374 Z-10.475
X189.621 Z-10.389
X189.79 Z-10.352
X189.962 Z-10.335
X190.072 Z-10.274
X190.387 Z-10.132
X190.632 Z-10.041
X190.801 Z-10.002
X190.973 Z-9.983
X191.163
Z-9.018
X191.181 Z-8.762
X191.227 Z-8.531
X191.293 Z-8.298
X191.376 Z-8.11
X191.469 Z-7.95
X191.617 Z-7.72
X191.737 Z-7.581
X191.87 Z-7.459
X192.016 Z-7.356
X192.244 Z-7.223
X192.406 Z-7.155
X193.08 Z-6.968
X193.325 Z-6.93
X193.615 Z-6.922
X193.892 Z-6.944
X193.934 Z-6.942
X194.292 Z-6.937
X194.523 Z-6.934
X194.71 Z-6.956
X194.968 Z-7.021
X195.328 Z-7.147
X195.499 Z-7.23
X195.854 Z-7.27
X196.141 Z-7.295
X196.441 Z-7.29
X196.535 Z-7.283
X197.324 Z-7.143
X197.762 Z-7.086
X198.226 Z-7.067
X198.612 Z-7.086
X198.754 Z-7.098
X199.457 Z-7.228
X199.732 Z-7.305
X200.446 Z-7.52
X200.622 Z-7.583
X200.957 Z-7.749
X201.193 Z-7.789
X201.817 Z-7.978
X202.631 Z-8.187
X202.95 Z-8.273
X203.252 Z-8.404
X203.406 Z-8.495
X203.801 Z-8.566
X204.508 Z-8.72
X205.798 Z-8.999
X206.844 Z-9.228
X207.466 Z-9.406
X207.704 Z-9.298
X207.95 Z-9.21
X208.131 Z-9.169
X208.473 Z-9.06
X208.642 Z-9.024
X208.874 Z-9.008
X208.972 Z-9.004
X209.256 Z-9.003
X209.34 Z-8.982
X209.594 Z-8.932
X209.789 Z-8.917
X209.959 Z-8.925
X210.117 Z-8.929
X210.305 Z-8.952
X210.583 Z-9.019
X210.761 Z-9.076
X210.929 Z-9.153
X211.078 Z-9.246
X211.132 Z-9.272
X211.336 Z-9.382
X211.484 Z-9.489
X211.616 Z-9.611
X211.703 Z-9.645
X211.958 Z-9.661
X212.335 Z-9.701
X212.517 Z-9.748
X212.867 Z-9.888
X213.32 Z-10.151
X213.55 Z-10.314
X213.741 Z-10.337
X214.433 Z-10.432
X214.932 Z-10.571
X215.101 Z-10.646
X215.259 Z-10.742
X215.633 Z-11.024
X215.796 Z-11.186
X215.95 Z-11.23
X216.127 Z-11.296
X216.385 Z-11.42
X216.717 Z-11.596
X217.018 Z-11.814
X217.212 Z-11.999
X270.009
X270.079 Z-11.982
X270.149 Z-11.966
X270.275 Y8.173
X270.149 Y8.299
X270.079 Z-11.982
X270.009 Z-11.999
X217.425 Z-11.997
X217.107 Z-11.803
X216.786 Z-11.544
X216.365 Z-11.28
X216.07 Z-11.132
X215.829 Z-11.04
X215.634 Z-10.849
X215.345 Z-10.613
X215.19 Z-10.51
X215.024 Z-10.43
X214.802 Z-10.359
X214.571 Z-10.298
X214.364 Z-10.235
X213.943 Z-10.155
X213.519 Z-10.09
X213.066 Z-9.803
X212.858 Z-9.699
X212.481 Z-9.555
X212.206 Z-9.483
X211.782 Z-9.43
X211.468 Z-9.411
X211.317 Z-9.31
X211.183 Z-9.236
X211.04 Z-9.136
X210.877 Z-9.049
X210.614 Z-8.948
X210.433 Z-8.89
X210.249 Z-8.853
X210.131 Z-8.839
X209.879 Z-8.803
X209.698 Z-8.794
X209.473 Z-8.813
X209.177 Z-8.87
X208.983 Z-8.925
X208.772 Z-8.922
X208.515 Z-8.954
X208.178 Z-9.022
X207.93 Z-9.105
X207.611 Z-9.244
X207.458 Z-9.326
X207.433 Z-9.337
X206.753 Z-9.149
X205.795 Z-8.931
X204.45 Z-8.641
X203.77 Z-8.488
X203.415 Z-8.423
X203.217 Z-8.302
X203.003 Z-8.209
X202.685 Z-8.121
X201.871 Z-7.904
X201.247 Z-7.721
X201.019 Z-7.679
X200.978 Z-7.672
X200.631 Z-7.5
X200.364 Z-7.413
X199.684 Z-7.217
X199.36 Z-7.135
X198.922 Z-7.051
X198.64 Z-7.01
X198.111 Z-6.981
X197.685 Z-6.999
X197.265 Z-7.049
X196.397 Z-7.208
X196.274 Z-7.22
X195.857 Z-7.208
X195.301 Z-7.148
X195.009 Z-7.013
X194.785 Z-6.944
X194.41 Z-6.885
X194.126 Z-6.861
X193.888 Z-6.875
X193.683 Z-6.898
X193.497 Z-6.881
X193.306 Z-6.885
X192.954 Z-6.936
X192.576 Z-7.023
X192.252 Z-7.146
X192.056 Z-7.243
X191.907 Z-7.338
X191.767 Z-7.451
X191.64 Z-7.581
X191.476 Z-7.797
X191.294 Z-8.105
X191.217 Z-8.279
X191.134 Z-8.551
X191.089 Z-8.779
X191.078 Z-8.963
Z-9.969
X190.874 Z-9.983
X190.703 Z-10.015
X190.537 Z-10.065
X190.218 Z-10.201
X189.991 Z-10.313
X189.737 Z-10.345
X189.569 Z-10.387
X189.345 Z-10.474
X189.094 Z-10.603
X188.947 Z-10.701
X188.854 Z-10.775
X188.571 Z-10.852
X188.328 Z-10.947
X188.19 Z-11.01
X188.02 Z-10.972
X187.664 Z-10.907
X186.844 Z-10.787
X186.356 Z-10.747
X186.068 Z-10.734
X185.288 Z-10.725
X183.743 Z-10.762
X183.192 Z-10.788
X182.4 Z-10.856
X181.787 Z-10.939
X181.758 Z-10.943
X181.489 Z-10.743
X181.322 Z-10.605
X181.051 Z-10.439
X180.887 Z-10.314
X180.647 Z-10.173
X180.309 Z-9.999
X180.047 Z-9.893
X179.719 Z-9.788
X179.223 Z-9.677
X178.841 Z-9.634
X178.197 Z-9.598
X177.691 Z-9.606
X177.423 Z-9.623
X176.807 Z-9.69
X176.359 Z-9.726
X175.999 Z-9.779
X175.498 Z-9.904
X174.99 Z-10.074
X174.675 Z-10.217
X174.501 Z-10.303
X174.18 Z-10.477
X173.752 Z-10.777
X173.558 Z-10.959
X173.171 Z-11.37
X172.954 Z-11.65
X172.72 Z-11.999
X171.221 Z-11.997
X171.147 Z-11.91
X170.925 Z-11.692
X170.723 Z-11.525
X170.491 Z-11.367
X169.983 Z-11.115
X169.631 Z-10.975
X169.449 Z-10.91
X169.132 Z-10.784
X168.861 Z-10.699
X168.214 Z-10.533
X167.555 Z-10.427
X167.378 Z-10.401
X166.911 Z-10.248
X166.24 Z-10.063
X165.5 Z-9.928
X165.358 Z-9.918
X165.096 Z-9.863
X164.403 Z-9.796
X163.853 Z-9.733
X163.198 Z-9.682
X162.505 Z-9.699
X162.034 Z-9.736
X161.226 Z-9.849
X160.804 Z-9.937
X160.058 Z-10.112
X159.569 Z-10.272
X159.409 Z-10.351
X159.261 Z-10.451
X159.125 Z-10.569
X159.002 Z-10.707
X158.897 Z-10.867
X158.814 Z-11.051
X158.775 Z-11.17
X158.668 Z-11.32
X158.576 Z-11.487
X158.503 Z-11.671
X158.449 Z-11.88
X158.429 Z-11.999
X34.928 Z-12.
X34.361 Z-12.031
X33.799 Z-12.11
X33.234 Z-12.241
X32.846 Z-12.363
X32.664 Z-12.429
X32.329 Z-12.567
X32.152 Z-12.647
X31.746 Z-12.859
X31.517 Z-13.
X31.434 Z-13.024
X31.308 Y8.425
X31.434 Y8.551
X31.517 Z-13.
X31.744 Z-12.86
X32.151 Z-12.648
X32.328 Z-12.568
X32.663 Z-12.429
X32.845 Z-12.363
X33.191 Z-12.254
X33.378 Z-12.203
X33.796 Z-12.11
X34.369 Z-12.03
X34.88 Z-12.002
X158.453 Z-11.999
X158.465 Z-11.946
X158.538 Z-11.699
X158.553 Z-11.521
X158.602 Z-11.235
X158.657 Z-11.021
X158.734 Z-10.836
X158.877 Z-10.597
X158.989 Z-10.45
X159.119 Z-10.322
X159.262 Z-10.213
X159.416 Z-10.126
X159.587 Z-10.057
X160.028 Z-9.924
X160.95 Z-9.724
X161.374 Z-9.655
X162.076 Z-9.572
X162.516 Z-9.537
X163.095 Z-9.522
X163.904 Z-9.569
X165.026 Z-9.673
X165.48 Z-9.735
X166.006 Z-9.827
X166.474 Z-9.92
X167.261 Z-10.133
X167.845 Z-10.309
X168.584 Z-10.57
X169.114 Z-10.692
X169.762 Z-10.899
X169.921 Z-10.947
X170.191 Z-11.04
X170.448 Z-11.153
X170.818 Z-11.355
X171.165 Z-11.602
X171.301 Z-11.718
X171.423 Z-11.853
X171.53 Z-11.995
X172.805 Z-11.999
X172.828 Z-11.96
X173.109 Z-11.507
X173.244 Z-11.327
X173.549 Z-10.994
X173.707 Z-10.835
X174.014 Z-10.592
X174.228 Z-10.444
X174.564 Z-10.244
X175.075 Z-10.009
X175.584 Z-9.84
X175.959 Z-9.738
X176.402 Z-9.664
X176.871 Z-9.612
X177.389 Z-9.575
X178.189 Z-9.554
X178.714 Z-9.578
X179.089 Z-9.6
X179.396 Z-9.632
X180.027 Z-9.773
X180.387 Z-9.889
X180.797 Z-10.086
X181.045 Z-10.219
X181.271 Z-10.382
X181.481 Z-10.56
X181.597 Z-10.687
X181.906 Z-10.906
X181.998 Z-10.887
X182.692 Z-10.786
X183.085 Z-10.747
X183.117 Z-10.732
X183.382 Z-10.657
X183.435 Z-10.66
X183.501 Z-10.706
X183.778 Z-10.685
X184.242 Z-10.666
X185.401 Z-10.638
X186.414 Z-10.646
X186.957 Z-10.683
X187.458 Z-10.755
X187.907 Z-10.839
X188.342 Z-10.947
X188.365 Z-10.938
X188.608 Z-10.836
X188.874 Z-10.76
X188.949 Z-10.702
X189.131 Z-10.575
X189.297 Z-10.487
X189.528 Z-10.395
X189.697 Z-10.352
X190.019 Z-10.299
X190.085 Z-10.27
X190.417 Z-10.119
X190.661 Z-10.026
X190.83 Z-9.987
X191.001 Z-9.966
X191.011 Z-9.83
X191.017 Z-8.864
X191.047 Z-8.614
X191.093 Z-8.411
X191.158 Z-8.222
X191.238 Z-8.056
X191.379 Z-7.821
X191.604 Z-7.538
X191.732 Z-7.41
X191.908 Z-7.271
X192.108 Z-7.154
X192.435 Z-7.011
X192.599 Z-6.958
X192.851 Z-6.895
X193.023 Z-6.876
X193.401 Z-6.872
X193.657 Z-6.835
X193.95 Z-6.813
X194.213 Z-6.823
X194.494 Z-6.87
X194.859 Z-6.97
X195.113 Z-7.073
X195.68 Z-7.134
X196.035 Z-7.151
X196.224 Z-7.146
X197.146 Z-6.981
X197.486 Z-6.931
X197.679 Z-6.918
X198.047 Z-6.901
X198.238 Z-6.907
X198.429 Z-6.921
X198.619 Z-6.941
X198.808 Z-6.967
X199.371 Z-7.074
X200.09 Z-7.265
X200.502 Z-7.384
X200.721 Z-7.463
X200.987 Z-7.603
X201.089 Z-7.615
X201.273 Z-7.653
X201.967 Z-7.863
X202.829 Z-8.081
X203.054 Z-8.15
X203.222 Z-8.228
X203.335 Z-8.295
X203.421 Z-8.356
X203.504 Z-8.373
X203.879 Z-8.445
X204.772 Z-8.654
X205.856 Z-8.886
X206.601 Z-9.055
X207.311 Z-9.243
X207.473 Z-9.151
X207.633 Z-9.08
X207.855 Z-9.013
X208.004 Z-8.966
X208.235 Z-8.906
X208.406 Z-8.886
X208.597 Z-8.885
X208.657 Z-8.864
X208.903 Z-8.797
X209.243 Z-8.739
X209.592 Z-8.715
X209.819
X210.006 Z-8.74
X210.266 Z-8.806
X210.45 Z-8.849
X210.629 Z-8.909
X210.971 Z-9.064
X211.173 Z-9.193
X211.211 Z-9.219
X211.657 Z-9.237
X212.221 Z-9.326
X212.425 Z-9.384
X213.021 Z-9.618
X213.181 Z-9.708
X213.479 Z-9.915
X214.023 Z-10.006
X214.786 Z-10.212
X215.005 Z-10.291
X215.255 Z-10.421
X215.407 Z-10.523
X215.543 Z-10.635
X216.09 Z-10.965
X216.28 Z-11.128
X216.372 Z-11.18
X216.681 Z-11.397
X216.962 Z-11.624
X217.641 Z-11.998
X270.009 Z-11.999
X270.079 Z-11.982
X270.149 Z-11.966
X270.275 Y8.677
X270.149 Y8.803
X270.079 Z-11.982
X270.009 Z-11.999
X217.808 Z-11.998
X217.412 Z-11.771
X217.027 Z-11.579
X216.81 Z-11.317
X216.472 Z-11.01
X216.207 Z-10.781
X215.733 Z-10.477
X215.512 Z-10.375
X215.083 Z-10.221
X214.919 Z-10.152
X214.49 Z-10.009
X214.283 Z-9.957
X213.936 Z-9.848
X213.396 Z-9.74
X213.157 Z-9.583
X212.95 Z-9.479
X212.573 Z-9.318
X212.212 Z-9.205
X211.816 Z-9.123
X211.652 Z-9.095
X211.462 Z-9.081
X211.123 Z-9.063
X210.835 Z-9.004
X210.719 Z-8.945
X210.6 Z-8.894
X210.422 Z-8.837
X210.175 Z-8.742
X209.993 Z-8.697
X209.758 Z-8.672
X209.429 Z-8.653
X209.063 Z-8.664
X208.806 Z-8.697
X208.555 Z-8.763
X208.367 Z-8.828
X208.089 Z-8.865
X207.922 Z-8.882
X207.701 Z-8.936
X207.426 Z-9.039
X207.218 Z-9.148
X207.2 Z-9.157
X206.789 Z-9.048
X206.251 Z-8.916
X205.504 Z-8.755
X204.578 Z-8.551
X203.676 Z-8.344
X203.417 Z-8.296
X203.266 Z-8.198
X203.099 Z-8.117
X202.833 Z-8.022
X201.618 Z-7.695
X201.212 Z-7.578
X201.017 Z-7.544
X200.769 Z-7.417
X200.593 Z-7.355
X199.95 Z-7.169
X199.185 Z-6.984
X198.834 Z-6.918
X198.314 Z-6.844
X197.979 Z-6.83
X197.438 Z-6.858
X196.927 Z-6.928
X196.195 Z-7.07
X195.927 Z-7.084
X195.545 Z-7.064
X194.849 Z-6.996
X194.473 Z-6.857
X194.243 Z-6.805
X194.007 Z-6.787
X193.691 Z-6.776
X193.507 Z-6.79
X193.151 Z-6.848
X192.964 Z-6.854
X192.666 Z-6.897
X192.456 Z-6.955
X192.137 Z-7.091
X191.983 Z-7.177
X191.767 Z-7.329
X191.584 Z-7.495
X191.335 Z-7.777
X191.21 Z-7.971
X191.105 Z-8.173
X191.036 Z-8.359
X190.988 Z-8.572
X190.953 Z-8.877
X190.95 Z-9.551
X190.916 Z-9.762
X190.898 Z-9.99
X190.647 Z-10.041
X190.41 Z-10.124
X190.243 Z-10.2
X190.065 Z-10.287
X189.831 Z-10.32
X189.516 Z-10.397
X189.352 Z-10.457
X189.194 Z-10.536
X188.993 Z-10.671
X188.897 Z-10.747
X188.651 Z-10.825
X188.54 Z-10.864
X188.39 Z-10.819
X187.952 Z-10.714
X187.578 Z-10.631
X187.295 Z-10.593
X187.106 Z-10.571
X186.549 Z-10.542
X185.751 Z-10.538
X184.991 Z-10.56
X184.564 Z-10.571
X184.523 Z-10.46
X184.43 Z-10.316
X184.192 Z-9.996
X184.034 Z-9.842
X183.884 Z-9.748
X183.584 Z-9.62
X183.496 Z-9.591
X183.404 Z-9.573
X183.263 Z-9.569
X182.914 Z-9.612
X182.776 Z-9.652
X182.697 Z-9.694
X182.587 Z-9.787
X182.432 Z-9.985
X182.291 Z-10.193
X182.249 Z-10.278
X182.195 Z-10.441
X182.17 Z-10.578
X182.156 Z-10.768
X182.155 Z-10.862
X182.052 Z-10.878
X182.021 Z-10.849
X181.913 Z-10.73
X181.542 Z-10.399
X181.353 Z-10.263
X181.046 Z-10.072
X180.617 Z-9.872
X180.351 Z-9.781
X180.003 Z-9.684
X179.438 Z-9.596
X179.163 Z-9.565
X178.739 Z-9.495
X178.215 Z-9.458
X177.583 Z-9.48
X176.916 Z-9.544
X176.448 Z-9.608
X175.964 Z-9.698
X175.55 Z-9.821
X175.048 Z-10.01
X174.736 Z-10.162
X174.443 Z-10.324
X174.074 Z-10.573
X173.872 Z-10.745
X173.715 Z-10.895
X173.613 Z-10.988
X173.428 Z-11.199
X173.212 Z-11.48
X172.964 Z-11.892
X172.906 Z-11.999
X171.817 Z-11.996
X171.593 Z-11.743
X171.394 Z-11.57
X171.144 Z-11.396
X170.755 Z-11.172
X170.254 Z-10.949
X169.854 Z-10.835
X169.792 Z-10.821
X169.392 Z-10.643
X168.706 Z-10.387
X167.635 Z-10.07
X167.377 Z-10.003
X167.191 Z-9.957
X166.794 Z-9.849
X166.281 Z-9.741
X165.289 Z-9.571
X164.98 Z-9.546
X164.429 Z-9.487
X163.205 Z-9.402
X162.491 Z-9.415
X161.294 Z-9.523
X161.04 Z-9.574
X160.811 Z-9.623
X160.098 Z-9.771
X159.578 Z-9.901
X159.414 Z-9.964
X159.258 Z-10.048
X159.112 Z-10.152
X158.979 Z-10.272
X158.83 Z-10.442
X158.749 Z-10.559
X158.659 Z-10.728
X158.552 Z-11.016
X158.498 Z-11.25
X158.461 Z-11.611
X158.444 Z-11.999
X34.876 Z-12.002
X34.369 Z-12.03
X33.796 Z-12.11
X33.378 Z-12.203
X33.191 Z-12.254
X32.845 Z-12.363
X32.663 Z-12.429
X32.328 Z-12.568
X32.151 Z-12.648
X31.744 Z-12.86
X31.517 Z-13.
X31.434 Z-13.024
X31.308 Y8.929
X31.434 Y9.055
X31.517 Z-13.
X31.746 Z-12.859
X32.152 Z-12.647
X32.329 Z-12.567
X32.664 Z-12.429
X32.846 Z-12.363
X33.234 Z-12.241
X33.799 Z-12.11
X34.361 Z-12.031
X34.916 Z-12.001
X158.414 Z-11.999
Z-11.973
X158.43 Z-11.371
X158.471 Z-11.075
X158.521 Z-10.872
X158.588 Z-10.692
X158.694 Z-10.481
X158.825 Z-10.292
X158.948 Z-10.158
X159.085 Z-10.04
X159.233 Z-9.941
X159.39 Z-9.86
X159.554 Z-9.799
X159.991 Z-9.683
X161.254 Z-9.439
X161.682 Z-9.397
X162.473 Z-9.341
X163.058 Z-9.329
X163.545 Z-9.341
X164.595 Z-9.416
X165.319 Z-9.486
X166.241 Z-9.63
X166.802 Z-9.745
X167.245 Z-9.859
X168.136 Z-10.079
X168.95 Z-10.3
X169.312 Z-10.436
X169.67 Z-10.551
X170.23 Z-10.776
X170.469 Z-10.893
X170.892 Z-11.09
X171.28 Z-11.311
X171.549 Z-11.49
X171.838 Z-11.75
X172.051 Z-11.999
X173.035
X173.263 Z-11.584
X173.398 Z-11.374
X173.63 Z-11.079
X173.997 Z-10.708
X174.187 Z-10.555
X174.636 Z-10.253
X174.864 Z-10.127
X175.424 Z-9.875
X175.676 Z-9.782
X175.901 Z-9.71
X176.34 Z-9.6
X176.697 Z-9.536
X177.207 Z-9.456
X177.74 Z-9.417
X178.129 Z-9.403
X178.515 Z-9.404
X178.967 Z-9.445
X179.366 Z-9.514
X179.814 Z-9.616
X179.976 Z-9.638
X180.422 Z-9.732
X180.704 Z-9.816
X181.054 Z-9.962
X181.451 Z-10.167
X181.783 Z-10.381
X181.848 Z-10.144
X181.906 Z-9.981
X181.966 Z-9.871
X182.186 Z-9.564
X182.34 Z-9.394
X182.413 Z-9.333
X182.487 Z-9.283
X182.725 Z-9.17
X182.893 Z-9.124
X183.144 Z-9.089
X183.31 Z-9.085
X183.45 Z-9.107
X183.725 Z-9.18
X183.988 Z-9.288
X184.219 Z-9.407
X184.468 Z-9.577
X184.594 Z-9.689
X184.809 Z-9.943
X184.933 Z-10.124
X185.031 Z-10.303
X185.079 Z-10.461
X185.297 Z-10.443
X186.153 Z-10.417
X186.787 Z-10.418
X187.123 Z-10.428
X187.597 Z-10.483
X188.14 Z-10.589
X188.484 Z-10.676
X188.769 Z-10.781
X188.966 Z-10.72
X189.024 Z-10.684
X189.222 Z-10.554
X189.38 Z-10.477
X189.664 Z-10.368
X189.873 Z-10.314
X190.112 Z-10.281
X190.466 Z-10.115
X190.632 Z-10.062
X190.805 Z-10.026
X190.807 Z-9.909
X190.838 Z-9.651
X190.902 Z-9.377
X190.904 Z-8.884
X190.926 Z-8.596
X190.972 Z-8.377
X191.04 Z-8.185
X191.126 Z-8.014
X191.273 Z-7.779
X191.395 Z-7.63
X191.619 Z-7.407
X191.79 Z-7.266
X192.082 Z-7.072
X192.239 Z-6.992
X192.402 Z-6.931
X192.57 Z-6.888
X192.819 Z-6.851
X193.016 Z-6.796
X193.377 Z-6.738
X193.636 Z-6.728
X193.92 Z-6.753
X194.184 Z-6.81
X194.401 Z-6.852
X194.609 Z-6.922
X195.256 Z-6.984
X195.794 Z-7.016
X196.131 Z-6.995
X196.68 Z-6.893
X197.02 Z-6.837
X197.361 Z-6.795
X197.899 Z-6.767
X198.282 Z-6.787
X198.66 Z-6.843
X199.035 Z-6.908
X199.594 Z-7.037
X200.15 Z-7.178
X200.699 Z-7.334
X200.873 Z-7.402
X201.033 Z-7.487
X201.149 Z-7.511
X201.634 Z-7.651
X202.723 Z-7.938
X203.081 Z-8.062
X203.249 Z-8.142
X203.403 Z-8.237
X203.611 Z-8.276
X204.689 Z-8.529
X206.167 Z-8.846
X206.724 Z-8.977
X207.097 Z-9.076
X207.339 Z-8.964
X207.586 Z-8.878
X207.881 Z-8.815
X208.116 Z-8.791
X208.382 Z-8.701
X208.677 Z-8.637
X208.969 Z-8.599
X209.236 Z-8.598
X209.616 Z-8.633
X209.831 Z-8.673
X209.972 Z-8.694
X210.155 Z-8.737
X210.328 Z-8.799
X210.393 Z-8.808
X210.885 Z-8.908
X211.243 Z-8.934
X211.657 Z-8.982
X212.114 Z-9.078
X212.476 Z-9.193
X212.96 Z-9.389
X213.163 Z-9.492
X213.315 Z-9.594
X213.873 Z-9.721
X214.644 Z-9.973
X214.739 Z-9.984
X214.955 Z-10.022
X215.115 Z-10.074
X215.656 Z-10.258
X215.822 Z-10.338
X216.272 Z-10.622
X216.456 Z-10.76
X216.699 Z-10.98
X217.096 Z-11.388
X217.305 Z-11.648
X217.57 Z-11.789
X217.931 Z-11.999
X270.009
X270.079 Z-11.982
X270.149 Z-11.966
X270.275 Y9.181
X270.149 Y9.307
X270.079 Z-11.982
X270.009 Z-11.999
X218.007
X217.528 Z-11.725
X217.208 Z-11.323
X216.689 Z-10.769
X216.553 Z-10.651
X216.163 Z-10.388
X215.746 Z-10.17
X215.536 Z-10.096
X215.045 Z-9.929
X214.862 Z-9.885
X214.637 Z-9.864
X214.394 Z-9.82
X214.147 Z-9.734
X213.882 Z-9.625
X213.678 Z-9.57
X213.35 Z-9.503
X213.223 Z-9.471
X212.872 Z-9.29
X212.526 Z-9.134
X211.984 Z-8.959
X211.801 Z-8.907
X211.615 Z-8.875
X211.019 Z-8.797
X210.634 Z-8.775
X210.271 Z-8.693
X209.87 Z-8.644
X209.548 Z-8.618
X209.266 Z-8.572
X208.976 Z-8.562
X208.695 Z-8.574
X208.439 Z-8.605
X208.186 Z-8.66
X208.02 Z-8.71
X207.897 Z-8.758
X207.729 Z-8.777
X207.493 Z-8.836
X207.13 Z-8.956
X207.02 Z-9.003
X206.297 Z-8.824
X205.456 Z-8.647
X204.559 Z-8.452
X203.685 Z-8.249
X203.363 Z-8.185
X203.124 Z-8.049
X202.866 Z-7.939
X202.505 Z-7.83
X201.658 Z-7.613
X201.177 Z-7.474
X201.018 Z-7.44
X200.812 Z-7.339
X200.592 Z-7.256
X199.947 Z-7.086
X198.972 Z-6.852
X198.266 Z-6.735
X197.979 Z-6.72
X197.589 Z-6.721
X197.147 Z-6.752
X196.679 Z-6.818
X196.111 Z-6.92
X195.923 Z-6.941
X195.697 Z-6.948
X195.135 Z-6.917
X194.381 Z-6.854
X194.285 Z-6.848
X194.016 Z-6.756
X193.785 Z-6.705
X193.549 Z-6.686
X193.183 Z-6.705
X192.993 Z-6.735
X192.661 Z-6.83
X192.541 Z-6.873
X192.38 Z-6.916
X192.178 Z-6.997
X191.911 Z-7.146
X191.694 Z-7.294
X191.42 Z-7.548
X191.315 Z-7.663
X191.108 Z-7.956
X191.018 Z-8.118
X190.944 Z-8.299
X190.89 Z-8.502
X190.863 Z-8.732
X190.853 Z-9.233
X190.771 Z-9.527
X190.746 Z-9.668
X190.73 Z-9.884
X190.728 Z-10.076
X190.397 Z-10.188
X190.196 Z-10.274
X189.792 Z-10.354
X189.576 Z-10.43
X189.31 Z-10.548
X189.098 Z-10.673
X189.063 Z-10.684
X188.566 Z-10.505
X188.084 Z-10.387
X187.708 Z-10.322
X187.519 Z-10.301
X187.137 Z-10.272
X185.987 Z-10.273
X185.546 Z-10.305
X185.491 Z-10.308
X185.341 Z-10.001
X185.188 Z-9.79
X185.072 Z-9.649
X184.738 Z-9.336
X184.609 Z-9.227
X184.382 Z-9.089
X184.132 Z-8.954
X183.871 Z-8.847
X183.693 Z-8.796
X183.505 Z-8.764
X183.281 Z-8.735
X183.078 Z-8.736
X182.848 Z-8.761
X182.679 Z-8.8
X182.469 Z-8.877
X182.356 Z-8.934
X182.208 Z-9.037
X182.064 Z-9.177
X181.902 Z-9.37
X181.85 Z-9.445
X181.76 Z-9.62
X181.641 Z-9.916
X181.583 Z-10.102
X181.227 Z-9.933
X180.801 Z-9.777
X180.349 Z-9.666
X180.09 Z-9.606
X179.586 Z-9.465
X179.008 Z-9.371
X178.663 Z-9.345
X177.983 Z-9.356
X177.516 Z-9.389
X177.191 Z-9.393
X176.951 Z-9.408
X176.294 Z-9.496
X176.083 Z-9.549
X175.837 Z-9.627
X175.407 Z-9.799
X175.108 Z-9.95
X174.838 Z-10.114
X174.371 Z-10.484
X174.072 Z-10.742
X173.757 Z-11.063
X173.582 Z-11.287
X173.48 Z-11.419
X173.376 Z-11.587
X173.241 Z-11.852
X173.176 Z-11.999
X172.519
X172.303 Z-11.774
X172.097 Z-11.577
X171.816 Z-11.348
X171.581 Z-11.211
X170.97 Z-10.89
X170.327 Z-10.628
X169.621 Z-10.397
X169.413 Z-10.343
X169.184 Z-10.258
X168.864 Z-10.167
X168.549 Z-10.092
X167.743 Z-9.895
X166.512 Z-9.623
X166.082 Z-9.482
X165.287 Z-9.336
X164.814 Z-9.275
X164.24 Z-9.241
X163.277 Z-9.25
X161.895 Z-9.322
X161.169 Z-9.407
X160.027 Z-9.607
X159.568 Z-9.72
X159.404 Z-9.778
X159.246 Z-9.856
X159.06 Z-9.978
X158.891 Z-10.128
X158.771 Z-10.265
X158.642 Z-10.455
X158.575 Z-10.585
X158.503 Z-10.771
X158.451 Z-10.981
X158.417 Z-11.261
X158.412 Z-11.999
X34.912 Z-12.001
X34.361 Z-12.031
X33.799 Z-12.11
X33.234 Z-12.241
X32.846 Z-12.363
X32.664 Z-12.429
X32.329 Z-12.567
X32.152 Z-12.647
X31.746 Z-12.859
X31.517 Z-13.
X31.434 Z-13.024
X31.308 Y9.433
X31.434 Y9.558
X31.517 Z-13.
X31.746 Z-12.859
X32.152 Z-12.647
X32.329 Z-12.567
X32.664 Z-12.429
X32.846 Z-12.363
X33.234 Z-12.241
X33.799 Z-12.11
X34.361 Z-12.031
X34.914 Z-12.001
X158.412 Z-11.999
X158.413 Z-11.231
X158.427 Z-11.015
X158.456 Z-10.854
X158.515 Z-10.654
X158.594 Z-10.475
X158.69 Z-10.313
X158.802 Z-10.166
X158.929 Z-10.036
X159.068 Z-9.922
X159.217 Z-9.826
X159.375 Z-9.747
X159.539 Z-9.687
X159.81 Z-9.625
X160.404 Z-9.473
X161.326 Z-9.278
X161.963 Z-9.184
X162.475 Z-9.123
X163.254 Z-9.079
X163.731 Z-9.067
X164.218 Z-9.079
X165.013 Z-9.123
X165.609 Z-9.203
X166.076 Z-9.287
X166.424 Z-9.393
X166.558 Z-9.427
X166.974 Z-9.558
X167.174 Z-9.64
X167.68 Z-9.83
X168.021 Z-9.906
X168.273 Z-9.965
X169.096 Z-10.158
X169.701 Z-10.313
X170.397 Z-10.514
X170.755 Z-10.64
X171.349 Z-10.883
X171.845 Z-11.127
X172.158 Z-11.337
X172.432 Z-11.556
X172.78 Z-11.855
X172.908 Z-11.998
X173.322 Z-11.999
X173.396 Z-11.806
X173.498 Z-11.602
X173.663 Z-11.343
X173.789 Z-11.171
X173.938 Z-10.975
X174.121 Z-10.766
X174.356 Z-10.508
X174.627 Z-10.266
X174.899 Z-10.047
X175.187 Z-9.853
X175.415 Z-9.723
X175.753 Z-9.585
X176.007 Z-9.489
X176.265 Z-9.418
X176.601 Z-9.343
X176.99 Z-9.284
X177.388 Z-9.26
X177.879 Z-9.263
X178.022 Z-9.281
X178.239 Z-9.305
X178.552 Z-9.297
X179.037 Z-9.301
X179.493 Z-9.345
X179.764 Z-9.389
X180.254 Z-9.52
X180.717 Z-9.702
X180.954 Z-9.761
X181.404 Z-9.914
X181.451 Z-9.736
X181.535 Z-9.513
X181.697 Z-9.193
X181.804 Z-9.032
X181.928 Z-8.897
X182.128 Z-8.718
X182.28 Z-8.624
X182.439 Z-8.553
X182.603 Z-8.491
X182.772 Z-8.456
X183.053 Z-8.435
X183.388 Z-8.45
X183.622 Z-8.495
X183.895 Z-8.564
X184.288 Z-8.726
X184.664 Z-8.932
X184.819 Z-9.027
X185.168 Z-9.308
X185.42 Z-9.582
X185.582 Z-9.792
X185.751 Z-10.103
X185.756 Z-10.104
X186.181 Z-10.063
X186.374 Z-10.055
X187.219 Z-10.096
X187.601 Z-10.123
X187.98 Z-10.167
X188.308 Z-10.227
X188.654 Z-10.309
X189.094 Z-10.455
X189.348 Z-10.568
X189.617 Z-10.445
X189.897 Z-10.356
X190.263 Z-10.282
X190.655 Z-10.136
X190.657 Z-9.817
X190.678 Z-9.594
X190.74 Z-9.319
X190.814 Z-9.088
X190.817 Z-8.754
X190.841 Z-8.531
X190.868 Z-8.41
X190.931 Z-8.219
X191.013 Z-8.046
X191.205 Z-7.74
X191.32 Z-7.598
X191.449 Z-7.472
X191.689 Z-7.278
X191.882 Z-7.148
X192.296 Z-6.93
X192.574 Z-6.807
X192.862 Z-6.713
X193.117 Z-6.66
X193.299 Z-6.647
X193.48 Z-6.655
X193.893 Z-6.723
X194.111 Z-6.79
X194.368 Z-6.801
X195.283 Z-6.864
X195.726 Z-6.88
X196.011 Z-6.858
X196.737 Z-6.742
X197.416 Z-6.672
X197.916 Z-6.671
X198.225 Z-6.696
X198.685 Z-6.769
X199.164 Z-6.867
X200.353 Z-7.154
X200.625 Z-7.231
X200.827 Z-7.315
X201.002 Z-7.403
X201.091 Z-7.422
X201.61 Z-7.562
X202.561 Z-7.803
X202.91 Z-7.916
X203.07 Z-7.989
X203.318 Z-8.133
X203.643 Z-8.198
X204.723 Z-8.447
X205.789 Z-8.669
X206.349 Z-8.791
X206.971 Z-8.941
X207.017 Z-8.922
X207.227 Z-8.842
X207.616 Z-8.753
X207.869 Z-8.675
X208.054 Z-8.618
X208.286 Z-8.563
X208.455 Z-8.546
X208.723 Z-8.498
X209.087 Z-8.466
X209.279 Z-8.464
X209.635 Z-8.503
X210.128 Z-8.584
X210.418 Z-8.656
X210.758 Z-8.677
X211.02 Z-8.698
X211.42 Z-8.761
X211.793 Z-8.836
X212.137 Z-8.947
X212.58 Z-9.117
X213.022 Z-9.326
X213.125 Z-9.36
X213.523 Z-9.466
X213.846 Z-9.545
X214.022 Z-9.609
X214.18 Z-9.689
X214.232 Z-9.707
X214.738 Z-9.791
X215.041 Z-9.855
X215.618 Z-10.016
X215.834 Z-10.099
X216.25 Z-10.325
X216.483 Z-10.487
X216.705 Z-10.656
X216.876 Z-10.818
X217.133 Z-11.083
X217.458 Z-11.492
X217.684 Z-11.794
X218.025 Z-11.999
X270.009
X270.079 Z-11.982
X270.149 Z-11.966
X270.275 Y9.684
X270.149 Y9.81
X270.079 Z-11.982
X270.009 Z-11.999
X218.605 Z-11.998
X218.233 Z-11.814
X218.069 Z-11.722
X217.852 Z-11.631
X217.764 Z-11.605
X217.619 Z-11.579
X217.391 Z-11.281
X217.221 Z-11.064
X216.907 Z-10.733
X216.731 Z-10.588
X216.224 Z-10.237
X215.979 Z-10.104
X215.719 Z-9.99
X215.177 Z-9.814
X214.899 Z-9.759
X214.143 Z-9.643
X213.932 Z-9.55
X213.799 Z-9.507
X213.553 Z-9.407
X213.188 Z-9.306
X212.899 Z-9.238
X212.41 Z-9.019
X212.235 Z-8.947
X211.789 Z-8.784
X211.282 Z-8.658
X210.764 Z-8.583
X210.189 Z-8.548
X209.723 Z-8.44
X209.299 Z-8.38
X208.889 Z-8.366
X208.694 Z-8.371
X208.481 Z-8.403
X208.022 Z-8.519
X207.777 Z-8.606
X207.721 Z-8.628
X207.49 Z-8.708
X207.384 Z-8.749
X207.144 Z-8.807
X206.901 Z-8.877
X206.16 Z-8.703
X205.411 Z-8.547
X204.513 Z-8.36
X203.62 Z-8.152
X203.273 Z-8.087
X203.099 Z-7.974
X202.844 Z-7.856
X202.667 Z-7.791
X201.665 Z-7.552
X201.122 Z-7.407
X200.992 Z-7.38
X200.751 Z-7.257
X200.577 Z-7.189
X200.024 Z-7.049
X198.83 Z-6.769
X198.337 Z-6.679
X197.91 Z-6.631
X197.427 Z-6.624
X197.158 Z-6.643
X196.631 Z-6.699
X196.078 Z-6.783
X195.746 Z-6.812
X195.355 Z-6.804
X194.512 Z-6.752
X194.054 Z-6.738
X193.892 Z-6.74
X193.717 Z-6.684
X193.532 Z-6.648
X193.342 Z-6.633
X193.091 Z-6.645
X192.836 Z-6.682
X192.583 Z-6.745
X192.34 Z-6.837
X192.032 Z-6.999
X191.885 Z-7.099
X191.749 Z-7.205
X191.461 Z-7.419
X191.297 Z-7.573
X191.098 Z-7.812
X190.997 Z-7.965
X190.912 Z-8.136
X190.846 Z-8.325
X190.801 Z-8.539
X190.784 Z-8.777
Z-8.992
X190.712 Z-9.185
X190.624 Z-9.552
X190.597 Z-9.77
X190.588 Z-10.216
X190.453 Z-10.263
X189.98 Z-10.362
X189.697 Z-10.452
X189.45 Z-10.33
X189.222 Z-10.239
X188.83 Z-10.12
X188.561 Z-10.057
X188.058 Z-9.97
X186.914 Z-9.848
X186.438 Z-9.806
X186.245 Z-9.814
X185.907 Z-9.848
X185.786 Z-9.634
X185.655 Z-9.468
X185.294 Z-9.095
X185.076 Z-8.931
X184.851 Z-8.77
X184.617 Z-8.631
X184.451 Z-8.545
X184.279 Z-8.466
X183.925 Z-8.326
X183.56 Z-8.229
X183.277 Z-8.184
X182.9 Z-8.168
X182.726 Z-8.18
X182.556 Z-8.215
X182.221 Z-8.337
X182.055 Z-8.422
X181.909 Z-8.523
X181.776 Z-8.651
X181.609 Z-8.867
X181.481 Z-9.086
X181.397 Z-9.282
X181.31 Z-9.561
X181.256 Z-9.811
X181.143 Z-9.779
X180.895 Z-9.638
X180.549 Z-9.49
X180.373 Z-9.42
X180.192 Z-9.371
X179.701 Z-9.279
X179.438 Z-9.262
X178.841 Z-9.248
X178.473 Z-9.189
X178.188 Z-9.161
X177.679 Z-9.146
X177.166 Z-9.185
X176.73 Z-9.236
X176.467 Z-9.297
X175.972 Z-9.441
X175.809 Z-9.505
X175.692 Z-9.561
X175.476 Z-9.66
X175.248 Z-9.786
X175. Z-9.97
X174.701 Z-10.219
X174.449 Z-10.461
X174.217 Z-10.725
X173.989 Z-11.014
X173.873 Z-11.209
X173.848 Z-11.261
X173.671 Z-11.54
X173.55 Z-11.791
X173.503 Z-11.923
X173.262 Z-11.996
X173.11 Z-11.854
X173.027 Z-11.782
X172.87 Z-11.637
X172.628 Z-11.449
X172.198 Z-11.165
X171.771 Z-10.938
X171.68 Z-10.896
X171.545 Z-10.791
X171.39 Z-10.697
X171.221 Z-10.606
X170.991 Z-10.476
X170.556 Z-10.291
X170.241 Z-10.189
X170.035 Z-10.12
X169.493 Z-9.976
X169.319 Z-9.95
X169.198 Z-9.945
X168.713 Z-9.913
X168.567 Z-9.907
X168.268 Z-9.858
X167.907 Z-9.741
X167.623 Z-9.638
X167.376 Z-9.539
X167.193 Z-9.484
X166.99 Z-9.408
X166.304 Z-9.21
X165.783 Z-9.1
X165.384 Z-9.042
X165.005 Z-8.993
X164.815 Z-8.974
X164.337 Z-8.942
X163.746 Z-8.93
X162.752 Z-8.963
X162.062 Z-9.03
X161.407 Z-9.125
X160.551 Z-9.319
X159.928 Z-9.471
X159.514 Z-9.592
X159.352 Z-9.66
X159.198 Z-9.747
X159.054 Z-9.852
X158.883 Z-10.019
X158.751 Z-10.187
X158.632 Z-10.387
X158.534 Z-10.59
X158.483 Z-10.734
X158.457 Z-10.825
X158.432 Z-10.951
X158.415 Z-11.105
X158.412 Z-11.999
X34.914 Z-12.001
X34.361 Z-12.031
X33.799 Z-12.11
X33.234 Z-12.241
X32.846 Z-12.363
X32.664 Z-12.429
X32.329 Z-12.567
X32.152 Z-12.647
X31.746 Z-12.859
X31.517 Z-13.
X31.434 Z-13.024
X31.308 Y9.936
X31.434 Y10.062
X31.517 Z-13.
X31.746 Z-12.859
X32.152 Z-12.647
X32.329 Z-12.567
X32.664 Z-12.429
X32.846 Z-12.363
X33.234 Z-12.241
X33.799 Z-12.11
X34.361 Z-12.031
X34.914 Z-12.001
X158.412 Z-11.999
X158.413 Z-11.118
X158.433 Z-10.879
X158.475 Z-10.665
X158.533 Z-10.474
