(H2_02_T1_STRAP_HOLE_BORE)
(T1  Spiral O 3.175*25mm  Makera    D=3.175 CR=0. - ZMIN=-30. - flat end mill)
( =================================================== )
(   Z Origin Set To   : Stock Top )
(   Stock Height                    : 50. mm )
(   Toolpath Z Maximum from Stock Top: 15. mm )
(   Toolpath Z Min from Stock Top: -30. mm )
(  )
( =================================================== )

( The following values are based on the part position info used in fusion and can be used to roughly align the machine offset from anchor 1 if you use that feature. )
(   X Offset   : 45. mm )
(   Y Offset   : -29.999 mm )

( =================================================== )

G90 G94
G17
G21
(When using Fusion for Personal Use, the feedrate of rapid)
(moves is reduced to match the feedrate of cutting moves,)
(which can increase machining time. Unrestricted rapid moves)
(are available with a Fusion Subscription.)

(H2_T1_STRAP_HOLE_BORE)
M6 T1 
(5)
M400
M851 S100
S13000 M3
G54
G0 X45.913 Y16.078
Z15.
G1 Z5. F600.
Z2.817 F300.
S10000 M3
X45.91 Y16.08 Z2.768 F333.3
X45.902 Y16.087 Z2.721
X45.887 Y16.099 Z2.675
X45.867 Y16.115 Z2.633
X45.842 Y16.134 Z2.595
X45.812 Y16.156 Z2.563
X45.778 Y16.179 Z2.537
X45.74 Y16.203 Z2.517
X45.699 Y16.228 Z2.505
X45.656 Y16.251 Z2.5
G3 X44.344 Y13.749 Z2.407 I-0.656 J-1.251
X45.656 Y16.251 Z2.314 I0.656 J1.251
X44.344 Y13.749 Z2.221 I-0.656 J-1.251
X45.656 Y16.251 Z2.128 I0.656 J1.251
X44.344 Y13.749 Z2.035 I-0.656 J-1.251
X45.656 Y16.251 Z1.942 I0.656 J1.251
X44.344 Y13.749 Z1.849 I-0.656 J-1.251
X45.656 Y16.251 Z1.756 I0.656 J1.251
X44.344 Y13.749 Z1.663 I-0.656 J-1.251
X45.656 Y16.251 Z1.57 I0.656 J1.251
X44.344 Y13.749 Z1.478 I-0.656 J-1.251
X45.656 Y16.251 Z1.385 I0.656 J1.251
X44.344 Y13.749 Z1.292 I-0.656 J-1.251
X45.656 Y16.251 Z1.199 I0.656 J1.251
X44.344 Y13.749 Z1.106 I-0.656 J-1.251
X45.656 Y16.251 Z1.013 I0.656 J1.251
X44.344 Y13.749 Z0.92 I-0.656 J-1.251
X45.656 Y16.251 Z0.827 I0.656 J1.251
X44.344 Y13.749 Z0.734 I-0.656 J-1.251
X45.656 Y16.251 Z0.641 I0.656 J1.251
X44.344 Y13.749 Z0.548 I-0.656 J-1.251
X45.656 Y16.251 Z0.455 I0.656 J1.251
X44.344 Y13.749 Z0.362 I-0.656 J-1.251
X45.656 Y16.251 Z0.269 I0.656 J1.251
X44.344 Y13.749 Z0.176 I-0.656 J-1.251
X45.656 Y16.251 Z0.083 I0.656 J1.251
X44.344 Y13.749 Z-0.01 I-0.656 J-1.251
X45.656 Y16.251 Z-0.103 I0.656 J1.251
X44.344 Y13.749 Z-0.196 I-0.656 J-1.251
X45.656 Y16.251 Z-0.289 I0.656 J1.251
X44.344 Y13.749 Z-0.382 I-0.656 J-1.251
X45.656 Y16.251 Z-0.474 I0.656 J1.251
X44.344 Y13.749 Z-0.567 I-0.656 J-1.251
X45.656 Y16.251 Z-0.66 I0.656 J1.251
X44.344 Y13.749 Z-0.753 I-0.656 J-1.251
X45.656 Y16.251 Z-0.846 I0.656 J1.251
X44.344 Y13.749 Z-0.939 I-0.656 J-1.251
X46.412 Y15. Z-1. I0.656 J1.251
S13000 M3
X43.588 Y15. I-1.412 J0. F600.
X46.412 Y15. I1.412 J0.
S10000 M3
X43.588 Y15. Z-1.093 I-1.412 J0. F333.3
X46.412 Y15. Z-1.186 I1.412 J0.
X43.588 Y15. Z-1.279 I-1.412 J0.
X46.412 Y15. Z-1.372 I1.412 J0.
X43.588 Y15. Z-1.465 I-1.412 J0.
X46.412 Y15. Z-1.558 I1.412 J0.
X43.588 Y15. Z-1.651 I-1.412 J0.
X46.412 Y15. Z-1.744 I1.412 J0.
X43.588 Y15. Z-1.837 I-1.412 J0.
X46.412 Y15. Z-1.93 I1.412 J0.
X43.976 Y15.973 Z-2. I-1.412 J0.
S13000 M3
X46.024 Y14.027 I1.024 J-0.973 F600.
X43.976 Y15.973 I-1.024 J0.973
S10000 M3
X46.024 Y14.027 Z-2.093 I1.024 J-0.973 F333.3
X43.976 Y15.973 Z-2.186 I-1.024 J0.973
X46.024 Y14.027 Z-2.279 I1.024 J-0.973
X43.976 Y15.973 Z-2.372 I-1.024 J0.973
X46.024 Y14.027 Z-2.465 I1.024 J-0.973
X43.976 Y15.973 Z-2.558 I-1.024 J0.973
X46.024 Y14.027 Z-2.651 I1.024 J-0.973
X43.976 Y15.973 Z-2.744 I-1.024 J0.973
X46.024 Y14.027 Z-2.837 I1.024 J-0.973
X43.976 Y15.973 Z-2.93 I-1.024 J0.973
X45.073 Y13.589 Z-3. I1.024 J-0.973
S13000 M3
X44.927 Y16.411 I-0.073 J1.411 F600.
X45.073 Y13.589 I0.073 J-1.411
S10000 M3
X44.927 Y16.411 Z-3.093 I-0.073 J1.411 F333.3
X45.073 Y13.589 Z-3.186 I0.073 J-1.411
X44.927 Y16.411 Z-3.279 I-0.073 J1.411
X45.073 Y13.589 Z-3.372 I0.073 J-1.411
X44.927 Y16.411 Z-3.465 I-0.073 J1.411
X45.073 Y13.589 Z-3.558 I0.073 J-1.411
X44.927 Y16.411 Z-3.651 I-0.073 J1.411
X45.073 Y13.589 Z-3.744 I0.073 J-1.411
X44.927 Y16.411 Z-3.837 I-0.073 J1.411
X45.073 Y13.589 Z-3.93 I0.073 J-1.411
X45.919 Y16.073 Z-4. I-0.073 J1.411
S13000 M3
X44.081 Y13.927 I-0.919 J-1.073 F600.
X45.919 Y16.073 I0.919 J1.073
S10000 M3
X44.081 Y13.927 Z-4.093 I-0.919 J-1.073 F333.3
X45.919 Y16.073 Z-4.186 I0.919 J1.073
X44.081 Y13.927 Z-4.279 I-0.919 J-1.073
X45.919 Y16.073 Z-4.372 I0.919 J1.073
X44.081 Y13.927 Z-4.465 I-0.919 J-1.073
X45.919 Y16.073 Z-4.558 I0.919 J1.073
X44.081 Y13.927 Z-4.651 I-0.919 J-1.073
X45.919 Y16.073 Z-4.744 I0.919 J1.073
X44.081 Y13.927 Z-4.837 I-0.919 J-1.073
X45.919 Y16.073 Z-4.93 I0.919 J1.073
X43.595 Y14.855 Z-5. I-0.919 J-1.073
S13000 M3
X46.405 Y15.145 I1.405 J0.145 F600.
X43.595 Y14.855 I-1.405 J-0.145
S10000 M3
X46.405 Y15.145 Z-5.093 I1.405 J0.145 F333.3
X43.595 Y14.855 Z-5.186 I-1.405 J-0.145
X46.405 Y15.145 Z-5.279 I1.405 J0.145
X43.595 Y14.855 Z-5.372 I-1.405 J-0.145
X46.405 Y15.145 Z-5.465 I1.405 J0.145
X43.595 Y14.855 Z-5.558 I-1.405 J-0.145
X46.405 Y15.145 Z-5.651 I1.405 J0.145
X43.595 Y14.855 Z-5.744 I-1.405 J-0.145
X46.405 Y15.145 Z-5.837 I1.405 J0.145
X43.595 Y14.855 Z-5.93 I-1.405 J-0.145
X46.119 Y14.138 Z-6. I1.405 J0.145
S13000 M3
X43.881 Y15.862 I-1.119 J0.862 F600.
X46.119 Y14.138 I1.119 J-0.862
S10000 M3
X43.881 Y15.862 Z-6.093 I-1.119 J0.862 F333.3
X46.119 Y14.138 Z-6.186 I1.119 J-0.862
X43.881 Y15.862 Z-6.279 I-1.119 J0.862
X46.119 Y14.138 Z-6.372 I1.119 J-0.862
X43.881 Y15.862 Z-6.465 I-1.119 J0.862
X46.119 Y14.138 Z-6.558 I1.119 J-0.862
X43.881 Y15.862 Z-6.651 I-1.119 J0.862
X46.119 Y14.138 Z-6.744 I1.119 J-0.862
X43.881 Y15.862 Z-6.837 I-1.119 J0.862
X46.119 Y14.138 Z-6.93 I1.119 J-0.862
X44.783 Y16.396 Z-7. I-1.119 J0.862
S13000 M3
X45.217 Y13.604 I0.217 J-1.396 F600.
X44.783 Y16.396 I-0.217 J1.396
S10000 M3
X45.217 Y13.604 Z-7.093 I0.217 J-1.396 F333.3
X44.783 Y16.396 Z-7.186 I-0.217 J1.396
X45.217 Y13.604 Z-7.279 I0.217 J-1.396
X44.783 Y16.396 Z-7.372 I-0.217 J1.396
X45.217 Y13.604 Z-7.465 I0.217 J-1.396
X44.783 Y16.396 Z-7.558 I-0.217 J1.396
X45.217 Y13.604 Z-7.651 I0.217 J-1.396
X44.783 Y16.396 Z-7.744 I-0.217 J1.396
X45.217 Y13.604 Z-7.837 I0.217 J-1.396
X44.783 Y16.396 Z-7.93 I-0.217 J1.396
X44.197 Y13.838 Z-8. I0.217 J-1.396
S13000 M3
X45.803 Y16.162 I0.803 J1.162 F600.
X44.197 Y13.838 I-0.803 J-1.162
S10000 M3
X45.803 Y16.162 Z-8.093 I0.803 J1.162 F333.3
X44.197 Y13.838 Z-8.186 I-0.803 J-1.162
X45.803 Y16.162 Z-8.279 I0.803 J1.162
X44.197 Y13.838 Z-8.372 I-0.803 J-1.162
X45.803 Y16.162 Z-8.465 I0.803 J1.162
X44.197 Y13.838 Z-8.558 I-0.803 J-1.162
X45.803 Y16.162 Z-8.651 I0.803 J1.162
X44.197 Y13.838 Z-8.744 I-0.803 J-1.162
X45.803 Y16.162 Z-8.837 I0.803 J1.162
X44.197 Y13.838 Z-8.93 I-0.803 J-1.162
X46.383 Y15.289 Z-9. I0.803 J1.162
S13000 M3
X43.617 Y14.711 I-1.383 J-0.289 F600.
X46.383 Y15.289 I1.383 J0.289
S10000 M3
X43.617 Y14.711 Z-9.093 I-1.383 J-0.289 F333.3
X46.383 Y15.289 Z-9.186 I1.383 J0.289
X43.617 Y14.711 Z-9.279 I-1.383 J-0.289
X46.383 Y15.289 Z-9.372 I1.383 J0.289
X43.617 Y14.711 Z-9.465 I-1.383 J-0.289
X46.383 Y15.289 Z-9.558 I1.383 J0.289
X43.617 Y14.711 Z-9.651 I-1.383 J-0.289
X46.383 Y15.289 Z-9.744 I1.383 J0.289
X43.617 Y14.711 Z-9.837 I-1.383 J-0.289
X46.383 Y15.289 Z-9.93 I1.383 J0.289
X43.798 Y15.743 Z-10. I-1.383 J-0.289
S13000 M3
X46.202 Y14.257 I1.202 J-0.743 F600.
X43.798 Y15.743 I-1.202 J0.743
S10000 M3
X46.202 Y14.257 Z-10.093 I1.202 J-0.743 F333.3
X43.798 Y15.743 Z-10.186 I-1.202 J0.743
X46.202 Y14.257 Z-10.279 I1.202 J-0.743
X43.798 Y15.743 Z-10.372 I-1.202 J0.743
X46.202 Y14.257 Z-10.465 I1.202 J-0.743
X43.798 Y15.743 Z-10.558 I-1.202 J0.743
X46.202 Y14.257 Z-10.651 I1.202 J-0.743
X43.798 Y15.743 Z-10.744 I-1.202 J0.743
X46.202 Y14.257 Z-10.837 I1.202 J-0.743
X43.798 Y15.743 Z-10.93 I-1.202 J0.743
X45.36 Y13.634 Z-11. I1.202 J-0.743
S13000 M3
X44.64 Y16.366 I-0.36 J1.366 F600.
X45.36 Y13.634 I0.36 J-1.366
S10000 M3
X44.64 Y16.366 Z-11.093 I-0.36 J1.366 F333.3
X45.36 Y13.634 Z-11.186 I0.36 J-1.366
X44.64 Y16.366 Z-11.279 I-0.36 J1.366
X45.36 Y13.634 Z-11.372 I0.36 J-1.366
X44.64 Y16.366 Z-11.465 I-0.36 J1.366
X45.36 Y13.634 Z-11.558 I0.36 J-1.366
X44.64 Y16.366 Z-11.651 I-0.36 J1.366
X45.36 Y13.634 Z-11.744 I0.36 J-1.366
X44.64 Y16.366 Z-11.837 I-0.36 J1.366
X45.36 Y13.634 Z-11.93 I0.36 J-1.366
X45.68 Y16.238 Z-12. I-0.36 J1.366
S13000 M3
X44.32 Y13.762 I-0.68 J-1.238 F600.
X45.68 Y16.238 I0.68 J1.238
S10000 M3
X44.32 Y13.762 Z-12.093 I-0.68 J-1.238 F333.3
X45.68 Y16.238 Z-12.186 I0.68 J1.238
X44.32 Y13.762 Z-12.279 I-0.68 J-1.238
X45.68 Y16.238 Z-12.372 I0.68 J1.238
X44.32 Y13.762 Z-12.465 I-0.68 J-1.238
X45.68 Y16.238 Z-12.558 I0.68 J1.238
X44.32 Y13.762 Z-12.651 I-0.68 J-1.238
X45.68 Y16.238 Z-12.744 I0.68 J1.238
X44.32 Y13.762 Z-12.837 I-0.68 J-1.238
X45.68 Y16.238 Z-12.93 I0.68 J1.238
X43.654 Y14.57 Z-13. I-0.68 J-1.238
S13000 M3
X46.346 Y15.43 I1.346 J0.43 F600.
X43.654 Y14.57 I-1.346 J-0.43
S10000 M3
X46.346 Y15.43 Z-13.093 I1.346 J0.43 F333.3
X43.654 Y14.57 Z-13.186 I-1.346 J-0.43
X46.346 Y15.43 Z-13.279 I1.346 J0.43
X43.654 Y14.57 Z-13.372 I-1.346 J-0.43
X46.346 Y15.43 Z-13.465 I1.346 J0.43
X43.654 Y14.57 Z-13.558 I-1.346 J-0.43
X46.346 Y15.43 Z-13.651 I1.346 J0.43
X43.654 Y14.57 Z-13.744 I-1.346 J-0.43
X46.346 Y15.43 Z-13.837 I1.346 J0.43
X43.654 Y14.57 Z-13.93 I-1.346 J-0.43
X46.272 Y14.385 Z-14. I1.346 J0.43
S13000 M3
X43.728 Y15.615 I-1.272 J0.615 F600.
X46.272 Y14.385 I1.272 J-0.615
S10000 M3
X43.728 Y15.615 Z-14.093 I-1.272 J0.615 F333.3
X46.272 Y14.385 Z-14.186 I1.272 J-0.615
X43.728 Y15.615 Z-14.279 I-1.272 J0.615
X46.272 Y14.385 Z-14.372 I1.272 J-0.615
X43.728 Y15.615 Z-14.465 I-1.272 J0.615
X46.272 Y14.385 Z-14.558 I1.272 J-0.615
X43.728 Y15.615 Z-14.651 I-1.272 J0.615
X46.272 Y14.385 Z-14.744 I1.272 J-0.615
X43.728 Y15.615 Z-14.837 I-1.272 J0.615
X46.272 Y14.385 Z-14.93 I1.272 J-0.615
X44.502 Y16.322 Z-15. I-1.272 J0.615
S13000 M3
X45.498 Y13.678 I0.498 J-1.322 F600.
X44.502 Y16.322 I-0.498 J1.322
S10000 M3
X45.498 Y13.678 Z-15.093 I0.498 J-1.322 F333.3
X44.502 Y16.322 Z-15.186 I-0.498 J1.322
X45.498 Y13.678 Z-15.279 I0.498 J-1.322
X44.502 Y16.322 Z-15.372 I-0.498 J1.322
X45.498 Y13.678 Z-15.465 I0.498 J-1.322
X44.502 Y16.322 Z-15.558 I-0.498 J1.322
X45.498 Y13.678 Z-15.651 I0.498 J-1.322
X44.502 Y16.322 Z-15.744 I-0.498 J1.322
X45.498 Y13.678 Z-15.837 I0.498 J-1.322
X44.502 Y16.322 Z-15.93 I-0.498 J1.322
X44.451 Y13.698 Z-16. I0.498 J-1.322
S13000 M3
X45.549 Y16.302 I0.549 J1.302 F600.
X44.451 Y13.698 I-0.549 J-1.302
S10000 M3
X45.549 Y16.302 Z-16.093 I0.549 J1.302 F333.3
X44.451 Y13.698 Z-16.186 I-0.549 J-1.302
X45.549 Y16.302 Z-16.279 I0.549 J1.302
X44.451 Y13.698 Z-16.372 I-0.549 J-1.302
X45.549 Y16.302 Z-16.465 I0.549 J1.302
X44.451 Y13.698 Z-16.558 I-0.549 J-1.302
X45.549 Y16.302 Z-16.651 I0.549 J1.302
X44.451 Y13.698 Z-16.744 I-0.549 J-1.302
X45.549 Y16.302 Z-16.837 I0.549 J1.302
X44.451 Y13.698 Z-16.93 I-0.549 J-1.302
X46.294 Y15.566 Z-17. I0.549 J1.302
S13000 M3
X43.706 Y14.434 I-1.294 J-0.566 F600.
X46.294 Y15.566 I1.294 J0.566
S10000 M3
X43.706 Y14.434 Z-17.093 I-1.294 J-0.566 F333.3
X46.294 Y15.566 Z-17.186 I1.294 J0.566
X43.706 Y14.434 Z-17.279 I-1.294 J-0.566
X46.294 Y15.566 Z-17.372 I1.294 J0.566
X43.706 Y14.434 Z-17.465 I-1.294 J-0.566
X46.294 Y15.566 Z-17.558 I1.294 J0.566
X43.706 Y14.434 Z-17.651 I-1.294 J-0.566
X46.294 Y15.566 Z-17.744 I1.294 J0.566
X43.706 Y14.434 Z-17.837 I-1.294 J-0.566
X46.294 Y15.566 Z-17.93 I1.294 J0.566
X43.672 Y15.481 Z-18. I-1.294 J-0.566
S13000 M3
X46.328 Y14.519 I1.328 J-0.481 F600.
X43.672 Y15.481 I-1.328 J0.481
S10000 M3
X46.328 Y14.519 Z-18.093 I1.328 J-0.481 F333.3
X43.672 Y15.481 Z-18.186 I-1.328 J0.481
X46.328 Y14.519 Z-18.279 I1.328 J-0.481
X43.672 Y15.481 Z-18.372 I-1.328 J0.481
X46.328 Y14.519 Z-18.465 I1.328 J-0.481
X43.672 Y15.481 Z-18.558 I-1.328 J0.481
X46.328 Y14.519 Z-18.651 I1.328 J-0.481
X43.672 Y15.481 Z-18.744 I-1.328 J0.481
X46.328 Y14.519 Z-18.837 I1.328 J-0.481
X43.672 Y15.481 Z-18.93 I-1.328 J0.481
X45.632 Y13.737 Z-19. I1.328 J-0.481
S13000 M3
X44.368 Y16.263 I-0.632 J1.263 F600.
X45.632 Y13.737 I0.632 J-1.263
S10000 M3
X44.368 Y16.263 Z-19.093 I-0.632 J1.263 F333.3
X45.632 Y13.737 Z-19.186 I0.632 J-1.263
X44.368 Y16.263 Z-19.279 I-0.632 J1.263
X45.632 Y13.737 Z-19.372 I0.632 J-1.263
X44.368 Y16.263 Z-19.465 I-0.632 J1.263
X45.632 Y13.737 Z-19.558 I0.632 J-1.263
X44.368 Y16.263 Z-19.651 I-0.632 J1.263
X45.632 Y13.737 Z-19.744 I0.632 J-1.263
X44.368 Y16.263 Z-19.837 I-0.632 J1.263
X45.632 Y13.737 Z-19.93 I0.632 J-1.263
X45.412 Y16.351 Z-20. I-0.632 J1.263
S13000 M3
X44.588 Y13.649 I-0.412 J-1.351 F600.
X45.412 Y16.351 I0.412 J1.351
S10000 M3
X44.588 Y13.649 Z-20.093 I-0.412 J-1.351 F333.3
X45.412 Y16.351 Z-20.186 I0.412 J1.351
X44.588 Y13.649 Z-20.279 I-0.412 J-1.351
X45.412 Y16.351 Z-20.372 I0.412 J1.351
X44.588 Y13.649 Z-20.465 I-0.412 J-1.351
X45.412 Y16.351 Z-20.558 I0.412 J1.351
X44.588 Y13.649 Z-20.651 I-0.412 J-1.351
X45.412 Y16.351 Z-20.744 I0.412 J1.351
X44.588 Y13.649 Z-20.837 I-0.412 J-1.351
X45.412 Y16.351 Z-20.93 I0.412 J1.351
X43.771 Y14.304 Z-21. I-0.412 J-1.351
S13000 M3
X46.229 Y15.696 I1.229 J0.696 F600.
X43.771 Y14.304 I-1.229 J-0.696
S10000 M3
X46.229 Y15.696 Z-21.093 I1.229 J0.696 F333.3
X43.771 Y14.304 Z-21.186 I-1.229 J-0.696
X46.229 Y15.696 Z-21.279 I1.229 J0.696
X43.771 Y14.304 Z-21.372 I-1.229 J-0.696
X46.229 Y15.696 Z-21.465 I1.229 J0.696
X43.771 Y14.304 Z-21.558 I-1.229 J-0.696
X46.229 Y15.696 Z-21.651 I1.229 J0.696
X43.771 Y14.304 Z-21.744 I-1.229 J-0.696
X46.229 Y15.696 Z-21.837 I1.229 J0.696
X43.771 Y14.304 Z-21.93 I-1.229 J-0.696
X46.37 Y14.658 Z-22. I1.229 J0.696
S13000 M3
X43.63 Y15.342 I-1.37 J0.342 F600.
X46.37 Y14.658 I1.37 J-0.342
S10000 M3
X43.63 Y15.342 Z-22.093 I-1.37 J0.342 F333.3
X46.37 Y14.658 Z-22.186 I1.37 J-0.342
X43.63 Y15.342 Z-22.279 I-1.37 J0.342
X46.37 Y14.658 Z-22.372 I1.37 J-0.342
X43.63 Y15.342 Z-22.465 I-1.37 J0.342
X46.37 Y14.658 Z-22.558 I1.37 J-0.342
X43.63 Y15.342 Z-22.651 I-1.37 J0.342
X46.37 Y14.658 Z-22.744 I1.37 J-0.342
X43.63 Y15.342 Z-22.837 I-1.37 J0.342
X46.37 Y14.658 Z-22.93 I1.37 J-0.342
X44.242 Y16.192 Z-23. I-1.37 J0.342
S13000 M3
X45.758 Y13.808 I0.758 J-1.192 F600.
X44.242 Y16.192 I-0.758 J1.192
S10000 M3
G1 X44.153 Y16.13 Z-23.002 F333.3
G3 X45.847 Y13.87 Z-23.095 I0.847 J-1.13
X44.153 Y16.13 Z-23.188 I-0.847 J1.13
X45.848 Y13.87 Z-23.281 I0.847 J-1.13
X44.152 Y16.13 Z-23.374 I-0.848 J1.13
X45.848 Y13.87 Z-23.467 I0.848 J-1.13
X44.152 Y16.13 Z-23.56 I-0.848 J1.13
X45.848 Y13.87 Z-23.653 I0.848 J-1.13
X44.152 Y16.13 Z-23.746 I-0.848 J1.13
X45.848 Y13.87 Z-23.839 I0.848 J-1.13
X44.152 Y16.13 Z-23.932 I-0.848 J1.13
X44.729 Y13.614 Z-24. I0.848 J-1.13
S13000 M3
X45.271 Y16.386 I0.271 J1.386 F600.
X44.729 Y13.614 I-0.271 J-1.386
S10000 M3
X45.271 Y16.386 Z-24.093 I0.271 J1.386 F333.3
X44.729 Y13.614 Z-24.186 I-0.271 J-1.386
X45.271 Y16.386 Z-24.279 I0.271 J1.386
X44.729 Y13.614 Z-24.372 I-0.271 J-1.386
X45.271 Y16.386 Z-24.465 I0.271 J1.386
X44.729 Y13.614 Z-24.558 I-0.271 J-1.386
X45.271 Y16.386 Z-24.651 I0.271 J1.386
X44.729 Y13.614 Z-24.744 I-0.271 J-1.386
X45.271 Y16.386 Z-24.837 I0.271 J1.386
X44.729 Y13.614 Z-24.93 I-0.271 J-1.386
X46.151 Y15.819 Z-25. I0.271 J1.386
S13000 M3
X43.849 Y14.181 I-1.151 J-0.819 F600.
X46.151 Y15.819 I1.151 J0.819
S10000 M3
X43.849 Y14.181 Z-25.093 I-1.151 J-0.819 F333.3
X46.151 Y15.819 Z-25.186 I1.151 J0.819
X43.849 Y14.181 Z-25.279 I-1.151 J-0.819
X46.151 Y15.819 Z-25.372 I1.151 J0.819
X43.849 Y14.181 Z-25.465 I-1.151 J-0.819
X46.151 Y15.819 Z-25.558 I1.151 J0.819
X43.849 Y14.181 Z-25.651 I-1.151 J-0.819
X46.151 Y15.819 Z-25.744 I1.151 J0.819
X43.849 Y14.181 Z-25.837 I-1.151 J-0.819
X46.151 Y15.819 Z-25.93 I1.151 J0.819
X43.602 Y15.199 Z-26. I-1.151 J-0.819
S13000 M3
X46.398 Y14.801 I1.398 J-0.199 F600.
X43.602 Y15.199 I-1.398 J0.199
S10000 M3
X46.398 Y14.801 Z-26.093 I1.398 J-0.199 F333.3
X43.602 Y15.199 Z-26.186 I-1.398 J0.199
X46.398 Y14.801 Z-26.279 I1.398 J-0.199
X43.602 Y15.199 Z-26.372 I-1.398 J0.199
X46.398 Y14.801 Z-26.465 I1.398 J-0.199
X43.602 Y15.199 Z-26.558 I-1.398 J0.199
X46.398 Y14.801 Z-26.651 I1.398 J-0.199
X43.602 Y15.199 Z-26.744 I-1.398 J0.199
X46.398 Y14.801 Z-26.837 I1.398 J-0.199
X43.602 Y15.199 Z-26.93 I-1.398 J0.199
X45.877 Y13.893 Z-27. I1.398 J-0.199
S13000 M3
X44.123 Y16.107 I-0.877 J1.107 F600.
X45.877 Y13.893 I0.877 J-1.107
S10000 M3
X44.123 Y16.107 Z-27.093 I-0.877 J1.107 F333.3
X45.877 Y13.893 Z-27.186 I0.877 J-1.107
X44.123 Y16.107 Z-27.279 I-0.877 J1.107
X45.877 Y13.893 Z-27.372 I0.877 J-1.107
X44.123 Y16.107 Z-27.465 I-0.877 J1.107
X45.877 Y13.893 Z-27.558 I0.877 J-1.107
X44.123 Y16.107 Z-27.651 I-0.877 J1.107
X45.877 Y13.893 Z-27.744 I0.877 J-1.107
X44.123 Y16.107 Z-27.837 I-0.877 J1.107
X45.877 Y13.893 Z-27.93 I0.877 J-1.107
X45.127 Y16.407 Z-28. I-0.877 J1.107
S13000 M3
X44.873 Y13.593 I-0.127 J-1.407 F600.
X45.127 Y16.407 I0.127 J1.407
S10000 M3
X44.873 Y13.593 Z-28.093 I-0.127 J-1.407 F333.3
X45.127 Y16.407 Z-28.186 I0.127 J1.407
X44.873 Y13.593 Z-28.279 I-0.127 J-1.407
X45.127 Y16.407 Z-28.372 I0.127 J1.407
X44.873 Y13.593 Z-28.465 I-0.127 J-1.407
X45.127 Y16.407 Z-28.558 I0.127 J1.407
X44.873 Y13.593 Z-28.651 I-0.127 J-1.407
X45.127 Y16.407 Z-28.744 I0.127 J1.407
X44.873 Y13.593 Z-28.837 I-0.127 J-1.407
X45.127 Y16.407 Z-28.93 I0.127 J1.407
X43.939 Y14.067 Z-29. I-0.127 J-1.407
S13000 M3
X46.061 Y15.933 I1.061 J0.933 F600.
X43.939 Y14.067 I-1.061 J-0.933
S10000 M3
G1 X44.153 Y13.87 Z-29.006 F333.3
G3 X45.847 Y16.13 Z-29.099 I0.847 J1.13
X44.153 Y13.87 Z-29.192 I-0.847 J-1.13
X45.847 Y16.13 Z-29.285 I0.847 J1.13
X44.153 Y13.87 Z-29.378 I-0.847 J-1.13
X45.847 Y16.13 Z-29.471 I0.847 J1.13
X44.153 Y13.87 Z-29.564 I-0.847 J-1.13
X45.847 Y16.13 Z-29.657 I0.847 J1.13
X44.153 Y13.87 Z-29.75 I-0.847 J-1.13
X45.847 Y16.13 Z-29.843 I0.847 J1.13
X44.153 Y13.87 Z-29.936 I-0.847 J-1.13
X46.411 Y14.946 Z-30. I0.847 J1.13
S13000 M3
X43.589 Y15.054 I-1.411 J0.054 F600.
X46.411 Y14.946 I1.411 J-0.054
G1 X46.408 Y14.995 Z-29.996 F1000.
X46.397 Y15.042 Z-29.984
X46.38 Y15.085 Z-29.965
X46.359 Y15.122 Z-29.939
X46.336 Y15.152 Z-29.907
X46.314 Y15.175 Z-29.869
X46.294 Y15.192 Z-29.827
X46.279 Y15.204 Z-29.781
X46.269 Y15.21 Z-29.732
X46.266 Y15.212 Z-29.683
Z15. F600.
M5
M400
M852
G28
M30
