(H3_01_OUTER_PROFILE_CONTOUR)
(T1  Spiral O 3.175*25mm  Makera    D=3.175 CR=0. - ZMIN=-29. - flat end mill)
( =================================================== )
(   Z Origin Set To   : Stock Top )
(   Stock Height                    : 30. mm )
(   Toolpath Z Maximum from Stock Top: 15. mm )
(   Toolpath Z Min from Stock Top: -29. mm )
(  )
( =================================================== )

( The following values are based on the part position info used in fusion and can be used to roughly align the machine offset from anchor 1 if you use that feature. )
(   X Offset   : 59. mm )
(   Y Offset   : 50. mm )

( =================================================== )

G90 G94
G17
G21
(When using Fusion for Personal Use, the feedrate of rapid)
(moves is reduced to match the feedrate of cutting moves,)
(which can increase machining time. Unrestricted rapid moves)
(are available with a Fusion Subscription.)

(H3_OUTER_PROFILE_CONTOUR)
M6 T1 
(5)
M400
M851 S100
S13000 M3
G54
G0 X34.682 Y38.04
Z15.
G1 Z5. F600.
Z0.635 F300.
Z-1.183
Y37.722 Z-1.5 F1000.
Y37.405
X35. Y37.088
X218.413 F600.
Y41.5
G2 X220. Y43.088 I1.587 J0.
G1 X270.
G2 X271.587 Y41.5 I0. J-1.588
G1 Y8.5
G2 X270. Y6.912 I-1.587 J0.
G1 X220.
G2 X218.413 Y8.5 I0. J1.588
G1 Y12.913
X35.
G2 X33.412 Y14.5 I0. J1.587
G1 Y35.5
G2 X35. Y37.088 I1.588 J0.
G1 X35.318 Y37.405 F1000.
Y37.722
Y38.04 Z-1.183
Z5. F600.
X34.682
Z-0.865 F300.
Z-2.683
Y37.722 Z-3. F1000.
Y37.405
X35. Y37.088
X218.413 F600.
Y41.5
G2 X220. Y43.088 I1.587 J0.
G1 X270.
G2 X271.587 Y41.5 I0. J-1.588
G1 Y8.5
G2 X270. Y6.912 I-1.587 J0.
G1 X220.
G2 X218.413 Y8.5 I0. J1.588
G1 Y12.913
X35.
G2 X33.412 Y14.5 I0. J1.587
G1 Y35.5
G2 X35. Y37.088 I1.588 J0.
G1 X35.318 Y37.405 F1000.
Y37.722
Y38.04 Z-2.683
Z5. F600.
X34.682
Z-2.365 F300.
Z-4.183
Y37.722 Z-4.5 F1000.
Y37.405
X35. Y37.088
X218.413 F600.
Y41.5
G2 X220. Y43.088 I1.587 J0.
G1 X270.
G2 X271.587 Y41.5 I0. J-1.588
G1 Y8.5
G2 X270. Y6.912 I-1.587 J0.
G1 X220.
G2 X218.413 Y8.5 I0. J1.588
G1 Y12.913
X35.
G2 X33.412 Y14.5 I0. J1.587
G1 Y35.5
G2 X35. Y37.088 I1.588 J0.
G1 X35.318 Y37.405 F1000.
Y37.722
Y38.04 Z-4.183
Z5. F600.
X34.682
Z-3.865 F300.
Z-5.683
Y37.722 Z-6. F1000.
Y37.405
X35. Y37.088
X218.413 F600.
Y41.5
G2 X220. Y43.088 I1.587 J0.
G1 X270.
G2 X271.587 Y41.5 I0. J-1.588
G1 Y8.5
G2 X270. Y6.912 I-1.587 J0.
G1 X220.
G2 X218.413 Y8.5 I0. J1.588
G1 Y12.913
X35.
G2 X33.412 Y14.5 I0. J1.587
G1 Y35.5
G2 X35. Y37.088 I1.588 J0.
G1 X35.318 Y37.405 F1000.
Y37.722
Y38.04 Z-5.683
Z5. F600.
X34.682
Z-5.365 F300.
Z-7.183
Y37.722 Z-7.5 F1000.
Y37.405
X35. Y37.088
X218.413 F600.
Y41.5
G2 X220. Y43.088 I1.587 J0.
G1 X270.
G2 X271.587 Y41.5 I0. J-1.588
G1 Y8.5
G2 X270. Y6.912 I-1.587 J0.
G1 X220.
G2 X218.413 Y8.5 I0. J1.588
G1 Y12.913
X35.
G2 X33.412 Y14.5 I0. J1.587
G1 Y35.5
G2 X35. Y37.088 I1.588 J0.
G1 X35.318 Y37.405 F1000.
Y37.722
Y38.04 Z-7.183
Z5. F600.
X34.682
Z-6.865 F300.
Z-8.683
Y37.722 Z-9. F1000.
Y37.405
X35. Y37.088
X218.413 F600.
Y41.5
G2 X220. Y43.088 I1.587 J0.
G1 X270.
G2 X271.587 Y41.5 I0. J-1.588
G1 Y8.5
G2 X270. Y6.912 I-1.587 J0.
G1 X220.
G2 X218.413 Y8.5 I0. J1.588
G1 Y12.913
X35.
G2 X33.412 Y14.5 I0. J1.587
G1 Y35.5
G2 X35. Y37.088 I1.588 J0.
G1 X35.318 Y37.405 F1000.
Y37.722
Y38.04 Z-8.683
Z5. F600.
X34.682
Z-8.365 F300.
Z-10.183
Y37.722 Z-10.5 F1000.
Y37.405
X35. Y37.088
X218.413 F600.
Y41.5
G2 X220. Y43.088 I1.587 J0.
G1 X270.
G2 X271.587 Y41.5 I0. J-1.588
G1 Y8.5
G2 X270. Y6.912 I-1.587 J0.
G1 X220.
G2 X218.413 Y8.5 I0. J1.588
G1 Y12.913
X35.
G2 X33.412 Y14.5 I0. J1.587
G1 Y35.5
G2 X35. Y37.088 I1.588 J0.
G1 X35.318 Y37.405 F1000.
Y37.722
Y38.04 Z-10.183
Z5. F600.
X34.682
Z-9.865 F300.
Z-11.683
Y37.722 Z-12. F1000.
Y37.405
X35. Y37.088
X218.413 F600.
Y41.5
G2 X220. Y43.088 I1.587 J0.
G1 X270.
G2 X271.587 Y41.5 I0. J-1.588
G1 Y8.5
G2 X270. Y6.912 I-1.587 J0.
G1 X220.
G2 X218.413 Y8.5 I0. J1.588
G1 Y12.913
X35.
G2 X33.412 Y14.5 I0. J1.587
G1 Y35.5
G2 X35. Y37.088 I1.588 J0.
G1 X35.318 Y37.405 F1000.
Y37.722
Y38.04 Z-11.683
Z5. F600.
X34.682
Z-11.365 F300.
Z-13.183
Y37.722 Z-13.5 F1000.
Y37.405
X35. Y37.088
X218.413 F600.
Y41.5
G2 X220. Y43.088 I1.587 J0.
G1 X270.
G2 X271.587 Y41.5 I0. J-1.588
G1 Y8.5
G2 X270. Y6.912 I-1.587 J0.
G1 X220.
G2 X218.413 Y8.5 I0. J1.588
G1 Y12.913
X35.
G2 X33.412 Y14.5 I0. J1.587
G1 Y35.5
G2 X35. Y37.088 I1.588 J0.
G1 X35.318 Y37.405 F1000.
Y37.722
Y38.04 Z-13.183
Z5. F600.
X34.682
Z-12.865 F300.
Z-14.683
Y37.722 Z-15. F1000.
Y37.405
X35. Y37.088
X218.413 F600.
Y41.5
G2 X220. Y43.088 I1.587 J0.
G1 X270.
G2 X271.587 Y41.5 I0. J-1.588
G1 Y8.5
G2 X270. Y6.912 I-1.587 J0.
G1 X220.
G2 X218.413 Y8.5 I0. J1.588
G1 Y12.913
X35.
G2 X33.412 Y14.5 I0. J1.587
G1 Y35.5
G2 X35. Y37.088 I1.588 J0.
G1 X35.318 Y37.405 F1000.
Y37.722
Y38.04 Z-14.683
Z5. F600.
X34.682
Z-14.365 F300.
Z-16.183
Y37.722 Z-16.5 F1000.
Y37.405
X35. Y37.088
X218.413 F600.
Y41.5
G2 X220. Y43.088 I1.587 J0.
G1 X270.
G2 X271.587 Y41.5 I0. J-1.588
G1 Y8.5
G2 X270. Y6.912 I-1.587 J0.
G1 X220.
G2 X218.413 Y8.5 I0. J1.588
G1 Y12.913
X35.
G2 X33.412 Y14.5 I0. J1.587
G1 Y35.5
G2 X35. Y37.088 I1.588 J0.
G1 X35.318 Y37.405 F1000.
Y37.722
Y38.04 Z-16.183
Z5. F600.
X34.682
Z-15.865 F300.
Z-17.683
Y37.722 Z-18. F1000.
Y37.405
X35. Y37.088
X218.413 F600.
Y41.5
G2 X220. Y43.088 I1.587 J0.
G1 X270.
G2 X271.587 Y41.5 I0. J-1.588
G1 Y8.5
G2 X270. Y6.912 I-1.587 J0.
G1 X220.
G2 X218.413 Y8.5 I0. J1.588
G1 Y12.913
X35.
G2 X33.412 Y14.5 I0. J1.587
G1 Y35.5
G2 X35. Y37.088 I1.588 J0.
G1 X35.318 Y37.405 F1000.
Y37.722
Y38.04 Z-17.683
Z5. F600.
X34.682
Z-17.365 F300.
Z-19.183
Y37.722 Z-19.5 F1000.
Y37.405
X35. Y37.088
X218.413 F600.
Y41.5
G2 X220. Y43.088 I1.587 J0.
G1 X270.
G2 X271.587 Y41.5 I0. J-1.588
G1 Y8.5
G2 X270. Y6.912 I-1.587 J0.
G1 X220.
G2 X218.413 Y8.5 I0. J1.588
G1 Y12.913
X35.
G2 X33.412 Y14.5 I0. J1.587
G1 Y35.5
G2 X35. Y37.088 I1.588 J0.
G1 X35.318 Y37.405 F1000.
Y37.722
Y38.04 Z-19.183
Z5. F600.
X34.682
Z-18.865 F300.
Z-20.683
Y37.722 Z-21. F1000.
Y37.405
X35. Y37.088
X218.413 F600.
Y41.5
G2 X220. Y43.088 I1.587 J0.
G1 X270.
G2 X271.587 Y41.5 I0. J-1.588
G1 Y8.5
G2 X270. Y6.912 I-1.587 J0.
G1 X220.
G2 X218.413 Y8.5 I0. J1.588
G1 Y12.913
X35.
G2 X33.412 Y14.5 I0. J1.587
G1 Y35.5
G2 X35. Y37.088 I1.588 J0.
G1 X35.318 Y37.405 F1000.
Y37.722
Y38.04 Z-20.683
Z5. F600.
X34.682
Z-20.365 F300.
Z-22.183
Y37.722 Z-22.5 F1000.
Y37.405
X35. Y37.088
X218.413 F600.
Y41.5
G2 X220. Y43.088 I1.587 J0.
G1 X270.
G2 X271.587 Y41.5 I0. J-1.588
G1 Y8.5
G2 X270. Y6.912 I-1.587 J0.
G1 X220.
G2 X218.413 Y8.5 I0. J1.588
G1 Y12.913
X35.
G2 X33.412 Y14.5 I0. J1.587
G1 Y35.5
G2 X35. Y37.088 I1.588 J0.
G1 X35.318 Y37.405 F1000.
Y37.722
Y38.04 Z-22.183
Z5. F600.
X34.682
Z-21.865 F300.
Z-23.683
Y37.722 Z-24. F1000.
Y37.405
X35. Y37.088
X218.413 F600.
Y41.5
G2 X220. Y43.088 I1.587 J0.
G1 X270.
G2 X271.587 Y41.5 I0. J-1.588
G1 Y8.5
G2 X270. Y6.912 I-1.587 J0.
G1 X220.
G2 X218.413 Y8.5 I0. J1.588
G1 Y12.913
X35.
G2 X33.412 Y14.5 I0. J1.587
G1 Y35.5
G2 X35. Y37.088 I1.588 J0.
G1 X35.318 Y37.405 F1000.
Y37.722
Y38.04 Z-23.683
Z5. F600.
X34.682
Z-23.365 F300.
Z-25.183
Y37.722 Z-25.5 F1000.
Y37.405
X35. Y37.088
X218.413 F600.
Y41.5
G2 X220. Y43.088 I1.587 J0.
G1 X270.
G2 X271.587 Y41.5 I0. J-1.588
G1 Y8.5
G2 X270. Y6.912 I-1.587 J0.
G1 X220.
G2 X218.413 Y8.5 I0. J1.588
G1 Y12.913
X35.
G2 X33.412 Y14.5 I0. J1.587
G1 Y35.5
G2 X35. Y37.088 I1.588 J0.
G1 X35.318 Y37.405 F1000.
Y37.722
Y38.04 Z-25.183
Z5. F600.
X34.682
Z-24.865 F300.
Z-26.683
Y37.722 Z-27. F1000.
Y37.405
X35. Y37.088
X218.413 F600.
Y41.5
G2 X220. Y43.088 I1.587 J0.
G1 X270.
G2 X271.587 Y41.5 I0. J-1.588
G1 Y8.5
G2 X270. Y6.912 I-1.587 J0.
G1 X220.
G2 X218.413 Y8.5 I0. J1.588
G1 Y12.913
X35.
G2 X33.412 Y14.5 I0. J1.587
G1 Y35.5
G2 X35. Y37.088 I1.588 J0.
G1 X35.318 Y37.405 F1000.
Y37.722
Y38.04 Z-26.683
Z5. F600.
X34.682
Z-26.365 F300.
Z-28.183
Y37.722 Z-28.5 F1000.
Y37.405
X35. Y37.088
X218.413 F600.
Y41.5
G2 X220. Y43.088 I1.587 J0.
G1 X270.
G2 X271.587 Y41.5 I0. J-1.588
G1 Y8.5
G2 X270. Y6.912 I-1.587 J0.
G1 X220.
G2 X218.413 Y8.5 I0. J1.588
G1 Y12.913
X35.
G2 X33.412 Y14.5 I0. J1.587
G1 Y35.5
G2 X35. Y37.088 I1.588 J0.
G1 X35.318 Y37.405 F1000.
Y37.722
Y38.04 Z-28.183
Z5. F600.
X34.682
Z-27.865 F300.
Z-28.683
Y37.722 Z-29. F1000.
Y37.405
X35. Y37.088
X218.413 F600.
Y41.5
G2 X220. Y43.088 I1.587 J0.
G1 X270.
G2 X271.587 Y41.5 I0. J-1.588
G1 Y8.5
G2 X270. Y6.912 I-1.587 J0.
G1 X220.
G2 X218.413 Y8.5 I0. J1.588
G1 Y12.913
X35.
G2 X33.412 Y14.5 I0. J1.587
G1 Y35.5
G2 X35. Y37.088 I1.588 J0.
G1 X35.318 Y37.405 F1000.
Y37.722
Y38.04 Z-28.683
Z15. F600.
M5
M400
M852
G28
M30
