(H4_03_T2_FILLET_FINISH)
(T2  2 Flute Ball Nose 3.175*22      D=3.175 CR=1.588 - ZMIN=-3.961 - ball end mill)
( =================================================== )
(   Z Origin Set To   : Stock Top )
(   Stock Height                    : 30. mm )
(   Toolpath Z Maximum from Stock Top: 15. mm )
(   Toolpath Z Min from Stock Top: -3.961 mm )
(  )
( =================================================== )

( The following values are based on the part position info used in fusion and can be used to roughly align the machine offset from anchor 1 if you use that feature. )
(   X Offset   : 1. mm )
(   Y Offset   : 0. mm )

( =================================================== )

G90 G94
G17
G21
(When using Fusion for Personal Use, the feedrate of rapid)
(moves is reduced to match the feedrate of cutting moves,)
(which can increase machining time. Unrestricted rapid moves)
(are available with a Fusion Subscription.)

(H4_T2_FILLET_FINISH)
M6 T2 
(6)
M400
M851 S100
S18000 M3
G54
G0 X270.32 Y8.491
Z15.
G1 Z0.986 F1500.
Z-0.683 F200.
X270.002 Z-1. F1500.
X219.959 Z-1.001
X219.776 Z-1.016
X219.606 Z-1.05
X219.44 Z-1.102
X219.28 Z-1.173
X219.127 Z-1.262
X218.984 Z-1.368
X218.852 Z-1.491
X218.734 Z-1.63
X218.631 Z-1.784
X218.545 Z-1.953
X218.477 Z-2.14
X218.43 Z-2.353
X218.417 Z-2.472
X218.412 Z-3.961
X35.656
X35.498 Z-3.802
Z-3.798
X35.34 Y8.509 Z-3.639
X33.392 Y8.726
X33.234 Y8.743 Z-3.798
X33.446 Z-3.947
X33.767 Z-3.832
X33.954 Z-3.78
X34.395 Z-3.688
X34.921 Z-3.648
X218.409 Z-3.645
X218.413 Z-2.587
X218.42 Z-2.438
X218.433 Z-2.33
X218.459 Z-2.206
X218.52 Z-2.013
X218.601 Z-1.838
X218.698 Z-1.679
X218.812 Z-1.535
X218.939 Z-1.406
X219.079 Z-1.295
X219.229 Z-1.2
X219.387 Z-1.123
X219.551 Z-1.065
X219.72 Z-1.025
X219.929 Z-1.002
X270.01 Z-1.
X270.08 Z-0.984
X270.15 Z-0.968
X270.276 Y8.869
X270.15 Y8.995
X270.08 Z-0.984
X270.01 Z-1.
X219.929 Z-1.002
X219.72 Z-1.025
X219.551 Z-1.065
X219.387 Z-1.123
X219.229 Z-1.2
X219.079 Z-1.295
X218.939 Z-1.406
X218.812 Z-1.535
X218.698 Z-1.679
X218.601 Z-1.838
X218.52 Z-2.013
X218.459 Z-2.206
X218.433 Z-2.33
X218.42 Z-2.438
X218.413 Z-2.587
X218.409 Z-3.372
X34.921 Z-3.374
X34.461 Z-3.404
X34.122 Z-3.465
X33.934 Z-3.502
X33.746 Z-3.552
X33.329 Z-3.689
X32.926 Z-3.872
X32.822 Z-3.923
X32.593 Z-3.781
Z-3.778
X32.359 Y9.121 Z-3.512
X32.125 Y9.247 Z-3.778
X32.365 Z-3.914
X32.77 Z-3.672
X33.297 Z-3.429
X33.856 Z-3.253
X34.115 Z-3.204
X34.455 Z-3.148
X34.915 Z-3.12
X218.41 Z-3.117
X218.413 Z-2.57
X218.42 Z-2.438
X218.433 Z-2.33
X218.459 Z-2.206
X218.52 Z-2.013
X218.601 Z-1.838
X218.698 Z-1.679
X218.812 Z-1.535
X218.939 Z-1.406
X219.079 Z-1.295
X219.229 Z-1.2
X219.387 Z-1.123
X219.551 Z-1.065
X219.72 Z-1.025
X219.929 Z-1.002
X270.01 Z-1.
X270.08 Z-0.984
X270.15 Z-0.968
X270.276 Y9.373
X270.15 Y9.499
X270.08 Z-0.984
X270.01 Z-1.
X219.929 Z-1.002
X219.72 Z-1.025
X219.551 Z-1.065
X219.387 Z-1.123
X219.229 Z-1.2
X219.079 Z-1.295
X218.939 Z-1.406
X218.812 Z-1.535
X218.698 Z-1.679
X218.601 Z-1.838
X218.52 Z-2.013
X218.459 Z-2.206
X218.433 Z-2.33
X218.42 Z-2.438
X218.413 Z-2.57
X218.411 Z-2.884
X34.918 Z-2.887
X34.458 Z-2.915
X34.118 Z-2.971
X33.93 Z-3.005
X33.761 Z-3.047
X33.322 Z-3.18
X32.783 Z-3.408
X32.362 Z-3.644
X32.145 Z-3.787
X31.994 Z-3.903
X31.897 Z-3.936
X31.589
X31.567 Y9.501
X31.545 Y9.507 Z-3.935
X31.525 Y9.516 Z-3.934
X31.507 Y9.529 Z-3.932
X31.491 Y9.544 Z-3.93
X31.479 Y9.562 Z-3.928
X31.469 Y9.582 Z-3.926
X31.464 Y9.603 Z-3.923
X31.462 Y9.625 Z-3.92
X31.464 Y9.647 Z-3.917
X31.469 Y9.668 Z-3.915
X31.479 Y9.688 Z-3.912
X31.491 Y9.706 Z-3.91
X31.507 Y9.722 Z-3.908
X31.525 Y9.734 Z-3.907
X31.545 Y9.744 Z-3.905
X31.567 Y9.749
X31.589 Y9.751
X31.687 Z-3.87
X31.762 Z-3.811
X32.117 Z-3.558
X32.276 Z-3.455
X32.779 Z-3.176
X33.32 Z-2.953
X33.762 Z-2.827
X33.95 Z-2.785
X34.119 Z-2.757
X34.46 Z-2.704
X34.921 Z-2.678
X218.412 Z-2.675
X218.42 Z-2.438
X218.433 Z-2.33
X218.459 Z-2.206
X218.52 Z-2.013
X218.601 Z-1.838
X218.698 Z-1.679
X218.812 Z-1.535
X218.939 Z-1.406
X219.079 Z-1.295
X219.229 Z-1.2
X219.387 Z-1.123
X219.551 Z-1.065
X219.72 Z-1.025
X219.929 Z-1.002
X270.01 Z-1.
X270.08 Z-0.984
X270.15 Z-0.968
X270.276 Y9.877
X270.15 Y10.003
X270.08 Z-0.984
X270.01 Z-1.
X219.929 Z-1.002
X219.72 Z-1.025
X219.551 Z-1.065
X219.387 Z-1.123
X219.229 Z-1.2
X219.079 Z-1.295
X218.939 Z-1.406
X218.812 Z-1.535
X218.698 Z-1.679
X218.601 Z-1.838
X218.52 Z-2.013
X218.459 Z-2.206
X218.421 Z-2.419
X218.416 Z-2.477
X34.925 Z-2.479
X34.378 Z-2.515
X33.935 Z-2.589
X33.766 Z-2.628
X33.324 Z-2.753
X32.78 Z-2.967
X32.26 Z-3.237
X31.994 Z-3.413
X31.742 Z-3.592
X31.419 Z-3.866
X31.316 Z-3.903
X31.077
X31.055 Y10.005
X31.033 Y10.011
X31.013 Y10.02 Z-3.902
X30.995 Y10.033 Z-3.901
X30.98 Y10.048 Z-3.9
X30.967 Y10.066 Z-3.899
X30.958 Y10.086 Z-3.897
X30.952 Y10.107 Z-3.896
X30.95 Y10.129 Z-3.894
X30.952 Y10.151 Z-3.893
X30.958 Y10.172 Z-3.891
X30.967 Y10.192 Z-3.89
X30.98 Y10.21 Z-3.888
X30.995 Y10.226 Z-3.887
X31.013 Y10.238 Z-3.886
X31.033 Y10.248
X31.055 Y10.253 Z-3.885
X31.077 Y10.255
X31.186 Z-3.842
X31.271 Z-3.761
X31.469 Z-3.592
X31.75 Z-3.37
X32.132 Z-3.117
X32.284 Z-3.025
X32.605 Z-2.856
X32.803 Z-2.76
X33.337 Z-2.561
X33.761 Z-2.448
X33.95 Z-2.408
X34.394 Z-2.338
X34.893 Z-2.308
X218.437 Z-2.304
X218.459 Z-2.206
X218.52 Z-2.013
X218.601 Z-1.838
X218.698 Z-1.679
X218.812 Z-1.535
X218.939 Z-1.406
X219.079 Z-1.295
X219.229 Z-1.2
X219.387 Z-1.123
X219.551 Z-1.065
X219.72 Z-1.025
X219.929 Z-1.002
X270.01 Z-1.
X270.08 Z-0.984
X270.15 Z-0.968
X270.276 Y10.381
X270.15 Y10.507
X270.08 Z-0.984
X270.01 Z-1.
X219.929 Z-1.002
X219.72 Z-1.025
X219.551 Z-1.065
X219.387 Z-1.123
X219.229 Z-1.2
X219.079 Z-1.295
X218.939 Z-1.406
X218.812 Z-1.535
X218.698 Z-1.679
X218.601 Z-1.838
X218.52 Z-2.013
X218.478 Z-2.136
X34.889 Z-2.14
X34.38 Z-2.171
X33.973 Z-2.236
X33.784 Z-2.273
X33.351 Z-2.389
X32.945 Z-2.536
X32.675 Z-2.647
X32.215 Z-2.878
X31.73 Z-3.185
X31.275 Z-3.55
X31.142 Z-3.671
X30.992 Z-3.818
X30.881 Z-3.863
X30.701
X30.679 Y10.509
X30.658 Y10.515 Z-3.862
X30.638 Y10.524 Z-3.861
X30.62 Y10.537 Z-3.86
X30.604 Y10.552 Z-3.859
X30.591 Y10.57 Z-3.857
X30.582 Y10.59 Z-3.855
X30.576 Y10.611 Z-3.853
X30.574 Y10.633 Z-3.851
X30.576 Y10.655 Z-3.849
X30.582 Y10.676 Z-3.847
X30.591 Y10.696 Z-3.845
X30.604 Y10.714 Z-3.844
X30.62 Y10.73 Z-3.842
X30.638 Y10.742 Z-3.841
X30.658 Y10.751 Z-3.84
X30.679 Y10.757
X30.701 Y10.759
X30.812 Z-3.795
X31.019 Z-3.592
X31.257 Z-3.371
X31.725 Z-3.015
X32.18 Z-2.73
X32.697 Z-2.469
X33.18 Z-2.288
X33.365 Z-2.229
X33.886 Z-2.1
X34.415 Z-2.021
X34.894 Z-1.995
X218.527 Z-1.991
X218.601 Z-1.838
X218.698 Z-1.679
X218.812 Z-1.535
X218.939 Z-1.406
X219.079 Z-1.295
X219.229 Z-1.2
X219.387 Z-1.123
X219.551 Z-1.065
X219.72 Z-1.025
X219.929 Z-1.002
X270.01 Z-1.
X270.08 Z-0.984
X270.15 Z-0.968
X270.276 Y10.885
X270.15 Y11.011
X270.08 Z-0.984
X270.01 Z-1.
X219.929 Z-1.002
X219.72 Z-1.025
X219.551 Z-1.065
X219.387 Z-1.123
X219.229 Z-1.2
X219.079 Z-1.295
X218.939 Z-1.406
X218.812 Z-1.535
X218.698 Z-1.679
X218.593 Z-1.85
X34.907 Z-1.853
X34.443 Z-1.877
X33.913 Z-1.955
X33.744 Z-1.992
X33.392 Z-2.081
X33.207 Z-2.138
X32.785 Z-2.29
X32.263 Z-2.533
X31.921 Z-2.731
X31.649 Z-2.902
X31.245 Z-3.211
X30.791 Z-3.627
X30.656 Z-3.77
X30.54 Z-3.82
X30.385
X30.363 Y11.013
X30.342 Y11.019
X30.322 Y11.028
X30.304 Y11.041
X30.288 Y11.056 Z-3.821
X30.276 Y11.074
X30.266 Y11.094
X30.261 Y11.115
X30.259 Y11.137
X30.261 Y11.159
X30.266 Y11.18
X30.276 Y11.2 Z-3.822
X30.288 Y11.218
X30.304 Y11.234
X30.322 Y11.246
X30.342 Y11.255
X30.363 Y11.261
X30.385 Y11.263
X30.502 Z-3.77
X30.523 Z-3.748
X30.709 Z-3.543
X30.814 Z-3.436
X31.242 Z-3.058
X31.732 Z-2.703
X32.195 Z-2.428
X32.761 Z-2.162
X33.341 Z-1.964
X33.768 Z-1.86
X33.957 Z-1.824
X34.316 Z-1.772
X34.51 Z-1.752
X34.878 Z-1.734
X218.655 Z-1.73
X218.669 Z-1.723
X218.812 Z-1.535
X218.939 Z-1.406
X219.079 Z-1.295
X219.229 Z-1.2
X219.387 Z-1.123
X219.551 Z-1.065
X219.72 Z-1.025
X219.929 Z-1.002
X270.01 Z-1.
X270.08 Z-0.984
X270.15 Z-0.968
X270.276 Y11.389
X270.15 Y11.515
X270.08 Z-0.984
X270.01 Z-1.
X219.929 Z-1.002
X219.72 Z-1.025
X219.551 Z-1.065
X219.387 Z-1.123
X219.229 Z-1.2
X219.079 Z-1.295
X218.939 Z-1.406
X218.812 Z-1.535
X218.746 Z-1.614
X34.894 Z-1.617
X34.37 Z-1.648
X33.946 Z-1.709
X33.757 Z-1.746
X33.321 Z-1.853
X32.777 Z-2.039
X32.261 Z-2.271
X31.957 Z-2.44
X31.663 Z-2.614
X31.207 Z-2.944
X30.738 Z-3.36
X30.408 Z-3.707
X30.293 Z-3.756
X30.16
X30.138 Y11.517
X30.117 Y11.523
X30.097 Y11.532 Z-3.757
X30.079 Y11.545
X30.063 Y11.56
X30.051 Y11.578 Z-3.758
X30.041 Y11.598
X30.036 Y11.619 Z-3.759
X30.034 Y11.641 Z-3.76
X30.036 Y11.663
X30.041 Y11.684 Z-3.761
X30.051 Y11.704
X30.063 Y11.722 Z-3.762
X30.079 Y11.738
X30.097 Y11.75 Z-3.763
X30.117 Y11.759
X30.138 Y11.765
X30.16 Y11.767
X30.281 Z-3.707
X30.301 Z-3.685
X30.35 Z-3.628
X30.589 Z-3.375
X30.812 Z-3.153
X31.263 Z-2.777
X31.639 Z-2.514
X31.788 Z-2.42
X32.18 Z-2.196
X32.709 Z-1.953
X33.33 Z-1.743
X33.776 Z-1.637
X33.966 Z-1.603
X34.403 Z-1.542
X34.899 Z-1.516
X218.83 Z-1.513
X218.939 Z-1.406
X219.079 Z-1.295
X219.229 Z-1.2
X219.387 Z-1.123
X219.551 Z-1.065
X219.72 Z-1.025
X219.929 Z-1.002
X270.01 Z-1.
X270.08 Z-0.984
X270.15 Z-0.968
X270.276 Y11.893
X270.15 Y12.019
X270.08 Z-0.984
X270.01 Z-1.
X219.929 Z-1.002
X219.72 Z-1.025
X219.551 Z-1.065
X219.387 Z-1.123
X219.229 Z-1.2
X219.079 Z-1.295
X218.918 Z-1.42
X34.899 Z-1.423
X34.392 Z-1.451
X33.82 Z-1.534
X33.257 Z-1.671
X32.83 Z-1.814
X32.649 Z-1.885
X32.317 Z-2.032
X32.142 Z-2.117
X31.741 Z-2.34
X31.231 Z-2.685
X30.751 Z-3.091
X30.363 Z-3.482
X30.219 Z-3.65
X30.099 Z-3.705
X30.031
X30.009 Y12.021
X29.988 Y12.027 Z-3.704
X29.968 Y12.036 Z-3.703
X29.949 Y12.048 Z-3.701
X29.934 Y12.064 Z-3.699
X29.921 Y12.082 Z-3.696
X29.912 Y12.102 Z-3.694
X29.906 Y12.123 Z-3.691
X29.904 Y12.145 Z-3.688
X29.906 Y12.167 Z-3.684
X29.912 Y12.188 Z-3.681
X29.921 Y12.208 Z-3.679
X29.934 Y12.226 Z-3.676
X29.949 Y12.241 Z-3.674
X29.968 Y12.254 Z-3.672
X29.988 Y12.263 Z-3.671
X30.009 Y12.269 Z-3.67
X30.031 Y12.271
X30.153 Z-3.613
X30.327 Z-3.405
X30.76 Z-2.975
X31.245 Z-2.579
X31.617 Z-2.327
X31.767 Z-2.232
X32.239 Z-1.974
X32.731 Z-1.758
X33.228 Z-1.591
X33.741 Z-1.466
X33.93 Z-1.43
X34.376 Z-1.369
X34.929 Z-1.339
X219.006 Z-1.337
X219.028 Z-1.332
X219.229 Z-1.2
X219.387 Z-1.123
X219.551 Z-1.065
X219.72 Z-1.025
X219.929 Z-1.002
X270.01 Z-1.
X270.08 Z-0.984
X270.15 Z-0.968
X270.276 Y12.397
X270.15 Y12.523
X270.08 Z-0.984
X270.01 Z-1.
X219.929 Z-1.002
X219.72 Z-1.025
X219.551 Z-1.065
X219.387 Z-1.123
X219.229 Z-1.2
X219.119 Z-1.266
X34.899 Z-1.269
X34.39 Z-1.296
X33.818 Z-1.378
X33.273 Z-1.506
X32.844 Z-1.645
X32.663 Z-1.713
X32.26 Z-1.887
X31.742 Z-2.162
X31.196 Z-2.524
X30.77 Z-2.872
X30.375 Z-3.256
X30.09 Z-3.58
X29.971 Z-3.634
X29.928
X29.906 Y12.525
X29.885 Y12.531 Z-3.633
X29.864 Y12.54 Z-3.631
X29.846 Y12.552 Z-3.629
X29.83 Y12.568 Z-3.626
X29.818 Y12.586 Z-3.623
X29.808 Y12.606 Z-3.62
X29.802 Y12.627 Z-3.616
X29.8 Y12.649 Z-3.612
X29.802 Y12.671 Z-3.609
X29.808 Y12.692 Z-3.605
X29.818 Y12.712 Z-3.601
X29.83 Y12.73 Z-3.598
X29.846 Y12.745 Z-3.596
X29.864 Y12.758 Z-3.594
X29.885 Y12.767 Z-3.592
X29.906 Y12.773 Z-3.591
X29.928 Y12.775
X30.048 Z-3.536
X30.351 Z-3.189
X30.684 Z-2.872
X30.885 Z-2.699
X31.265 Z-2.402
X31.749 Z-2.087
X32.143 Z-1.874
X32.319 Z-1.79
X32.698 Z-1.627
X33.242 Z-1.445
X33.792 Z-1.315
X34.358 Z-1.233
X34.888 Z-1.203
X219.225 Z-1.199
X219.387 Z-1.123
X219.551 Z-1.065
X219.72 Z-1.025
X219.929 Z-1.002
X270.01 Z-1.
X270.08 Z-0.984
X270.15 Z-0.968
X270.276 Y12.901
X270.15 Y13.027
X270.08 Z-0.984
X270.01 Z-1.
X219.929 Z-1.002
X219.72 Z-1.025
X219.551 Z-1.065
X219.325 Z-1.149
X34.893 Z-1.152
X34.406 Z-1.177
X33.875 Z-1.248
X33.352 Z-1.363
X33.021 Z-1.464
X32.858 Z-1.517
X32.676 Z-1.582
X32.254 Z-1.761
X31.735 Z-2.032
X31.186 Z-2.389
X30.718 Z-2.767
X30.349 Z-3.121
X30.021 Z-3.49
X29.902 Z-3.543
X29.888
X29.865 Y13.029 Z-3.542
X29.844 Y13.035 Z-3.541
X29.823 Y13.044 Z-3.539
X29.805 Y13.056 Z-3.537
X29.789 Y13.072 Z-3.533
X29.776 Y13.09 Z-3.53
X29.767 Y13.11 Z-3.525
X29.761 Y13.131 Z-3.521
X29.759 Y13.153 Z-3.516
X29.761 Y13.175 Z-3.512
X29.767 Y13.196 Z-3.507
X29.776 Y13.216 Z-3.503
X29.789 Y13.234 Z-3.499
X29.805 Y13.249 Z-3.496
X29.823 Y13.262 Z-3.493
X29.844 Y13.271 Z-3.491
X29.865 Y13.277 Z-3.49
X29.888 Y13.279
X30.005 Z-3.438
X30.369 Z-3.038
X30.801 Z-2.64
X31.162 Z-2.357
X31.306 Z-2.256
X31.611 Z-2.059
X31.762 Z-1.967
X32.239 Z-1.717
X32.733 Z-1.509
X33.243 Z-1.343
X33.786 Z-1.215
X34.357 Z-1.132
X34.899 Z-1.102
X219.447 Z-1.099
X219.551 Z-1.065
X219.72 Z-1.025
X219.929 Z-1.002
X270.01 Z-1.
X270.08 Z-0.984
X270.15 Z-0.968
X270.276 Y13.405
X270.15 Y13.531
X270.08 Z-0.984
X270.01 Z-1.
X219.929 Z-1.002
X219.72 Z-1.025
X219.534 Z-1.066
X34.884 Z-1.07
X34.414 Z-1.093
X33.818 Z-1.174
X33.379 Z-1.272
X33.192 Z-1.323
X32.774 Z-1.457
X32.278 Z-1.66
X31.883 Z-1.86
X31.64 Z-1.996
X31.204 Z-2.278
X30.719 Z-2.661
X30.374 Z-2.983
X30. Z-3.392
X29.883 Z-3.444
X29.879
X29.857 Y13.533
X29.836 Y13.538 Z-3.443
X29.815 Y13.548 Z-3.442
X29.797 Y13.56 Z-3.44
X29.782 Y13.576 Z-3.438
X29.769 Y13.594 Z-3.435
X29.759 Y13.614 Z-3.432
X29.754 Y13.635 Z-3.429
X29.752 Y13.657 Z-3.426
X29.754 Y13.679 Z-3.423
X29.759 Y13.7 Z-3.419
X29.769 Y13.72 Z-3.417
X29.782 Y13.738 Z-3.414
X29.797 Y13.753 Z-3.412
X29.815 Y13.766 Z-3.41
X29.836 Y13.775 Z-3.408
X29.857 Y13.781
X29.879 Y13.783 Z-3.407
X29.996 Z-3.356
X30.364 Z-2.956
X30.762 Z-2.591
X31.242 Z-2.221
X31.704 Z-1.926
X31.959 Z-1.791
X32.269 Z-1.634
X32.765 Z-1.43
X33.323 Z-1.255
X33.884 Z-1.133
X34.357 Z-1.069
X34.895 Z-1.04
X219.635 Z-1.037
X219.72 Z-1.025
X219.929 Z-1.002
X270.01 Z-1.
X270.08 Z-0.984
X270.15 Z-0.968
X270.276 Y13.909
X270.15 Y14.035
X270.08 Z-0.984
X270.01 Z-1.
X219.929 Z-1.002
X219.72 Z-1.017
X34.875 Z-1.021
X34.424 Z-1.042
X33.891 Z-1.111
X33.321 Z-1.235
X32.763 Z-1.409
X32.266 Z-1.612
X31.956 Z-1.768
X31.701 Z-1.903
X31.173 Z-2.244
X30.714 Z-2.605
X30.311 Z-2.981
X29.991 Z-3.331
X29.874 Z-3.383
X29.861
X29.839 Y14.037
X29.818 Y14.042
X29.798 Y14.052
X29.78 Y14.064
X29.764 Y14.08
X29.752 Y14.098
X29.743 Y14.118
X29.737 Y14.139
X29.735 Y14.161
X29.737 Y14.183
X29.743 Y14.204
X29.752 Y14.224
X29.764 Y14.242 Z-3.384
X29.78 Y14.257
X29.798 Y14.27
X29.818 Y14.279
X29.839 Y14.285
X29.861 Y14.287
X29.979 Z-3.331
X29.99 Z-3.319
X29.997 Z-3.312
X30.373 Z-2.907
X30.795 Z-2.525
X31.255 Z-2.176
X31.633 Z-1.935
X31.785 Z-1.847
X32.147 Z-1.659
X32.442 Z-1.529
X32.803 Z-1.385
X33.338 Z-1.221
X33.776 Z-1.123
X33.946 Z-1.094
X34.371 Z-1.038
X34.899 Z-1.01
X219.707 Z-1.007
X219.929 Z-1.002
X270.01 Z-1.
X270.08 Z-0.984
X270.15 Z-0.968
X270.276 Y14.413
X270.15 Y14.539
X270.08 Z-0.984
X270.01 Z-1.
X34.905 Z-1.003
X34.359 Z-1.032
X33.799 Z-1.111
X33.234 Z-1.242
X32.846 Z-1.364
X32.664 Z-1.43
X32.329 Z-1.569
X32.152 Z-1.649
X31.746 Z-1.861
X31.249 Z-2.172
X30.781 Z-2.528
X30.381 Z-2.892
X30.139 Z-3.148
X29.99 Z-3.311
X29.873 Z-3.363
X29.747 Y14.665
X29.873 Y14.791
X29.99 Z-3.311
X30.139 Z-3.148
X30.381 Z-2.892
X30.781 Z-2.528
X31.249 Z-2.172
X31.746 Z-1.861
X32.152 Z-1.649
X32.329 Z-1.569
X32.664 Z-1.43
X32.846 Z-1.364
X33.234 Z-1.242
X33.799 Z-1.111
X34.359 Z-1.032
X34.905 Z-1.003
X270.01 Z-1.
X270.08 Z-0.984
X270.15 Z-0.968
X270.276 Y14.917
X270.15 Y15.043
X270.08 Z-0.984
X270.01 Z-1.
X34.905 Z-1.003
X34.359 Z-1.032
X33.799 Z-1.111
X33.234 Z-1.242
X32.846 Z-1.364
X32.664 Z-1.43
X32.329 Z-1.569
X32.152 Z-1.649
X31.746 Z-1.861
X31.249 Z-2.172
X30.781 Z-2.528
X30.381 Z-2.892
X30.139 Z-3.148
X29.99 Z-3.311
X29.873 Z-3.363
X29.747 Y15.169
X29.873 Y15.295
X29.99 Z-3.311
X30.139 Z-3.148
X30.381 Z-2.892
X30.781 Z-2.528
X31.249 Z-2.172
X31.746 Z-1.861
X32.152 Z-1.649
X32.329 Z-1.569
X32.664 Z-1.43
X32.846 Z-1.364
X33.234 Z-1.242
X33.799 Z-1.111
X34.359 Z-1.032
X34.905 Z-1.003
X270.01 Z-1.
X270.08 Z-0.984
X270.15 Z-0.968
X270.276 Y15.421
X270.15 Y15.547
X270.08 Z-0.984
X270.01 Z-1.
X34.905 Z-1.003
X34.359 Z-1.032
X33.799 Z-1.111
X33.234 Z-1.242
X32.846 Z-1.364
X32.664 Z-1.43
X32.329 Z-1.569
X32.152 Z-1.649
X31.746 Z-1.861
X31.249 Z-2.172
X30.781 Z-2.528
X30.381 Z-2.892
X30.139 Z-3.148
X29.99 Z-3.311
X29.873 Z-3.363
X29.747 Y15.673
X29.873 Y15.799
X29.99 Z-3.311
X30.139 Z-3.148
X30.381 Z-2.892
X30.781 Z-2.528
X31.249 Z-2.172
X31.746 Z-1.861
X32.152 Z-1.649
X32.329 Z-1.569
X32.664 Z-1.43
X32.846 Z-1.364
X33.234 Z-1.242
X33.799 Z-1.111
X34.359 Z-1.032
X34.905 Z-1.003
X270.01 Z-1.
X270.08 Z-0.984
X270.15 Z-0.968
X270.276 Y15.925
X270.15 Y16.051
X270.08 Z-0.984
X270.01 Z-1.
X34.905 Z-1.003
X34.359 Z-1.032
X33.799 Z-1.111
X33.234 Z-1.242
X32.846 Z-1.364
X32.664 Z-1.43
X32.329 Z-1.569
X32.152 Z-1.649
X31.746 Z-1.861
X31.249 Z-2.172
X30.781 Z-2.528
X30.381 Z-2.892
X30.139 Z-3.148
X29.99 Z-3.311
X29.873 Z-3.363
X29.747 Y16.177
X29.873 Y16.303
X29.99 Z-3.311
X30.139 Z-3.148
X30.381 Z-2.892
X30.781 Z-2.528
X31.249 Z-2.172
X31.746 Z-1.861
X32.152 Z-1.649
X32.329 Z-1.569
X32.664 Z-1.43
X32.846 Z-1.364
X33.234 Z-1.242
X33.799 Z-1.111
X34.359 Z-1.032
X34.905 Z-1.003
X270.01 Z-1.
X270.08 Z-0.984
X270.15 Z-0.968
X270.276 Y16.429
X270.15 Y16.555
X270.08 Z-0.984
X270.01 Z-1.
X34.905 Z-1.003
X34.359 Z-1.032
X33.799 Z-1.111
X33.234 Z-1.242
X32.846 Z-1.364
X32.664 Z-1.43
X32.329 Z-1.569
X32.152 Z-1.649
X31.746 Z-1.861
X31.249 Z-2.172
X30.781 Z-2.528
X30.381 Z-2.892
X30.139 Z-3.148
X29.99 Z-3.311
X29.873 Z-3.363
X29.747 Y16.681
X29.873 Y16.807
X29.99 Z-3.311
X30.139 Z-3.148
X30.381 Z-2.892
X30.781 Z-2.528
X31.249 Z-2.172
X31.746 Z-1.861
X32.152 Z-1.649
X32.329 Z-1.569
X32.664 Z-1.43
X32.846 Z-1.364
X33.234 Z-1.242
X33.799 Z-1.111
X34.359 Z-1.032
X34.905 Z-1.003
X270.01 Z-1.
X270.08 Z-0.984
X270.15 Z-0.968
X270.276 Y16.933
X270.15 Y17.059
X270.08 Z-0.984
X270.01 Z-1.
X34.905 Z-1.003
X34.359 Z-1.032
X33.799 Z-1.111
X33.234 Z-1.242
X32.846 Z-1.364
X32.664 Z-1.43
X32.329 Z-1.569
X32.152 Z-1.649
X31.746 Z-1.861
X31.249 Z-2.172
X30.781 Z-2.528
X30.381 Z-2.892
X30.139 Z-3.148
X29.99 Z-3.311
X29.873 Z-3.363
X29.747 Y17.185
X29.873 Y17.311
X29.99 Z-3.311
X30.139 Z-3.148
X30.381 Z-2.892
X30.781 Z-2.528
X31.249 Z-2.172
X31.746 Z-1.861
X32.152 Z-1.649
X32.329 Z-1.569
X32.664 Z-1.43
X32.846 Z-1.364
X33.234 Z-1.242
X33.799 Z-1.111
X34.359 Z-1.032
X34.905 Z-1.003
X270.01 Z-1.
X270.08 Z-0.984
X270.15 Z-0.968
X270.276 Y17.437
X270.15 Y17.563
X270.08 Z-0.984
X270.01 Z-1.
X34.905 Z-1.003
X34.359 Z-1.032
X33.799 Z-1.111
X33.234 Z-1.242
X32.846 Z-1.364
X32.664 Z-1.43
X32.329 Z-1.569
X32.152 Z-1.649
X31.746 Z-1.861
X31.249 Z-2.172
X30.781 Z-2.528
X30.381 Z-2.892
X30.139 Z-3.148
X29.99 Z-3.311
X29.873 Z-3.363
X29.747 Y17.689
X29.873 Y17.815
X29.99 Z-3.311
X30.139 Z-3.148
X30.381 Z-2.892
X30.781 Z-2.528
X31.249 Z-2.172
X31.746 Z-1.861
X32.152 Z-1.649
X32.329 Z-1.569
X32.664 Z-1.43
X32.846 Z-1.364
X33.234 Z-1.242
X33.799 Z-1.111
X34.359 Z-1.032
X34.905 Z-1.003
X270.01 Z-1.
X270.08 Z-0.984
X270.15 Z-0.968
X270.276 Y17.941
X270.15 Y18.067
X270.08 Z-0.984
X270.01 Z-1.
X34.905 Z-1.003
X34.359 Z-1.032
X33.799 Z-1.111
X33.234 Z-1.242
X32.846 Z-1.364
X32.664 Z-1.43
X32.329 Z-1.569
X32.152 Z-1.649
X31.746 Z-1.861
X31.249 Z-2.172
X30.781 Z-2.528
X30.381 Z-2.892
X30.139 Z-3.148
X29.99 Z-3.311
X29.873 Z-3.363
X29.747 Y18.193
X29.873 Y18.319
X29.99 Z-3.311
X30.139 Z-3.148
X30.381 Z-2.892
X30.781 Z-2.528
X31.249 Z-2.172
X31.746 Z-1.861
X32.152 Z-1.649
X32.329 Z-1.569
X32.664 Z-1.43
X32.846 Z-1.364
X33.234 Z-1.242
X33.799 Z-1.111
X34.359 Z-1.032
X34.905 Z-1.003
X270.01 Z-1.
X270.08 Z-0.984
X270.15 Z-0.968
X270.276 Y18.444
X270.15 Y18.57
X270.08 Z-0.984
X270.01 Z-1.
X34.905 Z-1.003
X34.359 Z-1.032
X33.799 Z-1.111
X33.234 Z-1.242
X32.846 Z-1.364
X32.664 Z-1.43
X32.329 Z-1.569
X32.152 Z-1.649
X31.746 Z-1.861
X31.249 Z-2.172
X30.781 Z-2.528
X30.381 Z-2.892
X30.139 Z-3.148
X29.99 Z-3.311
X29.873 Z-3.363
X29.747 Y18.696
X29.873 Y18.822
X29.99 Z-3.311
X30.139 Z-3.148
X30.381 Z-2.892
X30.781 Z-2.528
X31.249 Z-2.172
X31.746 Z-1.861
X32.152 Z-1.649
X32.329 Z-1.569
X32.664 Z-1.43
X32.846 Z-1.364
X33.234 Z-1.242
X33.799 Z-1.111
X34.359 Z-1.032
X34.905 Z-1.003
X270.01 Z-1.
X270.08 Z-0.984
X270.15 Z-0.968
X270.276 Y18.948
X270.15 Y19.074
X270.08 Z-0.984
X270.01 Z-1.
X34.905 Z-1.003
X34.359 Z-1.032
X33.799 Z-1.111
X33.234 Z-1.242
X32.846 Z-1.364
X32.664 Z-1.43
X32.329 Z-1.569
X32.152 Z-1.649
X31.746 Z-1.861
X31.249 Z-2.172
X30.781 Z-2.528
X30.381 Z-2.892
X30.139 Z-3.148
X29.99 Z-3.311
X29.873 Z-3.363
X29.747 Y19.2
X29.873 Y19.326
X29.99 Z-3.311
X30.139 Z-3.148
X30.381 Z-2.892
X30.781 Z-2.528
X31.249 Z-2.172
X31.746 Z-1.861
X32.152 Z-1.649
X32.329 Z-1.569
X32.664 Z-1.43
X32.846 Z-1.364
X33.234 Z-1.242
X33.799 Z-1.111
X34.359 Z-1.032
X34.905 Z-1.003
X270.01 Z-1.
X270.08 Z-0.984
X270.15 Z-0.968
X270.276 Y19.452
X270.15 Y19.578
X270.08 Z-0.984
X270.01 Z-1.
X34.905 Z-1.003
X34.359 Z-1.032
X33.799 Z-1.111
X33.234 Z-1.242
X32.846 Z-1.364
X32.664 Z-1.43
X32.329 Z-1.569
X32.152 Z-1.649
X31.746 Z-1.861
X31.249 Z-2.172
X30.781 Z-2.528
X30.381 Z-2.892
X30.139 Z-3.148
X29.99 Z-3.311
X29.873 Z-3.363
X29.747 Y19.704
X29.873 Y19.83
X29.99 Z-3.311
X30.139 Z-3.148
X30.381 Z-2.892
X30.781 Z-2.528
X31.249 Z-2.172
X31.746 Z-1.861
X32.152 Z-1.649
X32.329 Z-1.569
X32.664 Z-1.43
X32.846 Z-1.364
X33.234 Z-1.242
X33.799 Z-1.111
X34.359 Z-1.032
X34.905 Z-1.003
X270.01 Z-1.
X270.08 Z-0.984
X270.15 Z-0.968
X270.276 Y19.956
X270.15 Y20.082
X270.08 Z-0.984
X270.01 Z-1.
X34.905 Z-1.003
X34.359 Z-1.032
X33.799 Z-1.111
X33.234 Z-1.242
X32.846 Z-1.364
X32.664 Z-1.43
X32.329 Z-1.569
X32.152 Z-1.649
X31.746 Z-1.861
X31.249 Z-2.172
X30.781 Z-2.528
X30.381 Z-2.892
X30.139 Z-3.148
X29.99 Z-3.311
X29.873 Z-3.363
X29.747 Y20.208
X29.873 Y20.334
X29.99 Z-3.311
X30.139 Z-3.148
X30.381 Z-2.892
X30.781 Z-2.528
X31.249 Z-2.172
X31.746 Z-1.861
X32.152 Z-1.649
X32.329 Z-1.569
X32.664 Z-1.43
X32.846 Z-1.364
X33.234 Z-1.242
X33.799 Z-1.111
X34.359 Z-1.032
X34.905 Z-1.003
X270.01 Z-1.
X270.08 Z-0.984
X270.15 Z-0.968
X270.276 Y20.46
X270.15 Y20.586
X270.08 Z-0.984
X270.01 Z-1.
X34.905 Z-1.003
X34.359 Z-1.032
X33.799 Z-1.111
X33.234 Z-1.242
X32.846 Z-1.364
X32.664 Z-1.43
X32.329 Z-1.569
X32.152 Z-1.649
X31.746 Z-1.861
X31.249 Z-2.172
X30.781 Z-2.528
X30.381 Z-2.892
X30.139 Z-3.148
X29.99 Z-3.311
X29.873 Z-3.363
X29.747 Y20.712
X29.873 Y20.838
X29.99 Z-3.311
X30.139 Z-3.148
X30.381 Z-2.892
X30.781 Z-2.528
X31.249 Z-2.172
X31.746 Z-1.861
X32.152 Z-1.649
X32.329 Z-1.569
X32.664 Z-1.43
X32.846 Z-1.364
X33.234 Z-1.242
X33.799 Z-1.111
X34.359 Z-1.032
X34.905 Z-1.003
X270.01 Z-1.
X270.08 Z-0.984
X270.15 Z-0.968
X270.276 Y20.964
X270.15 Y21.09
X270.08 Z-0.984
X270.01 Z-1.
X34.905 Z-1.003
X34.359 Z-1.032
X33.799 Z-1.111
X33.234 Z-1.242
X32.846 Z-1.364
X32.664 Z-1.43
X32.329 Z-1.569
X32.152 Z-1.649
X31.746 Z-1.861
X31.249 Z-2.172
X30.781 Z-2.528
X30.381 Z-2.892
X30.139 Z-3.148
X29.99 Z-3.311
X29.873 Z-3.363
X29.747 Y21.216
X29.873 Y21.342
X29.99 Z-3.311
X30.139 Z-3.148
X30.381 Z-2.892
X30.781 Z-2.528
X31.249 Z-2.172
X31.746 Z-1.861
X32.152 Z-1.649
X32.329 Z-1.569
X32.664 Z-1.43
X32.846 Z-1.364
X33.234 Z-1.242
X33.799 Z-1.111
X34.359 Z-1.032
X34.905 Z-1.003
X270.01 Z-1.
X270.08 Z-0.984
X270.15 Z-0.968
X270.276 Y21.468
X270.15 Y21.594
X270.08 Z-0.984
X270.01 Z-1.
X34.905 Z-1.003
X34.359 Z-1.032
X33.799 Z-1.111
X33.234 Z-1.242
X32.846 Z-1.364
X32.664 Z-1.43
X32.329 Z-1.569
X32.152 Z-1.649
X31.746 Z-1.861
X31.249 Z-2.172
X30.781 Z-2.528
X30.381 Z-2.892
X30.139 Z-3.148
X29.99 Z-3.311
X29.873 Z-3.363
X29.747 Y21.72
X29.873 Y21.846
X29.99 Z-3.311
X30.139 Z-3.148
X30.381 Z-2.892
X30.781 Z-2.528
X31.249 Z-2.172
X31.746 Z-1.861
X32.152 Z-1.649
X32.329 Z-1.569
X32.664 Z-1.43
X32.846 Z-1.364
X33.234 Z-1.242
X33.799 Z-1.111
X34.359 Z-1.032
X34.905 Z-1.003
X270.01 Z-1.
X270.08 Z-0.984
X270.15 Z-0.968
X270.276 Y21.972
X270.15 Y22.098
X270.08 Z-0.984
X270.01 Z-1.
X34.905 Z-1.003
X34.359 Z-1.032
X33.799 Z-1.111
X33.234 Z-1.242
X32.846 Z-1.364
X32.664 Z-1.43
X32.329 Z-1.569
X32.152 Z-1.649
X31.746 Z-1.861
X31.249 Z-2.172
X30.781 Z-2.528
X30.381 Z-2.892
X30.139 Z-3.148
X29.99 Z-3.311
X29.873 Z-3.363
X29.747 Y22.224
X29.873 Y22.35
X29.99 Z-3.311
X30.139 Z-3.148
X30.381 Z-2.892
X30.781 Z-2.528
X31.249 Z-2.172
X31.746 Z-1.861
X32.152 Z-1.649
X32.329 Z-1.569
X32.664 Z-1.43
X32.846 Z-1.364
X33.234 Z-1.242
X33.799 Z-1.111
X34.359 Z-1.032
X34.905 Z-1.003
X270.01 Z-1.
X270.08 Z-0.984
X270.15 Z-0.968
X270.276 Y22.476
X270.15 Y22.602
X270.08 Z-0.984
X270.01 Z-1.
X34.905 Z-1.003
X34.359 Z-1.032
X33.799 Z-1.111
X33.234 Z-1.242
X32.846 Z-1.364
X32.664 Z-1.43
X32.329 Z-1.569
X32.152 Z-1.649
X31.746 Z-1.861
X31.249 Z-2.172
X30.781 Z-2.528
X30.381 Z-2.892
X30.139 Z-3.148
X29.99 Z-3.311
X29.873 Z-3.363
X29.747 Y22.728
X29.873 Y22.854
X29.99 Z-3.311
X30.139 Z-3.148
X30.381 Z-2.892
X30.781 Z-2.528
X31.249 Z-2.172
X31.746 Z-1.861
X32.152 Z-1.649
X32.329 Z-1.569
X32.664 Z-1.43
X32.846 Z-1.364
X33.234 Z-1.242
X33.799 Z-1.111
X34.359 Z-1.032
X34.905 Z-1.003
X270.01 Z-1.
X270.08 Z-0.984
X270.15 Z-0.968
X270.276 Y22.98
X270.15 Y23.106
X270.08 Z-0.984
X270.01 Z-1.
X34.905 Z-1.003
X34.359 Z-1.032
X33.799 Z-1.111
X33.234 Z-1.242
X32.846 Z-1.364
X32.664 Z-1.43
X32.329 Z-1.569
X32.152 Z-1.649
X31.746 Z-1.861
X31.249 Z-2.172
X30.781 Z-2.528
X30.381 Z-2.892
X30.139 Z-3.148
X29.99 Z-3.311
X29.873 Z-3.363
X29.747 Y23.232
X29.873 Y23.358
X29.99 Z-3.311
X30.139 Z-3.148
X30.381 Z-2.892
X30.781 Z-2.528
X31.249 Z-2.172
X31.746 Z-1.861
X32.152 Z-1.649
X32.329 Z-1.569
X32.664 Z-1.43
X32.846 Z-1.364
X33.234 Z-1.242
X33.799 Z-1.111
X34.359 Z-1.032
X34.905 Z-1.003
X270.01 Z-1.
X270.08 Z-0.984
X270.15 Z-0.968
X270.276 Y23.484
X270.15 Y23.61
X270.08 Z-0.984
X270.01 Z-1.
X34.905 Z-1.003
X34.359 Z-1.032
X33.799 Z-1.111
X33.234 Z-1.242
X32.846 Z-1.364
X32.664 Z-1.43
X32.329 Z-1.569
X32.152 Z-1.649
X31.746 Z-1.861
X31.249 Z-2.172
X30.781 Z-2.528
X30.381 Z-2.892
X30.139 Z-3.148
X29.99 Z-3.311
X29.873 Z-3.363
X29.747 Y23.736
X29.873 Y23.862
X29.99 Z-3.311
X30.139 Z-3.148
X30.381 Z-2.892
X30.781 Z-2.528
X31.249 Z-2.172
X31.746 Z-1.861
X32.152 Z-1.649
X32.329 Z-1.569
X32.664 Z-1.43
X32.846 Z-1.364
X33.234 Z-1.242
X33.799 Z-1.111
X34.359 Z-1.032
X34.905 Z-1.003
X270.01 Z-1.
X270.08 Z-0.984
X270.15 Z-0.968
X270.276 Y23.988
X270.15 Y24.114
X270.08 Z-0.984
X270.01 Z-1.
X34.905 Z-1.003
X34.359 Z-1.032
X33.799 Z-1.111
X33.234 Z-1.242
X32.846 Z-1.364
X32.664 Z-1.43
X32.329 Z-1.569
X32.152 Z-1.649
X31.746 Z-1.861
X31.249 Z-2.172
X30.781 Z-2.528
X30.381 Z-2.892
X30.139 Z-3.148
X29.99 Z-3.311
X29.873 Z-3.363
X29.747 Y24.24
X29.873 Y24.366
X29.99 Z-3.311
X30.139 Z-3.148
X30.381 Z-2.892
X30.781 Z-2.528
X31.249 Z-2.172
X31.746 Z-1.861
X32.152 Z-1.649
X32.329 Z-1.569
X32.664 Z-1.43
X32.846 Z-1.364
X33.234 Z-1.242
X33.799 Z-1.111
X34.359 Z-1.032
X34.905 Z-1.003
X270.01 Z-1.
X270.08 Z-0.984
X270.15 Z-0.968
X270.276 Y24.492
X270.15 Y24.618
X270.08 Z-0.984
X270.01 Z-1.
X34.905 Z-1.003
X34.359 Z-1.032
X33.799 Z-1.111
X33.234 Z-1.242
X32.846 Z-1.364
X32.664 Z-1.43
X32.329 Z-1.569
X32.152 Z-1.649
X31.746 Z-1.861
X31.249 Z-2.172
X30.781 Z-2.528
X30.381 Z-2.892
X30.139 Z-3.148
X29.99 Z-3.311
X29.873 Z-3.363
X29.747 Y24.744
X29.873 Y24.87
X29.99 Z-3.311
X30.139 Z-3.148
X30.381 Z-2.892
X30.781 Z-2.528
X31.249 Z-2.172
X31.746 Z-1.861
X32.152 Z-1.649
X32.329 Z-1.569
X32.664 Z-1.43
X32.846 Z-1.364
X33.234 Z-1.242
X33.799 Z-1.111
X34.359 Z-1.032
X34.905 Z-1.003
X270.01 Z-1.
X270.08 Z-0.984
X270.15 Z-0.968
X270.276 Y24.996
X270.15 Y25.122
X270.08 Z-0.984
X270.01 Z-1.
X34.905 Z-1.003
X34.359 Z-1.032
X33.799 Z-1.111
X33.234 Z-1.242
X32.846 Z-1.364
X32.664 Z-1.43
X32.329 Z-1.569
X32.152 Z-1.649
X31.746 Z-1.861
X31.249 Z-2.172
X30.781 Z-2.528
X30.381 Z-2.892
X30.139 Z-3.148
X29.99 Z-3.311
X29.873 Z-3.363
X29.747 Y25.248
X29.873 Y25.374
X29.99 Z-3.311
X30.139 Z-3.148
X30.381 Z-2.892
X30.781 Z-2.528
X31.249 Z-2.172
X31.746 Z-1.861
X32.152 Z-1.649
X32.329 Z-1.569
X32.664 Z-1.43
X32.846 Z-1.364
X33.234 Z-1.242
X33.799 Z-1.111
X34.359 Z-1.032
X34.905 Z-1.003
X270.01 Z-1.
X270.08 Z-0.984
X270.15 Z-0.968
X270.276 Y25.5
X270.15 Y25.626
X270.08 Z-0.984
X270.01 Z-1.
X34.905 Z-1.003
X34.359 Z-1.032
X33.799 Z-1.111
X33.234 Z-1.242
X32.846 Z-1.364
X32.664 Z-1.43
X32.329 Z-1.569
X32.152 Z-1.649
X31.746 Z-1.861
X31.249 Z-2.172
X30.781 Z-2.528
X30.381 Z-2.892
X30.139 Z-3.148
X29.99 Z-3.311
X29.873 Z-3.363
X29.747 Y25.752
X29.873 Y25.878
X29.99 Z-3.311
X30.139 Z-3.148
X30.381 Z-2.892
X30.781 Z-2.528
X31.249 Z-2.172
X31.746 Z-1.861
X32.152 Z-1.649
X32.329 Z-1.569
X32.664 Z-1.43
X32.846 Z-1.364
X33.234 Z-1.242
X33.799 Z-1.111
X34.359 Z-1.032
X34.905 Z-1.003
X270.01 Z-1.
X270.08 Z-0.984
X270.15 Z-0.968
X270.276 Y26.004
X270.15 Y26.13
X270.08 Z-0.984
X270.01 Z-1.
X34.905 Z-1.003
X34.359 Z-1.032
X33.799 Z-1.111
X33.234 Z-1.242
X32.846 Z-1.364
X32.664 Z-1.43
X32.329 Z-1.569
X32.152 Z-1.649
X31.746 Z-1.861
X31.249 Z-2.172
X30.781 Z-2.528
X30.381 Z-2.892
X30.139 Z-3.148
X29.99 Z-3.311
X29.873 Z-3.363
X29.747 Y26.256
X29.873 Y26.382
X29.99 Z-3.311
X30.139 Z-3.148
X30.381 Z-2.892
X30.781 Z-2.528
X31.249 Z-2.172
X31.746 Z-1.861
X32.152 Z-1.649
X32.329 Z-1.569
X32.664 Z-1.43
X32.846 Z-1.364
X33.234 Z-1.242
X33.799 Z-1.111
X34.359 Z-1.032
X34.905 Z-1.003
X270.01 Z-1.
X270.08 Z-0.984
X270.15 Z-0.968
X270.276 Y26.508
X270.15 Y26.634
X270.08 Z-0.984
X270.01 Z-1.
X34.905 Z-1.003
X34.359 Z-1.032
X33.799 Z-1.111
X33.234 Z-1.242
X32.846 Z-1.364
X32.664 Z-1.43
X32.329 Z-1.569
X32.152 Z-1.649
X31.746 Z-1.861
X31.249 Z-2.172
X30.781 Z-2.528
X30.381 Z-2.892
X30.139 Z-3.148
X29.99 Z-3.311
X29.873 Z-3.363
X29.747 Y26.76
X29.873 Y26.886
X29.99 Z-3.311
X30.139 Z-3.148
X30.381 Z-2.892
X30.781 Z-2.528
X31.249 Z-2.172
X31.746 Z-1.861
X32.152 Z-1.649
X32.329 Z-1.569
X32.664 Z-1.43
X32.846 Z-1.364
X33.234 Z-1.242
X33.799 Z-1.111
X34.359 Z-1.032
X34.905 Z-1.003
X270.01 Z-1.
X270.08 Z-0.984
X270.15 Z-0.968
X270.276 Y27.012
X270.15 Y27.138
X270.08 Z-0.984
X270.01 Z-1.
X34.905 Z-1.003
X34.359 Z-1.032
X33.799 Z-1.111
X33.234 Z-1.242
X32.846 Z-1.364
X32.664 Z-1.43
X32.329 Z-1.569
X32.152 Z-1.649
X31.746 Z-1.861
X31.249 Z-2.172
X30.781 Z-2.528
X30.381 Z-2.892
X30.139 Z-3.148
X29.99 Z-3.311
X29.873 Z-3.363
X29.747 Y27.264
X29.873 Y27.39
X29.99 Z-3.311
X30.139 Z-3.148
X30.381 Z-2.892
X30.781 Z-2.528
X31.249 Z-2.172
X31.746 Z-1.861
X32.152 Z-1.649
X32.329 Z-1.569
X32.664 Z-1.43
X32.846 Z-1.364
X33.234 Z-1.242
X33.799 Z-1.111
X34.359 Z-1.032
X34.905 Z-1.003
X270.01 Z-1.
X270.08 Z-0.984
X270.15 Z-0.968
X270.276 Y27.516
X270.15 Y27.642
X270.08 Z-0.984
X270.01 Z-1.
X34.905 Z-1.003
X34.359 Z-1.032
X33.799 Z-1.111
X33.234 Z-1.242
X32.846 Z-1.364
X32.664 Z-1.43
X32.329 Z-1.569
X32.152 Z-1.649
X31.746 Z-1.861
X31.249 Z-2.172
X30.781 Z-2.528
X30.381 Z-2.892
X30.139 Z-3.148
X29.99 Z-3.311
X29.873 Z-3.363
X29.747 Y27.768
X29.873 Y27.894
X29.99 Z-3.311
X30.139 Z-3.148
X30.381 Z-2.892
X30.781 Z-2.528
X31.249 Z-2.172
X31.746 Z-1.861
X32.152 Z-1.649
X32.329 Z-1.569
X32.664 Z-1.43
X32.846 Z-1.364
X33.234 Z-1.242
X33.799 Z-1.111
X34.359 Z-1.032
X34.905 Z-1.003
X270.01 Z-1.
X270.08 Z-0.984
X270.15 Z-0.968
X270.276 Y28.02
X270.15 Y28.146
X270.08 Z-0.984
X270.01 Z-1.
X34.905 Z-1.003
X34.359 Z-1.032
X33.799 Z-1.111
X33.234 Z-1.242
X32.846 Z-1.364
X32.664 Z-1.43
X32.329 Z-1.569
X32.152 Z-1.649
X31.746 Z-1.861
X31.249 Z-2.172
X30.781 Z-2.528
X30.381 Z-2.892
X30.139 Z-3.148
X29.99 Z-3.311
X29.873 Z-3.363
X29.747 Y28.272
X29.873 Y28.398
X29.99 Z-3.311
X30.139 Z-3.148
X30.381 Z-2.892
X30.781 Z-2.528
X31.249 Z-2.172
X31.746 Z-1.861
X32.152 Z-1.649
X32.329 Z-1.569
X32.664 Z-1.43
X32.846 Z-1.364
X33.234 Z-1.242
X33.799 Z-1.111
X34.359 Z-1.032
X34.905 Z-1.003
X270.01 Z-1.
X270.08 Z-0.984
X270.15 Z-0.968
X270.276 Y28.524
X270.15 Y28.65
X270.08 Z-0.984
X270.01 Z-1.
X34.905 Z-1.003
X34.359 Z-1.032
X33.799 Z-1.111
X33.234 Z-1.242
X32.846 Z-1.364
X32.664 Z-1.43
X32.329 Z-1.569
X32.152 Z-1.649
X31.746 Z-1.861
X31.249 Z-2.172
X30.781 Z-2.528
X30.381 Z-2.892
X30.139 Z-3.148
X29.99 Z-3.311
X29.873 Z-3.363
X29.747 Y28.776
X29.873 Y28.902
X29.99 Z-3.311
X30.139 Z-3.148
X30.381 Z-2.892
X30.781 Z-2.528
X31.249 Z-2.172
X31.746 Z-1.861
X32.152 Z-1.649
X32.329 Z-1.569
X32.664 Z-1.43
X32.846 Z-1.364
X33.234 Z-1.242
X33.799 Z-1.111
X34.359 Z-1.032
X34.905 Z-1.003
X270.01 Z-1.
X270.08 Z-0.984
X270.15 Z-0.968
X270.276 Y29.028
X270.15 Y29.154
X270.08 Z-0.984
X270.01 Z-1.
X34.905 Z-1.003
X34.359 Z-1.032
X33.799 Z-1.111
X33.234 Z-1.242
X32.846 Z-1.364
X32.664 Z-1.43
X32.329 Z-1.569
X32.152 Z-1.649
X31.746 Z-1.861
X31.249 Z-2.172
X30.781 Z-2.528
X30.381 Z-2.892
X30.139 Z-3.148
X29.99 Z-3.311
X29.873 Z-3.363
X29.747 Y29.28
X29.873 Y29.406
X29.99 Z-3.311
X30.139 Z-3.148
X30.381 Z-2.892
X30.781 Z-2.528
X31.249 Z-2.172
X31.746 Z-1.861
X32.152 Z-1.649
X32.329 Z-1.569
X32.664 Z-1.43
X32.846 Z-1.364
X33.234 Z-1.242
X33.799 Z-1.111
X34.359 Z-1.032
X34.905 Z-1.003
X270.01 Z-1.
X270.08 Z-0.984
X270.15 Z-0.968
X270.276 Y29.532
X270.15 Y29.658
X270.08 Z-0.984
X270.01 Z-1.
X34.905 Z-1.003
X34.359 Z-1.032
X33.799 Z-1.111
X33.234 Z-1.242
X32.846 Z-1.364
X32.664 Z-1.43
X32.329 Z-1.569
X32.152 Z-1.649
X31.746 Z-1.861
X31.249 Z-2.172
X30.781 Z-2.528
X30.381 Z-2.892
X30.139 Z-3.148
X29.99 Z-3.311
X29.873 Z-3.363
X29.747 Y29.784
X29.873 Y29.91
X29.99 Z-3.311
X30.139 Z-3.148
X30.381 Z-2.892
X30.781 Z-2.528
X31.249 Z-2.172
X31.746 Z-1.861
X32.152 Z-1.649
X32.329 Z-1.569
X32.664 Z-1.43
X32.846 Z-1.364
X33.234 Z-1.242
X33.799 Z-1.111
X34.359 Z-1.032
X34.905 Z-1.003
X270.01 Z-1.
X270.08 Z-0.984
X270.15 Z-0.968
X270.276 Y30.036
X270.15 Y30.162
X270.08 Z-0.984
X270.01 Z-1.
X34.905 Z-1.003
X34.359 Z-1.032
X33.799 Z-1.111
X33.234 Z-1.242
X32.846 Z-1.364
X32.664 Z-1.43
X32.329 Z-1.569
X32.152 Z-1.649
X31.746 Z-1.861
X31.249 Z-2.172
X30.781 Z-2.528
X30.381 Z-2.892
X30.139 Z-3.148
X29.99 Z-3.311
X29.873 Z-3.363
X29.747 Y30.288
X29.873 Y30.414
X29.99 Z-3.311
X30.139 Z-3.148
X30.381 Z-2.892
X30.781 Z-2.528
X31.249 Z-2.172
X31.746 Z-1.861
X32.152 Z-1.649
X32.329 Z-1.569
X32.664 Z-1.43
X32.846 Z-1.364
X33.234 Z-1.242
X33.799 Z-1.111
X34.359 Z-1.032
X34.905 Z-1.003
X270.01 Z-1.
X270.08 Z-0.984
X270.15 Z-0.968
X270.276 Y30.54
X270.15 Y30.666
X270.08 Z-0.984
X270.01 Z-1.
X34.905 Z-1.003
X34.359 Z-1.032
X33.799 Z-1.111
X33.234 Z-1.242
X32.846 Z-1.364
X32.664 Z-1.43
X32.329 Z-1.569
X32.152 Z-1.649
X31.746 Z-1.861
X31.249 Z-2.172
X30.781 Z-2.528
X30.381 Z-2.892
X30.139 Z-3.148
X29.99 Z-3.311
X29.873 Z-3.363
X29.747 Y30.792
X29.873 Y30.918
X29.99 Z-3.311
X30.139 Z-3.148
X30.381 Z-2.892
X30.781 Z-2.528
X31.249 Z-2.172
X31.746 Z-1.861
X32.152 Z-1.649
X32.329 Z-1.569
X32.664 Z-1.43
X32.846 Z-1.364
X33.234 Z-1.242
X33.799 Z-1.111
X34.359 Z-1.032
X34.905 Z-1.003
X270.01 Z-1.
X270.08 Z-0.984
X270.15 Z-0.968
X270.276 Y31.044
X270.15 Y31.17
X270.08 Z-0.984
X270.01 Z-1.
X34.905 Z-1.003
X34.359 Z-1.032
X33.799 Z-1.111
X33.234 Z-1.242
X32.846 Z-1.364
X32.664 Z-1.43
X32.329 Z-1.569
X32.152 Z-1.649
X31.746 Z-1.861
X31.249 Z-2.172
X30.781 Z-2.528
X30.381 Z-2.892
X30.139 Z-3.148
X29.99 Z-3.311
X29.873 Z-3.363
X29.747 Y31.296
X29.873 Y31.422
X29.99 Z-3.311
X30.139 Z-3.148
X30.381 Z-2.892
X30.781 Z-2.528
X31.249 Z-2.172
X31.746 Z-1.861
X32.152 Z-1.649
X32.329 Z-1.569
X32.664 Z-1.43
X32.846 Z-1.364
X33.234 Z-1.242
X33.799 Z-1.111
X34.359 Z-1.032
X34.905 Z-1.003
X270.01 Z-1.
X270.08 Z-0.984
X270.15 Z-0.968
X270.276 Y31.548
X270.15 Y31.673
X270.08 Z-0.984
X270.01 Z-1.
X34.905 Z-1.003
X34.359 Z-1.032
X33.799 Z-1.111
X33.234 Z-1.242
X32.846 Z-1.364
X32.664 Z-1.43
X32.329 Z-1.569
X32.152 Z-1.649
X31.746 Z-1.861
X31.249 Z-2.172
X30.781 Z-2.528
X30.381 Z-2.892
X30.139 Z-3.148
X29.99 Z-3.311
X29.873 Z-3.363
X29.747 Y31.799
X29.873 Y31.925
X29.99 Z-3.311
X30.139 Z-3.148
X30.381 Z-2.892
X30.781 Z-2.528
X31.249 Z-2.172
X31.746 Z-1.861
X32.152 Z-1.649
X32.329 Z-1.569
X32.664 Z-1.43
X32.846 Z-1.364
X33.234 Z-1.242
X33.799 Z-1.111
X34.359 Z-1.032
X34.905 Z-1.003
X270.01 Z-1.
X270.08 Z-0.984
X270.15 Z-0.968
X270.276 Y32.051
X270.15 Y32.177
X270.08 Z-0.984
X270.01 Z-1.
X34.905 Z-1.003
X34.359 Z-1.032
X33.799 Z-1.111
X33.234 Z-1.242
X32.846 Z-1.364
X32.664 Z-1.43
X32.329 Z-1.569
X32.152 Z-1.649
X31.746 Z-1.861
X31.249 Z-2.172
X30.781 Z-2.528
X30.381 Z-2.892
X30.139 Z-3.148
X29.99 Z-3.311
X29.873 Z-3.363
X29.747 Y32.303
X29.873 Y32.429
X29.99 Z-3.311
X30.139 Z-3.148
X30.381 Z-2.892
X30.781 Z-2.528
X31.249 Z-2.172
X31.746 Z-1.861
X32.152 Z-1.649
X32.329 Z-1.569
X32.664 Z-1.43
X32.846 Z-1.364
X33.234 Z-1.242
X33.799 Z-1.111
X34.359 Z-1.032
X34.905 Z-1.003
X270.01 Z-1.
X270.08 Z-0.984
X270.15 Z-0.968
X270.276 Y32.555
X270.15 Y32.681
X270.08 Z-0.984
X270.01 Z-1.
X34.905 Z-1.003
X34.359 Z-1.032
X33.799 Z-1.111
X33.234 Z-1.242
X32.846 Z-1.364
X32.664 Z-1.43
X32.329 Z-1.569
X32.152 Z-1.649
X31.746 Z-1.861
X31.249 Z-2.172
X30.781 Z-2.528
X30.381 Z-2.892
X30.139 Z-3.148
X29.99 Z-3.311
X29.873 Z-3.363
X29.747 Y32.807
X29.873 Y32.933
X29.99 Z-3.311
X30.139 Z-3.148
X30.381 Z-2.892
X30.781 Z-2.528
X31.249 Z-2.172
X31.746 Z-1.861
X32.152 Z-1.649
X32.329 Z-1.569
X32.664 Z-1.43
X32.846 Z-1.364
X33.234 Z-1.242
X33.799 Z-1.111
X34.359 Z-1.032
X34.905 Z-1.003
X270.01 Z-1.
X270.08 Z-0.984
X270.15 Z-0.968
X270.276 Y33.059
X270.15 Y33.185
X270.08 Z-0.984
X270.01 Z-1.
X34.905 Z-1.003
X34.359 Z-1.032
X33.799 Z-1.111
X33.234 Z-1.242
X32.846 Z-1.364
X32.664 Z-1.43
X32.329 Z-1.569
X32.152 Z-1.649
X31.746 Z-1.861
X31.249 Z-2.172
X30.781 Z-2.528
X30.381 Z-2.892
X30.139 Z-3.148
X29.99 Z-3.311
X29.873 Z-3.363
X29.747 Y33.311
X29.873 Y33.437
X29.99 Z-3.311
X30.139 Z-3.148
X30.381 Z-2.892
X30.781 Z-2.528
X31.249 Z-2.172
X31.746 Z-1.861
X32.152 Z-1.649
X32.329 Z-1.569
X32.664 Z-1.43
X32.846 Z-1.364
X33.234 Z-1.242
X33.799 Z-1.111
X34.359 Z-1.032
X34.905 Z-1.003
X270.01 Z-1.
X270.08 Z-0.984
X270.15 Z-0.968
X270.276 Y33.563
X270.15 Y33.689
X270.08 Z-0.984
X270.01 Z-1.
X34.905 Z-1.003
X34.359 Z-1.032
X33.799 Z-1.111
X33.234 Z-1.242
X32.846 Z-1.364
X32.664 Z-1.43
X32.329 Z-1.569
X32.152 Z-1.649
X31.746 Z-1.861
X31.249 Z-2.172
X30.781 Z-2.528
X30.381 Z-2.892
X30.139 Z-3.148
X29.99 Z-3.311
X29.873 Z-3.363
X29.747 Y33.815
X29.873 Y33.941
X29.99 Z-3.311
X30.139 Z-3.148
X30.381 Z-2.892
X30.781 Z-2.528
X31.249 Z-2.172
X31.746 Z-1.861
X32.152 Z-1.649
X32.329 Z-1.569
X32.664 Z-1.43
X32.846 Z-1.364
X33.234 Z-1.242
X33.799 Z-1.111
X34.359 Z-1.032
X34.905 Z-1.003
X270.01 Z-1.
X270.08 Z-0.984
X270.15 Z-0.968
X270.276 Y34.067
X270.15 Y34.193
X270.08 Z-0.984
X270.01 Z-1.
X34.905 Z-1.003
X34.359 Z-1.032
X33.799 Z-1.111
X33.234 Z-1.242
X32.846 Z-1.364
X32.664 Z-1.43
X32.329 Z-1.569
X32.152 Z-1.649
X31.746 Z-1.861
X31.249 Z-2.172
X30.781 Z-2.528
X30.381 Z-2.892
X30.139 Z-3.148
X29.99 Z-3.311
X29.873 Z-3.363
X29.747 Y34.319
X29.873 Y34.445
X29.99 Z-3.311
X30.139 Z-3.148
X30.381 Z-2.892
X30.781 Z-2.528
X31.249 Z-2.172
X31.746 Z-1.861
X32.152 Z-1.649
X32.329 Z-1.569
X32.664 Z-1.43
X32.846 Z-1.364
X33.234 Z-1.242
X33.799 Z-1.111
X34.359 Z-1.032
X34.905 Z-1.003
X270.01 Z-1.
X270.08 Z-0.984
X270.15 Z-0.968
X270.276 Y34.571
X270.15 Y34.697
X270.08 Z-0.984
X270.01 Z-1.
X34.905 Z-1.003
X34.359 Z-1.032
X33.799 Z-1.111
X33.234 Z-1.242
X32.846 Z-1.364
X32.664 Z-1.43
X32.329 Z-1.569
X32.152 Z-1.649
X31.746 Z-1.861
X31.249 Z-2.172
X30.781 Z-2.528
X30.381 Z-2.892
X30.139 Z-3.148
X29.99 Z-3.311
X29.873 Z-3.363
X29.747 Y34.823
X29.873 Y34.949
X29.99 Z-3.311
X30.139 Z-3.148
X30.381 Z-2.892
X30.781 Z-2.528
X31.249 Z-2.172
X31.746 Z-1.861
X32.152 Z-1.649
X32.329 Z-1.569
X32.664 Z-1.43
X32.846 Z-1.364
X33.234 Z-1.242
X33.799 Z-1.111
X34.359 Z-1.032
X34.905 Z-1.003
X270.01 Z-1.
X270.08 Z-0.984
X270.15 Z-0.968
X270.276 Y35.075
X270.15 Y35.201
X270.08 Z-0.984
X270.01 Z-1.
X34.905 Z-1.003
X34.359 Z-1.032
X33.799 Z-1.111
X33.234 Z-1.242
X32.846 Z-1.364
X32.664 Z-1.43
X32.329 Z-1.569
X32.152 Z-1.649
X31.746 Z-1.861
X31.249 Z-2.172
X30.781 Z-2.528
X30.381 Z-2.892
X30.139 Z-3.148
X29.99 Z-3.311
X29.873 Z-3.363
X29.747 Y35.327
X29.873 Y35.453
X29.99 Z-3.311
X30.139 Z-3.148
X30.381 Z-2.892
X30.781 Z-2.528
X31.249 Z-2.172
X31.746 Z-1.861
X32.152 Z-1.649
X32.329 Z-1.569
X32.664 Z-1.43
X32.846 Z-1.364
X33.234 Z-1.242
X33.799 Z-1.111
X34.359 Z-1.032
X34.905 Z-1.003
X270.01 Z-1.
X270.08 Z-0.984
X270.15 Z-0.968
X270.276 Y35.579
X270.15 Y35.705
X270.08 Z-0.984
X270.01 Z-1.
X219.929 Z-1.002
X219.707 Z-1.007
X34.899 Z-1.01
X34.371 Z-1.038
X33.946 Z-1.094
X33.757 Z-1.127
X33.403 Z-1.206
X33.216 Z-1.255
X32.706 Z-1.42
X32.19 Z-1.636
X31.675 Z-1.908
X31.213 Z-2.204
X30.746 Z-2.565
X30.37 Z-2.909
X29.99 Z-3.319
X29.979 Z-3.331
X29.863 Z-3.381
X29.841 Y35.707
X29.82 Y35.713
X29.8 Y35.722
X29.782 Y35.735
X29.766 Y35.75 Z-3.382
X29.754 Y35.768
X29.744 Y35.788
X29.739 Y35.809
X29.737 Y35.831
X29.739 Y35.853
X29.744 Y35.874
X29.754 Y35.894
X29.766 Y35.912
X29.782 Y35.928
X29.8 Y35.94
X29.82 Y35.95
X29.841 Y35.955
X29.863 Y35.957
X29.874
X29.991 Z-3.331
X30.303 Z-2.989
X30.745 Z-2.576
X31.263 Z-2.18
X31.719 Z-1.892
X32.239 Z-1.623
X32.78 Z-1.402
X33.218 Z-1.264
X33.404 Z-1.215
X33.759 Z-1.137
X33.948 Z-1.103
X34.36 Z-1.049
X34.875 Z-1.021
X219.72 Z-1.017
X219.929 Z-1.002
X270.01 Z-1.
X270.08 Z-0.984
X270.15 Z-0.968
X270.276 Y36.083
X270.15 Y36.209
X270.08 Z-0.984
X270.01 Z-1.
X219.929 Z-1.002
X219.72 Z-1.025
X219.66 Z-1.036
X34.9 Z-1.038
X34.401 Z-1.063
X33.898 Z-1.129
X33.328 Z-1.253
X32.77 Z-1.427
X32.273 Z-1.631
X32.115 Z-1.708
X31.81 Z-1.868
X31.641 Z-1.964
X31.255 Z-2.212
X30.789 Z-2.568
X30.369 Z-2.951
X29.996 Z-3.355
X29.879 Z-3.406
X29.857 Y36.211 Z-3.407
X29.835 Y36.217 Z-3.408
X29.815 Y36.226 Z-3.409
X29.797 Y36.239 Z-3.411
X29.781 Y36.254 Z-3.413
X29.769 Y36.272 Z-3.416
X29.759 Y36.292 Z-3.419
X29.754 Y36.313 Z-3.422
X29.752 Y36.335 Z-3.425
X29.754 Y36.357 Z-3.428
X29.759 Y36.378 Z-3.431
X29.769 Y36.398 Z-3.434
X29.781 Y36.416 Z-3.437
X29.797 Y36.432 Z-3.439
X29.815 Y36.444 Z-3.441
X29.835 Y36.454 Z-3.442
X29.857 Y36.459 Z-3.443
X29.879 Y36.461 Z-3.444
X29.882
X30. Z-3.391
X30.305 Z-3.052
X30.719 Z-2.66
X31.171 Z-2.302
X31.64 Z-1.994
X31.884 Z-1.859
X32.279 Z-1.659
X32.775 Z-1.455
X33.212 Z-1.316
X33.38 Z-1.271
X33.819 Z-1.173
X34.392 Z-1.094
X34.885 Z-1.069
X219.538 Z-1.065
X219.72 Z-1.025
X219.929 Z-1.002
X270.01 Z-1.
X270.08 Z-0.984
X270.15 Z-0.968
X270.276 Y36.587
X270.15 Y36.713
X270.08 Z-0.984
X270.01 Z-1.
X219.929 Z-1.002
X219.72 Z-1.025
X219.551 Z-1.065
X219.451 Z-1.098
X34.903 Z-1.101
X34.356 Z-1.131
X33.787 Z-1.213
X33.226 Z-1.347
X32.737 Z-1.506
X32.242 Z-1.714
X31.765 Z-1.964
X31.614 Z-2.055
X31.229 Z-2.306
X30.795 Z-2.643
X30.37 Z-3.035
X30.005 Z-3.436
X29.888 Z-3.488
X29.865 Y36.715
X29.843 Y36.721 Z-3.49
X29.823 Y36.73 Z-3.492
X29.805 Y36.743 Z-3.494
X29.789 Y36.758 Z-3.498
X29.776 Y36.776 Z-3.501
X29.766 Y36.796 Z-3.506
X29.761 Y36.817 Z-3.51
X29.759 Y36.839 Z-3.515
X29.761 Y36.861 Z-3.52
X29.766 Y36.882 Z-3.524
X29.776 Y36.902 Z-3.528
X29.789 Y36.92 Z-3.532
X29.805 Y36.936 Z-3.535
X29.823 Y36.948 Z-3.538
X29.843 Y36.957 Z-3.54
X29.865 Y36.963 Z-3.541
X29.888 Y36.965 Z-3.542
X29.901
X30.02 Z-3.488
X30.34 Z-3.127
X30.747 Z-2.739
X31.249 Z-2.343
X31.743 Z-2.026
X32.253 Z-1.759
X32.667 Z-1.585
X32.849 Z-1.518
X33.194 Z-1.407
X33.381 Z-1.355
X33.885 Z-1.245
X34.396 Z-1.176
X34.914 Z-1.15
X219.329 Z-1.147
X219.551 Z-1.065
X219.72 Z-1.025
X219.929 Z-1.002
X270.01 Z-1.
X270.08 Z-0.984
X270.15 Z-0.968
X270.276 Y37.091
X270.15 Y37.217
X270.08 Z-0.984
X270.01 Z-1.
X219.929 Z-1.002
X219.72 Z-1.025
X219.551 Z-1.065
X219.387 Z-1.123
X219.228 Z-1.198
X34.912 Z-1.2
X34.379 Z-1.228
X33.804 Z-1.31
X33.233 Z-1.446
X32.729 Z-1.613
X32.314 Z-1.79
X32.138 Z-1.874
X31.735 Z-2.093
X31.244 Z-2.414
X30.783 Z-2.778
X30.358 Z-3.18
X30.047 Z-3.534
X29.928 Z-3.588
X29.905 Y37.219 Z-3.589
X29.884 Y37.225 Z-3.59
X29.864 Y37.234 Z-3.591
X29.845 Y37.247 Z-3.594
X29.83 Y37.262 Z-3.596
X29.817 Y37.28 Z-3.6
X29.807 Y37.3 Z-3.603
X29.802 Y37.321 Z-3.607
X29.8 Y37.343 Z-3.611
X29.802 Y37.365 Z-3.615
X29.807 Y37.386 Z-3.618
X29.817 Y37.406 Z-3.622
X29.83 Y37.424 Z-3.625
X29.845 Y37.44 Z-3.628
X29.864 Y37.452 Z-3.63
X29.884 Y37.461 Z-3.632
X29.905 Y37.467 Z-3.633
X29.928 Y37.469
X29.969
X30.089 Z-3.579
X30.368 Z-3.26
X30.733 Z-2.903
X31.197 Z-2.521
X31.743 Z-2.159
X32.26 Z-1.885
X32.681 Z-1.703
X32.844 Z-1.643
X33.189 Z-1.53
X33.357 Z-1.481
X33.879 Z-1.364
X34.39 Z-1.294
X34.902 Z-1.267
X219.122 Z-1.264
X219.229 Z-1.2
X219.387 Z-1.123
X219.551 Z-1.065
X219.72 Z-1.025
X219.929 Z-1.002
X270.01 Z-1.
X270.08 Z-0.984
X270.15 Z-0.968
X270.276 Y37.595
X270.15 Y37.721
X270.08 Z-0.984
X270.01 Z-1.
X219.929 Z-1.002
X219.72 Z-1.025
X219.551 Z-1.065
X219.387 Z-1.123
X219.229 Z-1.2
X219.025 Z-1.335
X34.885 Z-1.339
X34.379 Z-1.366
X33.934 Z-1.427
X33.764 Z-1.459
X33.271 Z-1.575
X32.695 Z-1.77
X32.165 Z-2.008
X31.728 Z-2.251
X31.263 Z-2.564
X31.012 Z-2.763
X30.797 Z-2.939
X30.361 Z-3.364
X30.151 Z-3.612
X30.03 Z-3.668
X30.008 Y37.723
X29.986 Y37.729 Z-3.669
X29.966 Y37.738 Z-3.67
X29.948 Y37.751 Z-3.672
X29.932 Y37.766 Z-3.675
X29.92 Y37.784 Z-3.677
X29.91 Y37.804 Z-3.68
X29.904 Y37.825 Z-3.684
X29.902 Y37.847 Z-3.687
X29.904 Y37.869 Z-3.69
X29.91 Y37.89 Z-3.693
X29.92 Y37.91 Z-3.696
X29.932 Y37.928 Z-3.699
X29.948 Y37.944 Z-3.701
X29.966 Y37.956 Z-3.703
X29.986 Y37.965 Z-3.705
X30.008 Y37.971 Z-3.706
X30.03 Y37.973
X30.095
X30.217 Z-3.649
X30.319 Z-3.527
X30.76 Z-3.079
X31.24 Z-2.675
X31.743 Z-2.336
X32.214 Z-2.076
X32.776 Z-1.83
X33.275 Z-1.662
X33.82 Z-1.531
X34.392 Z-1.448
X34.897 Z-1.421
X218.922 Z-1.417
X219.079 Z-1.295
X219.229 Z-1.2
X219.387 Z-1.123
X219.551 Z-1.065
X219.72 Z-1.025
X219.929 Z-1.002
X270.01 Z-1.
X270.08 Z-0.984
X270.15 Z-0.968
X270.276 Y38.099
X270.15 Y38.225
X270.08 Z-0.984
X270.01 Z-1.
X219.929 Z-1.002
X219.72 Z-1.025
X219.551 Z-1.065
X219.387 Z-1.123
X219.229 Z-1.2
X219.079 Z-1.295
X218.939 Z-1.406
X218.832 Z-1.51
X34.92 Z-1.512
X34.404 Z-1.539
X33.901 Z-1.609
X33.333 Z-1.739
X32.715 Z-1.947
X32.172 Z-2.197
X31.731 Z-2.45
X31.226 Z-2.802
X30.747 Z-3.208
X30.365 Z-3.607
X30.298 Z-3.685
X30.278 Z-3.706
X30.158 Z-3.761
X30.136 Y38.227
X30.115 Y38.233
X30.095 Y38.242
X30.077 Y38.254
X30.061 Y38.27 Z-3.76
X30.049 Y38.288
X30.039 Y38.308 Z-3.759
X30.034 Y38.329
X30.032 Y38.351 Z-3.758
X30.034 Y38.373
X30.039 Y38.394 Z-3.757
X30.049 Y38.414
X30.061 Y38.432 Z-3.756
X30.077 Y38.447
X30.095 Y38.46
X30.115 Y38.469 Z-3.755
X30.136 Y38.475
X30.158 Y38.477
X30.29
X30.405 Z-3.706
X30.531 Z-3.573
X30.81 Z-3.288
X31.254 Z-2.903
X31.685 Z-2.595
X32.19 Z-2.303
X32.716 Z-2.06
X33.221 Z-1.881
X33.407 Z-1.828
X33.759 Z-1.742
X33.949 Z-1.705
X34.372 Z-1.644
X34.896 Z-1.613
X218.749 Z-1.61
X218.812 Z-1.535
X218.939 Z-1.406
X219.079 Z-1.295
X219.229 Z-1.2
X219.387 Z-1.123
X219.551 Z-1.065
X219.72 Z-1.025
X219.929 Z-1.002
X270.01 Z-1.
X270.08 Z-0.984
X270.15 Z-0.968
X270.276 Y38.603
X270.15 Y38.729
X270.08 Z-0.984
X270.01 Z-1.
X219.929 Z-1.002
X219.72 Z-1.025
X219.551 Z-1.065
X219.387 Z-1.123
X219.229 Z-1.2
X219.079 Z-1.295
X218.939 Z-1.406
X218.812 Z-1.535
X218.668 Z-1.724
X34.922 Z-1.728
X34.506 Z-1.748
X34.332 Z-1.766
X33.887 Z-1.831
X33.329 Z-1.964
X32.776 Z-2.152
X32.2 Z-2.421
X31.72 Z-2.707
X31.267 Z-3.034
X30.93 Z-3.325
X30.709 Z-3.538
X30.519 Z-3.747
X30.498 Z-3.769
X30.381 Z-3.821
X30.359 Y38.731
X30.338 Y38.737
X30.318 Y38.746
X30.3 Y38.758
X30.284 Y38.774
X30.272 Y38.792
X30.262 Y38.812
X30.257 Y38.833
X30.255 Y38.855 Z-3.82
X30.257 Y38.877
X30.262 Y38.898
X30.272 Y38.918
X30.284 Y38.936
X30.3 Y38.951
X30.318 Y38.964
X30.338 Y38.973
X30.359 Y38.979
X30.381 Y38.981
X30.536
X30.652 Z-3.769
X30.775 Z-3.637
X31.244 Z-3.207
X31.472 Z-3.032
X31.756 Z-2.826
X32.219 Z-2.551
X32.774 Z-2.29
X33.205 Z-2.134
X33.391 Z-2.077
X33.806 Z-1.972
X34.367 Z-1.882
X34.906 Z-1.849
X218.595 Z-1.846
X218.698 Z-1.679
X218.812 Z-1.535
X218.939 Z-1.406
X219.079 Z-1.295
X219.229 Z-1.2
X219.387 Z-1.123
X219.551 Z-1.065
X219.72 Z-1.025
X219.929 Z-1.002
X270.01 Z-1.
X270.08 Z-0.984
X270.15 Z-0.968
X270.276 Y39.107
X270.15 Y39.233
X270.08 Z-0.984
X270.01 Z-1.
X219.929 Z-1.002
X219.72 Z-1.025
X219.551 Z-1.065
X219.387 Z-1.123
X219.229 Z-1.2
X219.079 Z-1.295
X218.939 Z-1.406
X218.812 Z-1.535
X218.698 Z-1.679
X218.601 Z-1.838
X218.529 Z-1.987
X34.897 Z-1.99
X34.397 Z-2.019
X33.887 Z-2.096
X33.367 Z-2.224
X33.2 Z-2.277
X32.698 Z-2.464
X32.179 Z-2.725
X31.695 Z-3.031
X31.25 Z-3.371
X31.048 Z-3.557
X30.807 Z-3.793
X30.696 Z-3.838
X30.674 Y39.235 Z-3.839
X30.653 Y39.241
X30.633 Y39.25 Z-3.84
X30.615 Y39.262 Z-3.841
X30.599 Y39.278 Z-3.842
X30.586 Y39.296 Z-3.844
X30.577 Y39.316 Z-3.846
X30.571 Y39.337 Z-3.848
X30.569 Y39.359 Z-3.85
X30.571 Y39.381 Z-3.852
X30.577 Y39.402 Z-3.853
X30.586 Y39.422 Z-3.855
X30.599 Y39.44 Z-3.857
X30.615 Y39.455 Z-3.858
X30.633 Y39.468 Z-3.859
X30.653 Y39.477 Z-3.86
X30.674 Y39.483 Z-3.861
X30.696 Y39.485
X30.876
X30.986 Z-3.817
X31.261 Z-3.555
X31.697 Z-3.203
X32.172 Z-2.898
X32.592 Z-2.683
X32.839 Z-2.571
X33.343 Z-2.386
X33.786 Z-2.267
X33.975 Z-2.23
X34.381 Z-2.166
X34.891 Z-2.135
X218.48 Z-2.131
X218.52 Z-2.013
X218.601 Z-1.838
X218.698 Z-1.679
X218.812 Z-1.535
X218.939 Z-1.406
X219.079 Z-1.295
X219.229 Z-1.2
X219.387 Z-1.123
X219.551 Z-1.065
X219.72 Z-1.025
X219.929 Z-1.002
X270.01 Z-1.
X270.08 Z-0.984
X270.15 Z-0.968
X270.276 Y39.611
X270.15 Y39.737
X270.08 Z-0.984
X270.01 Z-1.
X219.929 Z-1.002
X219.72 Z-1.025
X219.551 Z-1.065
X219.387 Z-1.123
X219.229 Z-1.2
X219.079 Z-1.295
X218.939 Z-1.406
X218.812 Z-1.535
X218.698 Z-1.679
X218.601 Z-1.838
X218.52 Z-2.013
X218.459 Z-2.206
X218.438 Z-2.299
X34.899 Z-2.302
X34.505 Z-2.323
X34.313 Z-2.345
X33.954 Z-2.402
X33.785 Z-2.436
X33.342 Z-2.554
X32.807 Z-2.753
X32.533 Z-2.888
X32.204 Z-3.065
X31.745 Z-3.367
X31.339 Z-3.695
X31.179 Z-3.841
X31.072 Z-3.883
X31.05 Y39.739
X31.029 Y39.744
X31.009 Y39.754 Z-3.884
X30.991 Y39.766 Z-3.885
X30.975 Y39.782 Z-3.886
X30.963 Y39.8 Z-3.888
X30.953 Y39.82 Z-3.889
X30.948 Y39.841 Z-3.891
X30.946 Y39.863 Z-3.893
X30.948 Y39.885 Z-3.894
X30.953 Y39.906 Z-3.896
X30.963 Y39.926 Z-3.898
X30.975 Y39.944 Z-3.899
X30.991 Y39.959 Z-3.9
X31.009 Y39.972 Z-3.901
X31.029 Y39.981 Z-3.902
X31.05 Y39.987
X31.072 Y39.989 Z-3.903
X31.309
X31.411 Z-3.865
X31.749 Z-3.579
X32.153 Z-3.296
X32.446 Z-3.133
X32.794 Z-2.955
X33.324 Z-2.747
X33.747 Z-2.627
X33.935 Z-2.583
X34.379 Z-2.508
X34.925 Z-2.473
X218.417 Z-2.471
X218.422 Z-2.415
X218.459 Z-2.206
X218.52 Z-2.013
X218.601 Z-1.838
X218.698 Z-1.679
X218.812 Z-1.535
X218.939 Z-1.406
X219.079 Z-1.295
X219.229 Z-1.2
X219.387 Z-1.123
X219.551 Z-1.065
X219.72 Z-1.025
X219.929 Z-1.002
X270.01 Z-1.
X270.08 Z-0.984
X270.15 Z-0.968
X270.276 Y40.115
X270.15 Y40.241
X270.08 Z-0.984
X270.01 Z-1.
X219.929 Z-1.002
X219.72 Z-1.025
X219.551 Z-1.065
X219.387 Z-1.123
X219.229 Z-1.2
X219.079 Z-1.295
X218.939 Z-1.406
X218.812 Z-1.535
X218.698 Z-1.679
X218.601 Z-1.838
X218.52 Z-2.013
X218.459 Z-2.206
X218.433 Z-2.33
X218.42 Z-2.438
X218.412 Z-2.669
X34.921 Z-2.672
X34.46 Z-2.698
X34.119 Z-2.75
X33.931 Z-2.782
X33.742 Z-2.827
X33.301 Z-2.953
X32.804 Z-3.158
X32.564 Z-3.285
X32.174 Z-3.511
X31.741 Z-3.818
X31.678 Z-3.87
X31.578 Z-3.905
X31.556 Y40.243
X31.535 Y40.248 Z-3.906
X31.515 Y40.258 Z-3.907
X31.497 Y40.27 Z-3.909
X31.481 Y40.286 Z-3.91
X31.468 Y40.304 Z-3.913
X31.459 Y40.324 Z-3.915
X31.453 Y40.345 Z-3.918
X31.451 Y40.367 Z-3.92
X31.453 Y40.389 Z-3.923
X31.459 Y40.41 Z-3.925
X31.468 Y40.43 Z-3.928
X31.481 Y40.448 Z-3.93
X31.497 Y40.463 Z-3.932
X31.515 Y40.476 Z-3.933
X31.535 Y40.485 Z-3.934
X31.556 Y40.491 Z-3.935
X31.578 Y40.493
X31.887
X31.983 Z-3.902
X32.147 Z-3.777
X32.364 Z-3.634
X32.785 Z-3.399
X33.324 Z-3.172
X33.745 Z-3.044
X33.933 Z-2.997
X34.121 Z-2.963
X34.461 Z-2.907
X34.921 Z-2.879
X218.411 Z-2.876
X218.413 Z-2.57
X218.42 Z-2.438
X218.433 Z-2.33
X218.459 Z-2.206
X218.52 Z-2.013
X218.601 Z-1.838
X218.698 Z-1.679
X218.812 Z-1.535
X218.939 Z-1.406
X219.079 Z-1.295
X219.229 Z-1.2
X219.387 Z-1.123
X219.551 Z-1.065
X219.72 Z-1.025
X219.929 Z-1.002
X270.01 Z-1.
X270.08 Z-0.984
X270.15 Z-0.968
X270.276 Y40.619
X270.15 Y40.745
X270.08 Z-0.984
X270.01 Z-1.
X219.929 Z-1.002
X219.72 Z-1.025
X219.551 Z-1.065
X219.387 Z-1.123
X219.229 Z-1.2
X219.079 Z-1.295
X218.939 Z-1.406
X218.812 Z-1.535
X218.698 Z-1.679
X218.601 Z-1.838
X218.52 Z-2.013
X218.459 Z-2.206
X218.433 Z-2.33
X218.42 Z-2.438
X218.413 Z-2.57
X218.41 Z-3.109
X34.914 Z-3.112
X34.454 Z-3.14
X34.114 Z-3.197
X33.879 Z-3.24
X33.319 Z-3.412
X33.072 Z-3.522
X32.705 Z-3.699
X32.352 Z-3.914
X32.111 Z-3.778
X32.344 Y40.871 Z-3.513
X32.577 Y40.997 Z-3.778
Z-3.779
X32.806 Z-3.921
X32.866 Z-3.892
X33.33 Z-3.68
X33.766 Z-3.538
X33.953 Z-3.489
X34.122 Z-3.456
X34.461 Z-3.396
X34.921 Z-3.366
X218.409 Z-3.363
X218.413 Z-2.587
X218.42 Z-2.438
X218.433 Z-2.33
X218.459 Z-2.206
X218.52 Z-2.013
X218.601 Z-1.838
X218.698 Z-1.679
X218.812 Z-1.535
X218.939 Z-1.406
X219.079 Z-1.295
X219.229 Z-1.2
X219.387 Z-1.123
X219.551 Z-1.065
X219.72 Z-1.025
X219.929 Z-1.002
X270.01 Z-1.
X270.08 Z-0.984
X270.15 Z-0.968
X270.276 Y41.123
X270.15 Y41.249
X270.08 Z-0.984
X270.01 Z-1.
X219.929 Z-1.002
X219.72 Z-1.025
X219.551 Z-1.065
X219.387 Z-1.123
X219.229 Z-1.2
X219.079 Z-1.295
X218.939 Z-1.406
X218.812 Z-1.535
X218.698 Z-1.679
X218.601 Z-1.838
X218.52 Z-2.013
X218.459 Z-2.206
X218.433 Z-2.33
X218.42 Z-2.438
X218.413 Z-2.587
X218.409 Z-3.636
X34.921 Z-3.639
X34.395 Z-3.679
X33.954 Z-3.77
X33.767 Z-3.822
X33.42 Z-3.947
X33.208 Z-3.797
Z-3.792
X33.364 Y41.273 Z-3.634
X34.672 Y41.476
X34.829 Y41.501 Z-3.792
X34.988 Z-3.951
X218.413
Z-2.566
X218.432 Z-2.338
X218.479 Z-2.133
X218.547 Z-1.947
X218.634 Z-1.778
X218.738 Z-1.625
X218.857 Z-1.486
X218.988 Z-1.364
X219.132 Z-1.258
X219.285 Z-1.17
X219.445 Z-1.1
X219.612 Z-1.048
X219.781 Z-1.015
X219.965 Z-1.
X270.008
X270.325 Z-0.683
Z15.
M5
M400
M852
G28
M30
