(A1_02_T6_EYE_ROUGH1)
(T6  Spiral O Metal 3.175*12mm  Makera    D=3.175 CR=0. - ZMIN=-25.8 - flat end mill)
( =================================================== )
(   Z Origin Set To   : Stock Top )
(   Stock Height                    : 50. mm )
(   Toolpath Z Maximum from Stock Top: 15. mm )
(   Toolpath Z Min from Stock Top: -25.8 mm )
(  )
( =================================================== )

( The following values are based on the part position info used in fusion and can be used to roughly align the machine offset from anchor 1 if you use that feature. )
(   X Offset   : 0. mm )
(   Y Offset   : 0. mm )

( =================================================== )

G90 G94
G17
G21
(When using Fusion for Personal Use, the feedrate of rapid)
(moves is reduced to match the feedrate of cutting moves,)
(which can increase machining time. Unrestricted rapid moves)
(are available with a Fusion Subscription.)

(A1_T6_EYE_ROUGH1)
M6 T6 
(5)
M400
M851 S100
S13000 M3
G54
G0 X101.554 Y6.629
Z15.
G1 Z5. F1500.
Z0.635 F200.
Z-0.179 F500.
X101.493 Y6.317 Z-0.496
X101.487 Y6.286
G2 X99.101 Y-1.487 I-38.987 J7.714 F1500.
G1 X99.096 Y-1.498 F500.
X98.972 Y-1.79 Z-0.179
Z5. F1500.
X98.845 Y52.093
Z-0.179 F200.
X98.968 Y51.8 Z-0.496 F500.
X99.104 Y51.478
G2 X101.485 Y43.722 I-36.604 J-15.478 F1500.
G3 X102.026 Y43.37 I0.443 J0.088 F500.
X102.366 Y43.919 I-0.098 J0.44
G1 X101.389 Y47.836
X101.356 Y47.926
X99.52 Y51.654
X99.174 Y51.902
X97.608 Y52.107
G3 X97.138 Y51.476 I-0.059 J-0.447
G2 X100.438 Y36. I-34.638 J-15.476 F1500.
G1 Y14.
G2 X97.137 Y-1.478 I-37.938 J0.
G1 X97.132 Y-1.489 F500.
X97.002 Y-1.779 Z-0.179
Z5. F1500.
X94.858 Y52.093
Z-0.179 F200.
X94.994 Y51.806 Z-0.496 F500.
X95.148 Y51.481
G2 X98.632 Y36. I-32.648 J-15.481 F1500.
G1 Y14.
G2 X95.15 Y-1.477 I-36.132 J0.
G1 X95.144 Y-1.489 F500.
X95.008 Y-1.775 Z-0.179
Z5. F1500.
X92.83 Y52.091
Z-0.179 F200.
X92.973 Y51.808 Z-0.496 F500.
X93.14 Y51.478
G2 X96.827 Y36. I-30.64 J-15.478 F1500.
G1 Y14.
G2 X93.137 Y-1.484 I-34.327 J0.
G1 X93.131 Y-1.495 F500.
X92.988 Y-1.778 Z-0.179
Z5. F1500.
X90.771 Y52.093
Z-0.179 F200.
X90.922 Y51.813 Z-0.496 F500.
X91.102 Y51.48
G2 X95.022 Y36. I-28.602 J-15.48 F1500.
G1 Y14.
G2 X91.102 Y-1.48 I-32.522 J0.
G1 X91.096 Y-1.491 F500.
X90.945 Y-1.77 Z-0.179
Z5. F1500.
X88.674 Y52.093
Z-0.179 F200.
X88.834 Y51.819 Z-0.496 F500.
X89.03 Y51.483
G2 X93.217 Y36. I-26.53 J-15.483 F1500.
G1 Y14.
G2 X89.034 Y-1.477 I-30.717 J0.
G1 X89.027 Y-1.487 F500.
X88.868 Y-1.762 Z-0.179
Z5. F1500.
X86.534 Y52.087
Z-0.179 F200.
X86.704 Y51.819 Z-0.496 F500.
X86.918 Y51.482
G2 X91.412 Y36. I-24.418 J-15.482 F1500.
G1 Y14.
G2 X86.916 Y-1.485 I-28.912 J0.
G1 X86.91 Y-1.495 F500.
X86.739 Y-1.764 Z-0.179
Z5. F1500.
X84.328 Y52.09
Z-0.179 F200.
X84.51 Y51.829 Z-0.496 F500.
X84.749 Y51.486
G2 X89.607 Y36. I-22.249 J-15.486 F1500.
G1 Y14.
G2 X84.75 Y-1.483 I-27.107 J0.
G1 X84.743 Y-1.493 F500.
X84.562 Y-1.754 Z-0.179
Z5. F1500.
X82.043 Y52.09
Z-0.179 F200.
X82.237 Y51.839 Z-0.496 F500.
X82.511 Y51.484
G2 X87.802 Y36. I-20.011 J-15.484 F1500.
G1 Y14.
G2 X82.517 Y-1.477 I-25.302 J0.
G1 X82.51 Y-1.486 F500.
X82.315 Y-1.738 Z-0.179
Z5. F1500.
X79.644 Y52.09
Z-0.179 F200.
X79.853 Y51.851 Z-0.496 F500.
X80.181 Y51.476
G2 X85.997 Y36. I-17.681 J-15.476 F1500.
G1 Y14.
G2 X80.18 Y-1.477 I-23.497 J0.
G1 X80.172 Y-1.486 F500.
X79.963 Y-1.725 Z-0.179
Z5. F1500.
X77.071 Y52.093
Z-0.179 F200.
X77.298 Y51.871 Z-0.496 F500.
X77.689 Y51.487
G2 X84.192 Y36. I-15.189 J-15.487 F1500.
G1 Y14.
G2 X77.693 Y-1.483 I-21.692 J0.
G1 X77.684 Y-1.492 F500.
X77.458 Y-1.714 Z-0.179
Z5. F1500.
X74.228 Y52.091
Z-0.179 F200.
X74.475 Y51.892 Z-0.496 F500.
X74.986 Y51.479
G2 X82.387 Y36. I-12.486 J-15.479 F1500.
G1 Y14.
G2 X74.982 Y-1.482 I-19.887 J0.
G1 X74.973 Y-1.49 F500.
X74.726 Y-1.689 Z-0.179
Z5. F1500.
X70.838 Y52.087
Z-0.179 F200.
X71.11 Y51.923 Z-0.496 F500.
X71.834 Y51.487
G2 X80.582 Y36. I-9.334 J-15.487 F1500.
G1 Y14.
G2 X71.836 Y-1.486 I-18.082 J0.
G1 X71.825 Y-1.493 F500.
X71.553 Y-1.656 Z-0.179
Z5. F1500.
X67.18 Y51.594
Z0.635 F200.
Z-0.179 F500.
X67.482 Y51.496 Z-0.496
X67.512 Y51.487
G2 X78.777 Y36. I-5.012 J-15.487 F1500.
G1 Y14.
G2 X67.52 Y-1.484 I-16.277 J0.
G1 X67.508 Y-1.488 F500.
X67.206 Y-1.586 Z-0.179
Z5. F1500.
X1.151 Y-2.083
Z-0.179 F200.
X1.028 Y-1.791 Z-0.496 F500.
X0.896 Y-1.478
G2 X-1.485 Y6.278 I36.604 J15.478 F1500.
G1 X-1.487 Y43.714 F500.
G2 X0.899 Y51.487 I38.987 J-7.714 F1500.
G1 X0.904 Y51.498 F500.
X1.028 Y51.79 Z-0.179
Z5. F1500.
X3.134 Y-2.084
Z-0.179 F200.
X3.005 Y-1.794 Z-0.496 F500.
X2.862 Y-1.476
G2 X-0.438 Y14. I34.638 J15.476 F1500.
G1 Y36.
G2 X2.863 Y51.478 I37.938 J0.
G1 X2.868 Y51.489 F500.
X2.998 Y51.779 Z-0.179
Z5. F1500.
X5.138 Y-2.084
Z-0.179 F200.
X5.002 Y-1.797 Z-0.496 F500.
X4.852 Y-1.481
G2 X1.367 Y14. I32.648 J15.481 F1500.
G1 Y36.
G2 X4.85 Y51.477 I36.133 J0.
G1 X4.856 Y51.489 F500.
X4.992 Y51.775 Z-0.179
Z5. F1500.
X7.165 Y-2.082
Z-0.179 F200.
X7.022 Y-1.799 Z-0.496 F500.
X6.86 Y-1.478
G2 X3.172 Y14. I30.64 J15.478 F1500.
G1 Y36.
G2 X6.863 Y51.484 I34.328 J0.
G1 X6.869 Y51.495 F500.
X7.012 Y51.778 Z-0.179
Z5. F1500.
X9.225 Y-2.084
Z-0.179 F200.
X9.074 Y-1.805 Z-0.496 F500.
X8.898 Y-1.48
G2 X4.977 Y14. I28.602 J15.48 F1500.
G1 Y36.
G2 X8.898 Y51.48 I32.523 J0.
G1 X8.904 Y51.491 F500.
X9.055 Y51.77 Z-0.179
Z5. F1500.
X11.321 Y-2.084
Z-0.179 F200.
X11.161 Y-1.81 Z-0.496 F500.
X10.97 Y-1.483
G2 X6.782 Y14. I26.53 J15.483 F1500.
G1 Y36.
G2 X10.966 Y51.477 I30.718 J0.
G1 X10.973 Y51.487 F500.
X11.132 Y51.762 Z-0.179
Z5. F1500.
X13.466 Y-2.087
Z-0.179 F200.
X13.296 Y-1.819 Z-0.496 F500.
X13.082 Y-1.482
G2 X8.587 Y14. I24.418 J15.482 F1500.
G1 Y36.
G2 X13.084 Y51.485 I28.913 J0.
G1 X13.09 Y51.495 F500.
X13.261 Y51.764 Z-0.179
Z5. F1500.
X15.666 Y-2.082
Z-0.179 F200.
X15.485 Y-1.821 Z-0.496 F500.
X15.251 Y-1.486
G2 X10.392 Y14. I22.249 J15.486 F1500.
G1 Y36.
G2 X15.25 Y51.483 I27.108 J0.
G1 X15.257 Y51.493 F500.
X15.438 Y51.754 Z-0.179
Z5. F1500.
X17.951 Y-2.082
Z-0.179 F200.
X17.757 Y-1.831 Z-0.496 F500.
X17.489 Y-1.484
G2 X12.198 Y14. I20.011 J15.484 F1500.
G1 Y36.
G2 X17.483 Y51.477 I25.302 J0.
G1 X17.49 Y51.486 F500.
X17.685 Y51.738 Z-0.179
Z5. F1500.
X20.35 Y-2.083
Z-0.179 F200.
X20.141 Y-1.844 Z-0.496 F500.
X19.819 Y-1.476
G2 X14.002 Y14. I17.681 J15.476 F1500.
G1 Y36.
G2 X19.82 Y51.477 I23.498 J0.
G1 X19.828 Y51.486 F500.
X20.037 Y51.725 Z-0.179
Z5. F1500.
X22.914 Y-2.079
Z-0.179 F200.
X22.688 Y-1.857 Z-0.496 F500.
X22.311 Y-1.487
G2 X15.807 Y14. I15.189 J15.487 F1500.
G1 Y36.
G2 X22.307 Y51.483 I21.693 J0.
G1 X22.316 Y51.492 F500.
X22.542 Y51.714 Z-0.179
Z5. F1500.
X25.764 Y-2.085
Z-0.179 F200.
X25.517 Y-1.885 Z-0.496 F500.
X25.014 Y-1.479
G2 X17.612 Y14. I12.486 J15.479 F1500.
G1 Y36.
G2 X25.018 Y51.482 I19.888 J0.
G1 X25.027 Y51.49 F500.
X25.274 Y51.689 Z-0.179
Z5. F1500.
X29.153 Y-2.082
Z-0.179 F200.
X28.881 Y-1.918 Z-0.496 F500.
X28.166 Y-1.487
G2 X19.417 Y14. I9.334 J15.487 F1500.
G1 Y36.
G2 X28.164 Y51.486 I18.083 J0.
G1 X28.175 Y51.493 F500.
X28.447 Y51.656 Z-0.179
Z5. F1500.
X32.82 Y-1.594
Z0.635 F200.
Z-0.179 F500.
X32.518 Y-1.496 Z-0.496
X32.488 Y-1.487
G2 X21.222 Y14. I5.012 J15.487 F1500.
G1 Y36.
G2 X32.48 Y51.484 I16.278 J0.
X34.104 Y50.995 I0.459 J-1.416 F500.
G3 X35.675 Y50.357 I1.353 J1.078
G2 X37.5 Y50.472 I1.825 J-14.357 F1500.
G1 X62.5
G2 X76.973 Y36. I0. J-14.472
G1 Y14.
G2 X62.5 Y-0.472 I-14.473 J0.
G1 X37.5
G2 X23.028 Y14. I0. J14.472
G1 Y36.
G2 X35.675 Y50.357 I14.472 J0.
X37.167 Y49.559 I0.184 J-1.449 F500.
G3 X38.606 Y48.667 I1.439 J0.716
G1 X62.5 F1500.
G2 X75.168 Y36. I0. J-12.667
G1 Y14.
G2 X62.5 Y1.332 I-12.668 J0.
G1 X37.5
G2 X24.833 Y14. I0. J12.668
G1 Y36.
G2 X37.5 Y48.667 I12.667 J0.
G1 X38.606
G2 X39.96 Y47.765 I0. J-1.467 F500.
G3 X41.313 Y46.862 I1.354 J0.564
G1 X62.5 F1500.
G2 X73.363 Y36. I0. J-10.862
G1 Y14.
G2 X62.5 Y3.138 I-10.863 J0.
G1 X37.5
G2 X26.638 Y14. I0. J10.862
G1 Y36.
G2 X37.5 Y46.862 I10.862 J0.
G1 X41.313
G2 X42.667 Y45.96 I0. J-1.467 F500.
G3 X44.021 Y45.057 I1.354 J0.564
G1 X62.5 F1500.
G2 X71.558 Y36. I0. J-9.057
G1 Y14.
G2 X62.5 Y4.943 I-9.058 J0.
G1 X37.5
G2 X28.442 Y14. I0. J9.057
G1 Y36.
G2 X37.5 Y45.057 I9.058 J0.
G1 X44.021
G2 X45.375 Y44.155 I0. J-1.467 F500.
G3 X46.728 Y43.252 I1.354 J0.564
G1 X62.5 F1500.
G2 X69.753 Y36. I0. J-7.252
G1 Y14.
G2 X62.5 Y6.747 I-7.253 J0.
G1 X37.5
G2 X30.247 Y14. I0. J7.253
G1 Y36.
G2 X37.5 Y43.252 I7.253 J0.
G1 X46.728
G2 X48.082 Y42.35 I0. J-1.467 F500.
G3 X49.436 Y41.447 I1.354 J0.564
G1 X62.5 F1500.
G2 X67.948 Y36. I0. J-5.447
G1 Y14.
G2 X62.5 Y8.552 I-5.448 J0.
G1 X37.5
G2 X32.053 Y14. I0. J5.448
G1 Y36.
G2 X37.5 Y41.447 I5.447 J0.
G1 X49.436
G2 X50.79 Y40.545 I0. J-1.467 F500.
G3 X52.143 Y39.643 I1.354 J0.564
G1 X62.5 F1500.
G2 X66.143 Y36. I0. J-3.643
G1 Y14.
G2 X62.5 Y10.358 I-3.643 J0.
G1 X37.5
G2 X33.857 Y14. I0. J3.642
G1 Y36.
G2 X37.5 Y39.643 I3.643 J0.
G1 X52.143
G2 X53.535 Y38.715 I0. J-1.507 F500.
G3 X54.926 Y37.787 I1.391 J0.58
G1 X62.5 F1500.
G2 X64.287 Y36. I0. J-1.787
G1 Y14.
G2 X62.5 Y12.212 I-1.787 J0.
G1 X37.5
G2 X35.713 Y14. I0. J1.788
G1 Y36.
G2 X37.5 Y37.787 I1.787 J0.
G1 X54.926
S12000 M3
X55.419 Y37.87 Z-0.501 F333.3
X97.223 Y52.316 Z-0.968
G2 X99.104 Y51.478 Z-0.992 I0.493 J-1.425
S13000 M3
X101.485 Y43.722 I-36.604 J-15.478 F1500.
G1 X101.487 Y6.286 F500.
G2 X99.101 Y-1.487 I-38.987 J7.714 F1500.
G1 X99.096 Y-1.498 F500.
X98.972 Y-1.79 Z-0.675
Z5. F1500.
X96.862 Y52.093
Z-0.675 F200.
X96.991 Y51.803 Z-0.992 F500.
X97.138 Y51.476
G2 X100.438 Y36. I-34.638 J-15.476 F1500.
G1 Y14.
G2 X97.137 Y-1.478 I-37.938 J0.
G1 X97.132 Y-1.489 F500.
X97.002 Y-1.779 Z-0.675
Z5. F1500.
X94.858 Y52.093
Z-0.675 F200.
X94.994 Y51.806 Z-0.992 F500.
X95.148 Y51.481
G2 X98.632 Y36. I-32.648 J-15.481 F1500.
G1 Y14.
G2 X95.15 Y-1.477 I-36.132 J0.
G1 X95.144 Y-1.489 F500.
X95.008 Y-1.775 Z-0.675
Z5. F1500.
X92.83 Y52.091
Z-0.675 F200.
X92.973 Y51.808 Z-0.992 F500.
X93.14 Y51.478
G2 X96.827 Y36. I-30.64 J-15.478 F1500.
G1 Y14.
G2 X93.137 Y-1.484 I-34.327 J0.
G1 X93.131 Y-1.495 F500.
X92.988 Y-1.778 Z-0.675
Z5. F1500.
X90.771 Y52.093
Z-0.675 F200.
X90.922 Y51.813 Z-0.992 F500.
X91.102 Y51.48
G2 X95.022 Y36. I-28.602 J-15.48 F1500.
G1 Y14.
G2 X91.102 Y-1.48 I-32.522 J0.
G1 X91.096 Y-1.491 F500.
X90.945 Y-1.77 Z-0.675
Z5. F1500.
X88.674 Y52.093
Z-0.675 F200.
X88.834 Y51.819 Z-0.992 F500.
X89.03 Y51.483
G2 X93.217 Y36. I-26.53 J-15.483 F1500.
G1 Y14.
G2 X89.034 Y-1.477 I-30.717 J0.
G1 X89.027 Y-1.487 F500.
X88.868 Y-1.762 Z-0.675
Z5. F1500.
X86.534 Y52.087
Z-0.675 F200.
X86.704 Y51.819 Z-0.992 F500.
X86.918 Y51.482
G2 X91.412 Y36. I-24.418 J-15.482 F1500.
G1 Y14.
G2 X86.916 Y-1.485 I-28.912 J0.
G1 X86.91 Y-1.495 F500.
X86.739 Y-1.764 Z-0.675
Z5. F1500.
X84.328 Y52.09
Z-0.675 F200.
X84.51 Y51.829 Z-0.992 F500.
X84.749 Y51.486
G2 X89.607 Y36. I-22.249 J-15.486 F1500.
G1 Y14.
G2 X84.75 Y-1.483 I-27.107 J0.
G1 X84.743 Y-1.493 F500.
X84.562 Y-1.754 Z-0.675
Z5. F1500.
X82.043 Y52.09
Z-0.675 F200.
X82.237 Y51.839 Z-0.992 F500.
X82.511 Y51.484
G2 X87.802 Y36. I-20.011 J-15.484 F1500.
G1 Y14.
G2 X82.517 Y-1.477 I-25.302 J0.
G1 X82.51 Y-1.486 F500.
X82.315 Y-1.738 Z-0.675
Z5. F1500.
X79.644 Y52.09
Z-0.675 F200.
X79.853 Y51.851 Z-0.992 F500.
X80.181 Y51.476
G2 X85.997 Y36. I-17.681 J-15.476 F1500.
G1 Y14.
G2 X80.18 Y-1.477 I-23.497 J0.
G1 X80.172 Y-1.486 F500.
X79.963 Y-1.725 Z-0.675
Z5. F1500.
X77.071 Y52.093
Z-0.675 F200.
X77.298 Y51.871 Z-0.992 F500.
X77.689 Y51.487
G2 X84.192 Y36. I-15.189 J-15.487 F1500.
G1 Y14.
G2 X77.693 Y-1.483 I-21.692 J0.
G1 X77.684 Y-1.492 F500.
X77.458 Y-1.714 Z-0.675
Z5. F1500.
X74.228 Y52.091
Z-0.675 F200.
X74.475 Y51.892 Z-0.992 F500.
X74.986 Y51.479
G2 X82.387 Y36. I-12.486 J-15.479 F1500.
G1 Y14.
G2 X74.982 Y-1.482 I-19.887 J0.
G1 X74.973 Y-1.49 F500.
X74.726 Y-1.689 Z-0.675
Z5. F1500.
X70.838 Y52.087
Z-0.675 F200.
X71.11 Y51.923 Z-0.992 F500.
X71.834 Y51.487
G2 X80.582 Y36. I-9.334 J-15.487 F1500.
G1 Y14.
G2 X71.836 Y-1.486 I-18.082 J0.
G1 X71.825 Y-1.493 F500.
X71.553 Y-1.656 Z-0.675
Z5. F1500.
X67.18 Y51.594
Z0.139 F200.
Z-0.675 F500.
X67.482 Y51.496 Z-0.992
X67.512 Y51.487
G2 X78.777 Y36. I-5.012 J-15.487 F1500.
G1 Y14.
G2 X67.52 Y-1.484 I-16.277 J0.
G1 X67.508 Y-1.488 F500.
X67.206 Y-1.586 Z-0.675
Z5. F1500.
X1.151 Y-2.083
Z-0.675 F200.
X1.028 Y-1.791 Z-0.992 F500.
X0.896 Y-1.478
G2 X-1.485 Y6.278 I36.604 J15.478 F1500.
G1 X-1.487 Y43.714 F500.
G2 X0.899 Y51.487 I38.987 J-7.714 F1500.
G1 X0.904 Y51.498 F500.
X1.028 Y51.79 Z-0.675
Z5. F1500.
X3.134 Y-2.084
Z-0.675 F200.
X3.005 Y-1.794 Z-0.992 F500.
X2.862 Y-1.476
G2 X-0.438 Y14. I34.638 J15.476 F1500.
G1 Y36.
G2 X2.863 Y51.478 I37.938 J0.
G1 X2.868 Y51.489 F500.
X2.998 Y51.779 Z-0.675
Z5. F1500.
X5.138 Y-2.084
Z-0.675 F200.
X5.002 Y-1.797 Z-0.992 F500.
X4.852 Y-1.481
G2 X1.367 Y14. I32.648 J15.481 F1500.
G1 Y36.
G2 X4.85 Y51.477 I36.133 J0.
G1 X4.856 Y51.489 F500.
X4.992 Y51.775 Z-0.675
Z5. F1500.
X7.165 Y-2.082
Z-0.675 F200.
X7.022 Y-1.799 Z-0.992 F500.
X6.86 Y-1.478
G2 X3.172 Y14. I30.64 J15.478 F1500.
G1 Y36.
G2 X6.863 Y51.484 I34.328 J0.
G1 X6.869 Y51.495 F500.
X7.012 Y51.778 Z-0.675
Z5. F1500.
X9.225 Y-2.084
Z-0.675 F200.
X9.074 Y-1.805 Z-0.992 F500.
X8.898 Y-1.48
G2 X4.977 Y14. I28.602 J15.48 F1500.
G1 Y36.
G2 X8.898 Y51.48 I32.523 J0.
G1 X8.904 Y51.491 F500.
X9.055 Y51.77 Z-0.675
Z5. F1500.
X11.321 Y-2.084
Z-0.675 F200.
X11.161 Y-1.81 Z-0.992 F500.
X10.97 Y-1.483
G2 X6.782 Y14. I26.53 J15.483 F1500.
G1 Y36.
G2 X10.966 Y51.477 I30.718 J0.
G1 X10.973 Y51.487 F500.
X11.132 Y51.762 Z-0.675
Z5. F1500.
X13.466 Y-2.087
Z-0.675 F200.
X13.296 Y-1.819 Z-0.992 F500.
X13.082 Y-1.482
G2 X8.587 Y14. I24.418 J15.482 F1500.
G1 Y36.
G2 X13.084 Y51.485 I28.913 J0.
G1 X13.09 Y51.495 F500.
X13.261 Y51.764 Z-0.675
Z5. F1500.
X15.666 Y-2.082
Z-0.675 F200.
X15.485 Y-1.821 Z-0.992 F500.
X15.251 Y-1.486
G2 X10.392 Y14. I22.249 J15.486 F1500.
G1 Y36.
G2 X15.25 Y51.483 I27.108 J0.
G1 X15.257 Y51.493 F500.
X15.438 Y51.754 Z-0.675
Z5. F1500.
X17.951 Y-2.082
Z-0.675 F200.
X17.757 Y-1.831 Z-0.992 F500.
X17.489 Y-1.484
G2 X12.198 Y14. I20.011 J15.484 F1500.
G1 Y36.
G2 X17.483 Y51.477 I25.302 J0.
G1 X17.49 Y51.486 F500.
X17.685 Y51.738 Z-0.675
Z5. F1500.
X20.35 Y-2.083
Z-0.675 F200.
X20.141 Y-1.844 Z-0.992 F500.
X19.819 Y-1.476
G2 X14.002 Y14. I17.681 J15.476 F1500.
G1 Y36.
G2 X19.82 Y51.477 I23.498 J0.
G1 X19.828 Y51.486 F500.
X20.037 Y51.725 Z-0.675
Z5. F1500.
X22.914 Y-2.079
Z-0.675 F200.
X22.688 Y-1.857 Z-0.992 F500.
X22.311 Y-1.487
G2 X15.807 Y14. I15.189 J15.487 F1500.
G1 Y36.
G2 X22.307 Y51.483 I21.693 J0.
G1 X22.316 Y51.492 F500.
X22.542 Y51.714 Z-0.675
Z5. F1500.
X25.764 Y-2.085
Z-0.675 F200.
X25.517 Y-1.885 Z-0.992 F500.
X25.014 Y-1.479
G2 X17.612 Y14. I12.486 J15.479 F1500.
G1 Y36.
G2 X25.018 Y51.482 I19.888 J0.
G1 X25.027 Y51.49 F500.
X25.274 Y51.689 Z-0.675
Z5. F1500.
X29.153 Y-2.082
Z-0.675 F200.
X28.881 Y-1.918 Z-0.992 F500.
X28.166 Y-1.487
G2 X19.417 Y14. I9.334 J15.487 F1500.
G1 Y36.
G2 X28.164 Y51.486 I18.083 J0.
G1 X28.175 Y51.493 F500.
X28.447 Y51.656 Z-0.675
Z5. F1500.
X32.82 Y-1.594
Z0.139 F200.
Z-0.675 F500.
X32.518 Y-1.496 Z-0.992
X32.488 Y-1.487
G2 X21.222 Y14. I5.012 J15.487 F1500.
G1 Y36.
G2 X32.48 Y51.484 I16.278 J0.
X34.104 Y50.995 I0.459 J-1.416 F500.
G3 X35.675 Y50.357 I1.353 J1.078
G2 X37.5 Y50.472 I1.825 J-14.357 F1500.
G1 X62.5
G2 X76.973 Y36. I0. J-14.472
G1 Y14.
G2 X62.5 Y-0.472 I-14.473 J0.
G1 X37.5
G2 X23.028 Y14. I0. J14.472
G1 Y36.
G2 X35.675 Y50.357 I14.472 J0.
X37.167 Y49.559 I0.184 J-1.449 F500.
G3 X38.606 Y48.667 I1.439 J0.716
G1 X62.5 F1500.
G2 X75.168 Y36. I0. J-12.667
G1 Y14.
G2 X62.5 Y1.332 I-12.668 J0.
G1 X37.5
G2 X24.833 Y14. I0. J12.668
G1 Y36.
G2 X37.5 Y48.667 I12.667 J0.
G1 X38.606
G2 X39.96 Y47.765 I0. J-1.467 F500.
G3 X41.313 Y46.862 I1.354 J0.564
G1 X62.5 F1500.
G2 X73.363 Y36. I0. J-10.862
G1 Y14.
G2 X62.5 Y3.138 I-10.863 J0.
G1 X37.5
G2 X26.638 Y14. I0. J10.862
G1 Y36.
G2 X37.5 Y46.862 I10.862 J0.
G1 X41.313
G2 X42.667 Y45.96 I0. J-1.467 F500.
G3 X44.021 Y45.057 I1.354 J0.564
G1 X62.5 F1500.
G2 X71.558 Y36. I0. J-9.057
G1 Y14.
G2 X62.5 Y4.943 I-9.058 J0.
G1 X37.5
G2 X28.442 Y14. I0. J9.057
G1 Y36.
G2 X37.5 Y45.057 I9.058 J0.
G1 X44.021
G2 X45.375 Y44.155 I0. J-1.467 F500.
G3 X46.728 Y43.252 I1.354 J0.564
G1 X62.5 F1500.
G2 X69.753 Y36. I0. J-7.252
G1 Y14.
G2 X62.5 Y6.747 I-7.253 J0.
G1 X37.5
G2 X30.247 Y14. I0. J7.253
G1 Y36.
G2 X37.5 Y43.252 I7.253 J0.
G1 X46.728
G2 X48.082 Y42.35 I0. J-1.467 F500.
G3 X49.436 Y41.447 I1.354 J0.564
G1 X62.5 F1500.
G2 X67.948 Y36. I0. J-5.447
G1 Y14.
G2 X62.5 Y8.552 I-5.448 J0.
G1 X37.5
G2 X32.053 Y14. I0. J5.448
G1 Y36.
G2 X37.5 Y41.447 I5.447 J0.
G1 X49.436
G2 X50.79 Y40.545 I0. J-1.467 F500.
G3 X52.143 Y39.643 I1.354 J0.564
G1 X62.5 F1500.
G2 X66.143 Y36. I0. J-3.643
G1 Y14.
G2 X62.5 Y10.358 I-3.643 J0.
G1 X37.5
G2 X33.857 Y14. I0. J3.642
G1 Y36.
G2 X37.5 Y39.643 I3.643 J0.
G1 X52.143
G2 X53.535 Y38.715 I0. J-1.507 F500.
G3 X54.926 Y37.787 I1.391 J0.58
G1 X62.5 F1500.
G2 X64.287 Y36. I0. J-1.787
G1 Y14.
G2 X62.5 Y12.212 I-1.787 J0.
G1 X37.5
G2 X35.713 Y14. I0. J1.788
G1 Y36.
G2 X37.5 Y37.787 I1.787 J0.
G1 X54.926
S12000 M3
X55.419 Y37.87 Z-0.998 F333.3
X97.223 Y52.316 Z-1.465
G2 X99.104 Y51.478 Z-1.488 I0.493 J-1.425
S13000 M3
X101.485 Y43.722 I-36.604 J-15.478 F1500.
G1 X101.487 Y6.286 F500.
G2 X99.101 Y-1.487 I-38.987 J7.714 F1500.
G1 X99.096 Y-1.498 F500.
X98.972 Y-1.79 Z-1.171
Z5. F1500.
X96.862 Y52.093
Z-1.171 F200.
X96.991 Y51.803 Z-1.488 F500.
X97.138 Y51.476
G2 X100.438 Y36. I-34.638 J-15.476 F1500.
G1 Y14.
G2 X97.137 Y-1.478 I-37.938 J0.
G1 X97.132 Y-1.489 F500.
X97.002 Y-1.779 Z-1.171
Z5. F1500.
X94.858 Y52.093
Z-1.171 F200.
X94.994 Y51.806 Z-1.488 F500.
X95.148 Y51.481
G2 X98.632 Y36. I-32.648 J-15.481 F1500.
G1 Y14.
G2 X95.15 Y-1.477 I-36.132 J0.
G1 X95.144 Y-1.489 F500.
X95.008 Y-1.775 Z-1.171
Z5. F1500.
X92.83 Y52.091
Z-1.171 F200.
X92.973 Y51.808 Z-1.488 F500.
X93.14 Y51.478
G2 X96.827 Y36. I-30.64 J-15.478 F1500.
G1 Y14.
G2 X93.137 Y-1.484 I-34.327 J0.
G1 X93.131 Y-1.495 F500.
X92.988 Y-1.778 Z-1.171
Z5. F1500.
X90.771 Y52.093
Z-1.171 F200.
X90.922 Y51.813 Z-1.488 F500.
X91.102 Y51.48
G2 X95.022 Y36. I-28.602 J-15.48 F1500.
G1 Y14.
G2 X91.102 Y-1.48 I-32.522 J0.
G1 X91.096 Y-1.491 F500.
X90.945 Y-1.77 Z-1.171
Z5. F1500.
X88.674 Y52.093
Z-1.171 F200.
X88.834 Y51.819 Z-1.488 F500.
X89.03 Y51.483
G2 X93.217 Y36. I-26.53 J-15.483 F1500.
G1 Y14.
G2 X89.034 Y-1.477 I-30.717 J0.
G1 X89.027 Y-1.487 F500.
X88.868 Y-1.762 Z-1.171
Z5. F1500.
X86.534 Y52.087
Z-1.171 F200.
X86.704 Y51.819 Z-1.488 F500.
X86.918 Y51.482
G2 X91.412 Y36. I-24.418 J-15.482 F1500.
G1 Y14.
G2 X86.916 Y-1.485 I-28.912 J0.
G1 X86.91 Y-1.495 F500.
X86.739 Y-1.764 Z-1.171
Z5. F1500.
X84.328 Y52.09
Z-1.171 F200.
X84.51 Y51.829 Z-1.488 F500.
X84.749 Y51.486
G2 X89.607 Y36. I-22.249 J-15.486 F1500.
G1 Y14.
G2 X84.75 Y-1.483 I-27.107 J0.
G1 X84.743 Y-1.493 F500.
X84.562 Y-1.754 Z-1.171
Z5. F1500.
X82.043 Y52.09
Z-1.171 F200.
X82.237 Y51.839 Z-1.488 F500.
X82.511 Y51.484
G2 X87.802 Y36. I-20.011 J-15.484 F1500.
G1 Y14.
G2 X82.517 Y-1.477 I-25.302 J0.
G1 X82.51 Y-1.486 F500.
X82.315 Y-1.738 Z-1.171
Z5. F1500.
X79.644 Y52.09
Z-1.171 F200.
X79.853 Y51.851 Z-1.488 F500.
X80.181 Y51.476
G2 X85.997 Y36. I-17.681 J-15.476 F1500.
G1 Y14.
G2 X80.18 Y-1.477 I-23.497 J0.
G1 X80.172 Y-1.486 F500.
X79.963 Y-1.725 Z-1.171
Z5. F1500.
X77.071 Y52.093
Z-1.171 F200.
X77.298 Y51.871 Z-1.488 F500.
X77.689 Y51.487
G2 X84.192 Y36. I-15.189 J-15.487 F1500.
G1 Y14.
G2 X77.693 Y-1.483 I-21.692 J0.
G1 X77.684 Y-1.492 F500.
X77.458 Y-1.714 Z-1.171
Z5. F1500.
X74.228 Y52.091
Z-1.171 F200.
X74.475 Y51.892 Z-1.488 F500.
X74.986 Y51.479
G2 X82.387 Y36. I-12.486 J-15.479 F1500.
G1 Y14.
G2 X74.982 Y-1.482 I-19.887 J0.
G1 X74.973 Y-1.49 F500.
X74.726 Y-1.689 Z-1.171
Z5. F1500.
X70.838 Y52.087
Z-1.171 F200.
X71.11 Y51.923 Z-1.488 F500.
X71.834 Y51.487
G2 X80.582 Y36. I-9.334 J-15.487 F1500.
G1 Y14.
G2 X71.836 Y-1.486 I-18.082 J0.
G1 X71.825 Y-1.493 F500.
X71.553 Y-1.656 Z-1.171
Z5. F1500.
X67.18 Y51.594
Z-0.357 F200.
Z-1.171 F500.
X67.482 Y51.496 Z-1.488
X67.512 Y51.487
G2 X78.777 Y36. I-5.012 J-15.487 F1500.
G1 Y14.
G2 X67.52 Y-1.484 I-16.277 J0.
G1 X67.508 Y-1.488 F500.
X67.206 Y-1.586 Z-1.171
Z5. F1500.
X1.151 Y-2.083
Z-1.171 F200.
X1.028 Y-1.791 Z-1.488 F500.
X0.896 Y-1.478
G2 X-1.485 Y6.278 I36.604 J15.478 F1500.
G1 X-1.487 Y43.714 F500.
G2 X0.899 Y51.487 I38.987 J-7.714 F1500.
G1 X0.904 Y51.498 F500.
X1.028 Y51.79 Z-1.171
Z5. F1500.
X3.134 Y-2.084
Z-1.171 F200.
X3.005 Y-1.794 Z-1.488 F500.
X2.862 Y-1.476
G2 X-0.438 Y14. I34.638 J15.476 F1500.
G1 Y36.
G2 X2.863 Y51.478 I37.938 J0.
G1 X2.868 Y51.489 F500.
X2.998 Y51.779 Z-1.171
Z5. F1500.
X5.138 Y-2.084
Z-1.171 F200.
X5.002 Y-1.797 Z-1.488 F500.
X4.852 Y-1.481
G2 X1.367 Y14. I32.648 J15.481 F1500.
G1 Y36.
G2 X4.85 Y51.477 I36.133 J0.
G1 X4.856 Y51.489 F500.
X4.992 Y51.775 Z-1.171
Z5. F1500.
X7.165 Y-2.082
Z-1.171 F200.
X7.022 Y-1.799 Z-1.488 F500.
X6.86 Y-1.478
G2 X3.172 Y14. I30.64 J15.478 F1500.
G1 Y36.
G2 X6.863 Y51.484 I34.328 J0.
G1 X6.869 Y51.495 F500.
X7.012 Y51.778 Z-1.171
Z5. F1500.
X9.225 Y-2.084
Z-1.171 F200.
X9.074 Y-1.805 Z-1.488 F500.
X8.898 Y-1.48
G2 X4.977 Y14. I28.602 J15.48 F1500.
G1 Y36.
G2 X8.898 Y51.48 I32.523 J0.
G1 X8.904 Y51.491 F500.
X9.055 Y51.77 Z-1.171
Z5. F1500.
X11.321 Y-2.084
Z-1.171 F200.
X11.161 Y-1.81 Z-1.488 F500.
X10.97 Y-1.483
G2 X6.782 Y14. I26.53 J15.483 F1500.
G1 Y36.
G2 X10.966 Y51.477 I30.718 J0.
G1 X10.973 Y51.487 F500.
X11.132 Y51.762 Z-1.171
Z5. F1500.
X13.466 Y-2.087
Z-1.171 F200.
X13.296 Y-1.819 Z-1.488 F500.
X13.082 Y-1.482
G2 X8.587 Y14. I24.418 J15.482 F1500.
G1 Y36.
G2 X13.084 Y51.485 I28.913 J0.
G1 X13.09 Y51.495 F500.
X13.261 Y51.764 Z-1.171
Z5. F1500.
X15.666 Y-2.082
Z-1.171 F200.
X15.485 Y-1.821 Z-1.488 F500.
X15.251 Y-1.486
G2 X10.392 Y14. I22.249 J15.486 F1500.
G1 Y36.
G2 X15.25 Y51.483 I27.108 J0.
G1 X15.257 Y51.493 F500.
X15.438 Y51.754 Z-1.171
Z5. F1500.
X17.951 Y-2.082
Z-1.171 F200.
X17.757 Y-1.831 Z-1.488 F500.
X17.489 Y-1.484
G2 X12.198 Y14. I20.011 J15.484 F1500.
G1 Y36.
G2 X17.483 Y51.477 I25.302 J0.
G1 X17.49 Y51.486 F500.
X17.685 Y51.738 Z-1.171
Z5. F1500.
X20.35 Y-2.083
Z-1.171 F200.
X20.141 Y-1.844 Z-1.488 F500.
X19.819 Y-1.476
G2 X14.002 Y14. I17.681 J15.476 F1500.
G1 Y36.
G2 X19.82 Y51.477 I23.498 J0.
G1 X19.828 Y51.486 F500.
X20.037 Y51.725 Z-1.171
Z5. F1500.
X22.914 Y-2.079
Z-1.171 F200.
X22.688 Y-1.857 Z-1.488 F500.
X22.311 Y-1.487
G2 X15.807 Y14. I15.189 J15.487 F1500.
G1 Y36.
G2 X22.307 Y51.483 I21.693 J0.
G1 X22.316 Y51.492 F500.
X22.542 Y51.714 Z-1.171
Z5. F1500.
X25.764 Y-2.085
Z-1.171 F200.
X25.517 Y-1.885 Z-1.488 F500.
X25.014 Y-1.479
G2 X17.612 Y14. I12.486 J15.479 F1500.
G1 Y36.
G2 X25.018 Y51.482 I19.888 J0.
G1 X25.027 Y51.49 F500.
X25.274 Y51.689 Z-1.171
Z5. F1500.
X29.153 Y-2.082
Z-1.171 F200.
X28.881 Y-1.918 Z-1.488 F500.
X28.166 Y-1.487
G2 X19.417 Y14. I9.334 J15.487 F1500.
G1 Y36.
G2 X28.164 Y51.486 I18.083 J0.
G1 X28.175 Y51.493 F500.
X28.447 Y51.656 Z-1.171
Z5. F1500.
X32.82 Y-1.594
Z-0.357 F200.
Z-1.171 F500.
X32.518 Y-1.496 Z-1.488
X32.488 Y-1.487
G2 X21.222 Y14. I5.012 J15.487 F1500.
G1 Y36.
G2 X32.48 Y51.484 I16.278 J0.
X34.104 Y50.995 I0.459 J-1.416 F500.
G3 X35.675 Y50.357 I1.353 J1.078
G2 X37.5 Y50.472 I1.825 J-14.357 F1500.
G1 X62.5
G2 X76.973 Y36. I0. J-14.472
G1 Y14.
G2 X62.5 Y-0.472 I-14.473 J0.
G1 X37.5
G2 X23.028 Y14. I0. J14.472
G1 Y36.
G2 X35.675 Y50.357 I14.472 J0.
X37.167 Y49.559 I0.184 J-1.449 F500.
G3 X38.606 Y48.667 I1.439 J0.716
G1 X62.5 F1500.
G2 X75.168 Y36. I0. J-12.667
G1 Y14.
G2 X62.5 Y1.332 I-12.668 J0.
G1 X37.5
G2 X24.833 Y14. I0. J12.668
G1 Y36.
G2 X37.5 Y48.667 I12.667 J0.
G1 X38.606
G2 X39.96 Y47.765 I0. J-1.467 F500.
G3 X41.313 Y46.862 I1.354 J0.564
G1 X62.5 F1500.
G2 X73.363 Y36. I0. J-10.862
G1 Y14.
G2 X62.5 Y3.138 I-10.863 J0.
G1 X37.5
G2 X26.638 Y14. I0. J10.862
G1 Y36.
G2 X37.5 Y46.862 I10.862 J0.
G1 X41.313
G2 X42.667 Y45.96 I0. J-1.467 F500.
G3 X44.021 Y45.057 I1.354 J0.564
G1 X62.5 F1500.
G2 X71.558 Y36. I0. J-9.057
G1 Y14.
G2 X62.5 Y4.943 I-9.058 J0.
G1 X37.5
G2 X28.442 Y14. I0. J9.057
G1 Y36.
G2 X37.5 Y45.057 I9.058 J0.
G1 X44.021
G2 X45.375 Y44.155 I0. J-1.467 F500.
G3 X46.728 Y43.252 I1.354 J0.564
G1 X62.5 F1500.
G2 X69.753 Y36. I0. J-7.252
G1 Y14.
G2 X62.5 Y6.747 I-7.253 J0.
G1 X37.5
G2 X30.247 Y14. I0. J7.253
G1 Y36.
G2 X37.5 Y43.252 I7.253 J0.
G1 X46.728
G2 X48.082 Y42.35 I0. J-1.467 F500.
G3 X49.436 Y41.447 I1.354 J0.564
G1 X62.5 F1500.
G2 X67.948 Y36. I0. J-5.447
G1 Y14.
G2 X62.5 Y8.552 I-5.448 J0.
G1 X37.5
G2 X32.053 Y14. I0. J5.448
G1 Y36.
G2 X37.5 Y41.447 I5.447 J0.
G1 X49.436
G2 X50.79 Y40.545 I0. J-1.467 F500.
G3 X52.143 Y39.643 I1.354 J0.564
G1 X62.5 F1500.
G2 X66.143 Y36. I0. J-3.643
G1 Y14.
G2 X62.5 Y10.358 I-3.643 J0.
G1 X37.5
G2 X33.857 Y14. I0. J3.642
G1 Y36.
G2 X37.5 Y39.643 I3.643 J0.
G1 X52.143
G2 X53.535 Y38.715 I0. J-1.507 F500.
G3 X54.926 Y37.787 I1.391 J0.58
G1 X62.5 F1500.
G2 X64.287 Y36. I0. J-1.787
G1 Y14.
G2 X62.5 Y12.212 I-1.787 J0.
G1 X37.5
G2 X35.713 Y14. I0. J1.788
G1 Y36.
G2 X37.5 Y37.787 I1.787 J0.
G1 X54.926
S12000 M3
X55.419 Y37.87 Z-1.494 F333.3
X97.223 Y52.316 Z-1.961
G2 X99.104 Y51.478 Z-1.985 I0.493 J-1.425
S13000 M3
X101.485 Y43.722 I-36.604 J-15.478 F1500.
G1 X101.487 Y6.286 F500.
G2 X99.101 Y-1.487 I-38.987 J7.714 F1500.
G1 X99.096 Y-1.498 F500.
X98.972 Y-1.79 Z-1.667
Z5. F1500.
X96.862 Y52.093
Z-1.667 F200.
X96.991 Y51.803 Z-1.985 F500.
X97.138 Y51.476
G2 X100.438 Y36. I-34.638 J-15.476 F1500.
G1 Y14.
G2 X97.137 Y-1.478 I-37.938 J0.
G1 X97.132 Y-1.489 F500.
X97.002 Y-1.779 Z-1.667
Z5. F1500.
X94.858 Y52.093
Z-1.667 F200.
X94.994 Y51.806 Z-1.985 F500.
X95.148 Y51.481
G2 X98.632 Y36. I-32.648 J-15.481 F1500.
G1 Y14.
G2 X95.15 Y-1.477 I-36.132 J0.
G1 X95.144 Y-1.489 F500.
X95.008 Y-1.775 Z-1.667
Z5. F1500.
X92.83 Y52.091
Z-1.667 F200.
X92.973 Y51.808 Z-1.985 F500.
X93.14 Y51.478
G2 X96.827 Y36. I-30.64 J-15.478 F1500.
G1 Y14.
G2 X93.137 Y-1.484 I-34.327 J0.
G1 X93.131 Y-1.495 F500.
X92.988 Y-1.778 Z-1.667
Z5. F1500.
X90.771 Y52.093
Z-1.667 F200.
X90.922 Y51.813 Z-1.985 F500.
X91.102 Y51.48
G2 X95.022 Y36. I-28.602 J-15.48 F1500.
G1 Y14.
G2 X91.102 Y-1.48 I-32.522 J0.
G1 X91.096 Y-1.491 F500.
X90.945 Y-1.77 Z-1.667
Z5. F1500.
X88.674 Y52.093
Z-1.667 F200.
X88.834 Y51.819 Z-1.985 F500.
X89.03 Y51.483
G2 X93.217 Y36. I-26.53 J-15.483 F1500.
G1 Y14.
G2 X89.034 Y-1.477 I-30.717 J0.
G1 X89.027 Y-1.487 F500.
X88.868 Y-1.762 Z-1.667
Z5. F1500.
X86.534 Y52.087
Z-1.667 F200.
X86.704 Y51.819 Z-1.985 F500.
X86.918 Y51.482
G2 X91.412 Y36. I-24.418 J-15.482 F1500.
G1 Y14.
G2 X86.916 Y-1.485 I-28.912 J0.
G1 X86.91 Y-1.495 F500.
X86.739 Y-1.764 Z-1.667
Z5. F1500.
X84.328 Y52.09
Z-1.667 F200.
X84.51 Y51.829 Z-1.985 F500.
X84.749 Y51.486
G2 X89.607 Y36. I-22.249 J-15.486 F1500.
G1 Y14.
G2 X84.75 Y-1.483 I-27.107 J0.
G1 X84.743 Y-1.493 F500.
X84.562 Y-1.754 Z-1.667
Z5. F1500.
X82.043 Y52.09
Z-1.667 F200.
X82.237 Y51.839 Z-1.985 F500.
X82.511 Y51.484
G2 X87.802 Y36. I-20.011 J-15.484 F1500.
G1 Y14.
G2 X82.517 Y-1.477 I-25.302 J0.
G1 X82.51 Y-1.486 F500.
X82.315 Y-1.738 Z-1.667
Z5. F1500.
X79.644 Y52.09
Z-1.667 F200.
X79.853 Y51.851 Z-1.985 F500.
X80.181 Y51.476
G2 X85.997 Y36. I-17.681 J-15.476 F1500.
G1 Y14.
G2 X80.18 Y-1.477 I-23.497 J0.
G1 X80.172 Y-1.486 F500.
X79.963 Y-1.725 Z-1.667
Z5. F1500.
X77.071 Y52.093
Z-1.667 F200.
X77.298 Y51.871 Z-1.985 F500.
X77.689 Y51.487
G2 X84.192 Y36. I-15.189 J-15.487 F1500.
G1 Y14.
G2 X77.693 Y-1.483 I-21.692 J0.
G1 X77.684 Y-1.492 F500.
X77.458 Y-1.714 Z-1.667
Z5. F1500.
X74.228 Y52.091
Z-1.667 F200.
X74.475 Y51.892 Z-1.985 F500.
X74.986 Y51.479
G2 X82.387 Y36. I-12.486 J-15.479 F1500.
G1 Y14.
G2 X74.982 Y-1.482 I-19.887 J0.
G1 X74.973 Y-1.49 F500.
X74.726 Y-1.689 Z-1.667
Z5. F1500.
X70.838 Y52.087
Z-1.667 F200.
X71.11 Y51.923 Z-1.985 F500.
X71.834 Y51.487
G2 X80.582 Y36. I-9.334 J-15.487 F1500.
G1 Y14.
G2 X71.836 Y-1.486 I-18.082 J0.
G1 X71.825 Y-1.493 F500.
X71.553 Y-1.656 Z-1.667
Z5. F1500.
X67.18 Y51.594
Z-0.853 F200.
Z-1.667 F500.
X67.482 Y51.496 Z-1.985
X67.512 Y51.487
G2 X78.777 Y36. I-5.012 J-15.487 F1500.
G1 Y14.
G2 X67.52 Y-1.484 I-16.277 J0.
G1 X67.508 Y-1.488 F500.
X67.206 Y-1.586 Z-1.667
Z5. F1500.
X1.151 Y-2.083
Z-1.667 F200.
X1.028 Y-1.791 Z-1.985 F500.
X0.896 Y-1.478
G2 X-1.485 Y6.278 I36.604 J15.478 F1500.
G1 X-1.487 Y43.714 F500.
G2 X0.899 Y51.487 I38.987 J-7.714 F1500.
G1 X0.904 Y51.498 F500.
X1.028 Y51.79 Z-1.667
Z5. F1500.
X3.134 Y-2.084
Z-1.667 F200.
X3.005 Y-1.794 Z-1.985 F500.
X2.862 Y-1.476
G2 X-0.438 Y14. I34.638 J15.476 F1500.
G1 Y36.
G2 X2.863 Y51.478 I37.938 J0.
G1 X2.868 Y51.489 F500.
X2.998 Y51.779 Z-1.667
Z5. F1500.
X5.138 Y-2.084
Z-1.667 F200.
X5.002 Y-1.797 Z-1.985 F500.
X4.852 Y-1.481
G2 X1.367 Y14. I32.648 J15.481 F1500.
G1 Y36.
G2 X4.85 Y51.477 I36.133 J0.
G1 X4.856 Y51.489 F500.
X4.992 Y51.775 Z-1.667
Z5. F1500.
X7.165 Y-2.082
Z-1.667 F200.
X7.022 Y-1.799 Z-1.985 F500.
X6.86 Y-1.478
G2 X3.172 Y14. I30.64 J15.478 F1500.
G1 Y36.
G2 X6.863 Y51.484 I34.328 J0.
G1 X6.869 Y51.495 F500.
X7.012 Y51.778 Z-1.667
Z5. F1500.
X9.225 Y-2.084
Z-1.667 F200.
X9.074 Y-1.805 Z-1.985 F500.
X8.898 Y-1.48
G2 X4.977 Y14. I28.602 J15.48 F1500.
G1 Y36.
G2 X8.898 Y51.48 I32.523 J0.
G1 X8.904 Y51.491 F500.
X9.055 Y51.77 Z-1.667
Z5. F1500.
X11.321 Y-2.084
Z-1.667 F200.
X11.161 Y-1.81 Z-1.985 F500.
X10.97 Y-1.483
G2 X6.782 Y14. I26.53 J15.483 F1500.
G1 Y36.
G2 X10.966 Y51.477 I30.718 J0.
G1 X10.973 Y51.487 F500.
X11.132 Y51.762 Z-1.667
Z5. F1500.
X13.466 Y-2.087
Z-1.667 F200.
X13.296 Y-1.819 Z-1.985 F500.
X13.082 Y-1.482
G2 X8.587 Y14. I24.418 J15.482 F1500.
G1 Y36.
G2 X13.084 Y51.485 I28.913 J0.
G1 X13.09 Y51.495 F500.
X13.261 Y51.764 Z-1.667
Z5. F1500.
X15.666 Y-2.082
Z-1.667 F200.
X15.485 Y-1.821 Z-1.985 F500.
X15.251 Y-1.486
G2 X10.392 Y14. I22.249 J15.486 F1500.
G1 Y36.
G2 X15.25 Y51.483 I27.108 J0.
G1 X15.257 Y51.493 F500.
X15.438 Y51.754 Z-1.667
Z5. F1500.
X17.951 Y-2.082
Z-1.667 F200.
X17.757 Y-1.831 Z-1.985 F500.
X17.489 Y-1.484
G2 X12.198 Y14. I20.011 J15.484 F1500.
G1 Y36.
G2 X17.483 Y51.477 I25.302 J0.
G1 X17.49 Y51.486 F500.
X17.685 Y51.738 Z-1.667
Z5. F1500.
X20.35 Y-2.083
Z-1.667 F200.
X20.141 Y-1.844 Z-1.985 F500.
X19.819 Y-1.476
G2 X14.002 Y14. I17.681 J15.476 F1500.
G1 Y36.
G2 X19.82 Y51.477 I23.498 J0.
G1 X19.828 Y51.486 F500.
X20.037 Y51.725 Z-1.667
Z5. F1500.
X22.914 Y-2.079
Z-1.667 F200.
X22.688 Y-1.857 Z-1.985 F500.
X22.311 Y-1.487
G2 X15.807 Y14. I15.189 J15.487 F1500.
G1 Y36.
G2 X22.307 Y51.483 I21.693 J0.
G1 X22.316 Y51.492 F500.
X22.542 Y51.714 Z-1.667
Z5. F1500.
X25.764 Y-2.085
Z-1.667 F200.
X25.517 Y-1.885 Z-1.985 F500.
X25.014 Y-1.479
G2 X17.612 Y14. I12.486 J15.479 F1500.
G1 Y36.
G2 X25.018 Y51.482 I19.888 J0.
G1 X25.027 Y51.49 F500.
X25.274 Y51.689 Z-1.667
Z5. F1500.
X29.153 Y-2.082
Z-1.667 F200.
X28.881 Y-1.918 Z-1.985 F500.
X28.166 Y-1.487
G2 X19.417 Y14. I9.334 J15.487 F1500.
G1 Y36.
G2 X28.164 Y51.486 I18.083 J0.
G1 X28.175 Y51.493 F500.
X28.447 Y51.656 Z-1.667
Z5. F1500.
X32.82 Y-1.594
Z-0.853 F200.
Z-1.667 F500.
X32.518 Y-1.496 Z-1.985
X32.488 Y-1.487
G2 X21.222 Y14. I5.012 J15.487 F1500.
G1 Y36.
G2 X32.48 Y51.484 I16.278 J0.
X34.104 Y50.995 I0.459 J-1.416 F500.
G3 X35.675 Y50.357 I1.353 J1.078
G2 X37.5 Y50.472 I1.825 J-14.357 F1500.
G1 X62.5
G2 X76.973 Y36. I0. J-14.472
G1 Y14.
G2 X62.5 Y-0.472 I-14.473 J0.
G1 X37.5
G2 X23.028 Y14. I0. J14.472
G1 Y36.
G2 X35.675 Y50.357 I14.472 J0.
X37.167 Y49.559 I0.184 J-1.449 F500.
G3 X38.606 Y48.667 I1.439 J0.716
G1 X62.5 F1500.
G2 X75.168 Y36. I0. J-12.667
G1 Y14.
G2 X62.5 Y1.332 I-12.668 J0.
G1 X37.5
G2 X24.833 Y14. I0. J12.668
G1 Y36.
G2 X37.5 Y48.667 I12.667 J0.
G1 X38.606
G2 X39.96 Y47.765 I0. J-1.467 F500.
G3 X41.313 Y46.862 I1.354 J0.564
G1 X62.5 F1500.
G2 X73.363 Y36. I0. J-10.862
G1 Y14.
G2 X62.5 Y3.138 I-10.863 J0.
G1 X37.5
G2 X26.638 Y14. I0. J10.862
G1 Y36.
G2 X37.5 Y46.862 I10.862 J0.
G1 X41.313
G2 X42.667 Y45.96 I0. J-1.467 F500.
G3 X44.021 Y45.057 I1.354 J0.564
G1 X62.5 F1500.
G2 X71.558 Y36. I0. J-9.057
G1 Y14.
G2 X62.5 Y4.943 I-9.058 J0.
G1 X37.5
G2 X28.442 Y14. I0. J9.057
G1 Y36.
G2 X37.5 Y45.057 I9.058 J0.
G1 X44.021
G2 X45.375 Y44.155 I0. J-1.467 F500.
G3 X46.728 Y43.252 I1.354 J0.564
G1 X62.5 F1500.
G2 X69.753 Y36. I0. J-7.252
G1 Y14.
G2 X62.5 Y6.747 I-7.253 J0.
G1 X37.5
G2 X30.247 Y14. I0. J7.253
G1 Y36.
G2 X37.5 Y43.252 I7.253 J0.
G1 X46.728
G2 X48.082 Y42.35 I0. J-1.467 F500.
G3 X49.436 Y41.447 I1.354 J0.564
G1 X62.5 F1500.
G2 X67.948 Y36. I0. J-5.447
G1 Y14.
G2 X62.5 Y8.552 I-5.448 J0.
G1 X37.5
G2 X32.053 Y14. I0. J5.448
G1 Y36.
G2 X37.5 Y41.447 I5.447 J0.
G1 X49.436
G2 X50.79 Y40.545 I0. J-1.467 F500.
G3 X52.143 Y39.643 I1.354 J0.564
G1 X62.5 F1500.
G2 X66.143 Y36. I0. J-3.643
G1 Y14.
G2 X62.5 Y10.358 I-3.643 J0.
G1 X37.5
G2 X33.857 Y14. I0. J3.642
G1 Y36.
G2 X37.5 Y39.643 I3.643 J0.
G1 X52.143
G2 X53.535 Y38.715 I0. J-1.507 F500.
G3 X54.926 Y37.787 I1.391 J0.58
G1 X62.5 F1500.
G2 X64.287 Y36. I0. J-1.787
G1 Y14.
G2 X62.5 Y12.212 I-1.787 J0.
G1 X37.5
G2 X35.713 Y14. I0. J1.788
G1 Y36.
G2 X37.5 Y37.787 I1.787 J0.
G1 X54.926
S12000 M3
X55.419 Y37.87 Z-1.99 F333.3
X97.223 Y52.316 Z-2.457
G2 X99.104 Y51.478 Z-2.481 I0.493 J-1.425
S13000 M3
X101.485 Y43.722 I-36.604 J-15.478 F1500.
G1 X101.487 Y6.286 F500.
G2 X99.101 Y-1.487 I-38.987 J7.714 F1500.
G1 X99.096 Y-1.498 F500.
X98.972 Y-1.79 Z-2.163
Z5. F1500.
X96.862 Y52.093
Z-2.163 F200.
X96.991 Y51.803 Z-2.481 F500.
X97.138 Y51.476
G2 X100.438 Y36. I-34.638 J-15.476 F1500.
G1 Y14.
G2 X97.137 Y-1.478 I-37.938 J0.
G1 X97.132 Y-1.489 F500.
X97.002 Y-1.779 Z-2.163
Z5. F1500.
X94.858 Y52.093
Z-2.163 F200.
X94.994 Y51.806 Z-2.481 F500.
X95.148 Y51.481
G2 X98.632 Y36. I-32.648 J-15.481 F1500.
G1 Y14.
G2 X95.15 Y-1.477 I-36.132 J0.
G1 X95.144 Y-1.489 F500.
X95.008 Y-1.775 Z-2.163
Z5. F1500.
X92.83 Y52.091
Z-2.163 F200.
X92.973 Y51.808 Z-2.481 F500.
X93.14 Y51.478
G2 X96.827 Y36. I-30.64 J-15.478 F1500.
G1 Y14.
G2 X93.137 Y-1.484 I-34.327 J0.
G1 X93.131 Y-1.495 F500.
X92.988 Y-1.778 Z-2.163
Z5. F1500.
X90.771 Y52.093
Z-2.163 F200.
X90.922 Y51.813 Z-2.481 F500.
X91.102 Y51.48
G2 X95.022 Y36. I-28.602 J-15.48 F1500.
G1 Y14.
G2 X91.102 Y-1.48 I-32.522 J0.
G1 X91.096 Y-1.491 F500.
X90.945 Y-1.77 Z-2.163
Z5. F1500.
X88.674 Y52.093
Z-2.163 F200.
X88.834 Y51.819 Z-2.481 F500.
X89.03 Y51.483
G2 X93.217 Y36. I-26.53 J-15.483 F1500.
G1 Y14.
G2 X89.034 Y-1.477 I-30.717 J0.
G1 X89.027 Y-1.487 F500.
X88.868 Y-1.762 Z-2.163
Z5. F1500.
X86.534 Y52.087
Z-2.163 F200.
X86.704 Y51.819 Z-2.481 F500.
X86.918 Y51.482
G2 X91.412 Y36. I-24.418 J-15.482 F1500.
G1 Y14.
G2 X86.916 Y-1.485 I-28.912 J0.
G1 X86.91 Y-1.495 F500.
X86.739 Y-1.764 Z-2.163
Z5. F1500.
X84.328 Y52.09
Z-2.163 F200.
X84.51 Y51.829 Z-2.481 F500.
X84.749 Y51.486
G2 X89.607 Y36. I-22.249 J-15.486 F1500.
G1 Y14.
G2 X84.75 Y-1.483 I-27.107 J0.
G1 X84.743 Y-1.493 F500.
X84.562 Y-1.754 Z-2.163
Z5. F1500.
X82.043 Y52.09
Z-2.163 F200.
X82.237 Y51.839 Z-2.481 F500.
X82.511 Y51.484
G2 X87.802 Y36. I-20.011 J-15.484 F1500.
G1 Y14.
G2 X82.517 Y-1.477 I-25.302 J0.
G1 X82.51 Y-1.486 F500.
X82.315 Y-1.738 Z-2.163
Z5. F1500.
X79.644 Y52.09
Z-2.163 F200.
X79.853 Y51.851 Z-2.481 F500.
X80.181 Y51.476
G2 X85.997 Y36. I-17.681 J-15.476 F1500.
G1 Y14.
G2 X80.18 Y-1.477 I-23.497 J0.
G1 X80.172 Y-1.486 F500.
X79.963 Y-1.725 Z-2.163
Z5. F1500.
X77.071 Y52.093
Z-2.163 F200.
X77.298 Y51.871 Z-2.481 F500.
X77.689 Y51.487
G2 X84.192 Y36. I-15.189 J-15.487 F1500.
G1 Y14.
G2 X77.693 Y-1.483 I-21.692 J0.
G1 X77.684 Y-1.492 F500.
X77.458 Y-1.714 Z-2.163
Z5. F1500.
X74.228 Y52.091
Z-2.163 F200.
X74.475 Y51.892 Z-2.481 F500.
X74.986 Y51.479
G2 X82.387 Y36. I-12.486 J-15.479 F1500.
G1 Y14.
G2 X74.982 Y-1.482 I-19.887 J0.
G1 X74.973 Y-1.49 F500.
X74.726 Y-1.689 Z-2.163
Z5. F1500.
X70.838 Y52.087
Z-2.163 F200.
X71.11 Y51.923 Z-2.481 F500.
X71.834 Y51.487
G2 X80.582 Y36. I-9.334 J-15.487 F1500.
G1 Y14.
G2 X71.836 Y-1.486 I-18.082 J0.
G1 X71.825 Y-1.493 F500.
X71.553 Y-1.656 Z-2.163
Z5. F1500.
X67.18 Y51.594
Z-1.35 F200.
Z-2.163 F500.
X67.482 Y51.496 Z-2.481
X67.512 Y51.487
G2 X78.777 Y36. I-5.012 J-15.487 F1500.
G1 Y14.
G2 X67.52 Y-1.484 I-16.277 J0.
G1 X67.508 Y-1.488 F500.
X67.206 Y-1.586 Z-2.163
Z5. F1500.
X1.151 Y-2.083
Z-2.163 F200.
X1.028 Y-1.791 Z-2.481 F500.
X0.896 Y-1.478
G2 X-1.485 Y6.278 I36.604 J15.478 F1500.
G1 X-1.487 Y43.714 F500.
G2 X0.899 Y51.487 I38.987 J-7.714 F1500.
G1 X0.904 Y51.498 F500.
X1.028 Y51.79 Z-2.163
Z5. F1500.
X3.134 Y-2.084
Z-2.163 F200.
X3.005 Y-1.794 Z-2.481 F500.
X2.862 Y-1.476
G2 X-0.438 Y14. I34.638 J15.476 F1500.
G1 Y36.
G2 X2.863 Y51.478 I37.938 J0.
G1 X2.868 Y51.489 F500.
X2.998 Y51.779 Z-2.163
Z5. F1500.
X5.138 Y-2.084
Z-2.163 F200.
X5.002 Y-1.797 Z-2.481 F500.
X4.852 Y-1.481
G2 X1.367 Y14. I32.648 J15.481 F1500.
G1 Y36.
G2 X4.85 Y51.477 I36.133 J0.
G1 X4.856 Y51.489 F500.
X4.992 Y51.775 Z-2.163
Z5. F1500.
X7.165 Y-2.082
Z-2.163 F200.
X7.022 Y-1.799 Z-2.481 F500.
X6.86 Y-1.478
G2 X3.172 Y14. I30.64 J15.478 F1500.
G1 Y36.
G2 X6.863 Y51.484 I34.328 J0.
G1 X6.869 Y51.495 F500.
X7.012 Y51.778 Z-2.163
Z5. F1500.
X9.225 Y-2.084
Z-2.163 F200.
X9.074 Y-1.805 Z-2.481 F500.
X8.898 Y-1.48
G2 X4.977 Y14. I28.602 J15.48 F1500.
G1 Y36.
G2 X8.898 Y51.48 I32.523 J0.
G1 X8.904 Y51.491 F500.
X9.055 Y51.77 Z-2.163
Z5. F1500.
X11.321 Y-2.084
Z-2.163 F200.
X11.161 Y-1.81 Z-2.481 F500.
X10.97 Y-1.483
G2 X6.782 Y14. I26.53 J15.483 F1500.
G1 Y36.
G2 X10.966 Y51.477 I30.718 J0.
G1 X10.973 Y51.487 F500.
X11.132 Y51.762 Z-2.163
Z5. F1500.
X13.466 Y-2.087
Z-2.163 F200.
X13.296 Y-1.819 Z-2.481 F500.
X13.082 Y-1.482
G2 X8.587 Y14. I24.418 J15.482 F1500.
G1 Y36.
G2 X13.084 Y51.485 I28.913 J0.
G1 X13.09 Y51.495 F500.
X13.261 Y51.764 Z-2.163
Z5. F1500.
X15.666 Y-2.082
Z-2.163 F200.
X15.485 Y-1.821 Z-2.481 F500.
X15.251 Y-1.486
G2 X10.392 Y14. I22.249 J15.486 F1500.
G1 Y36.
G2 X15.25 Y51.483 I27.108 J0.
G1 X15.257 Y51.493 F500.
X15.438 Y51.754 Z-2.163
Z5. F1500.
X17.951 Y-2.082
Z-2.163 F200.
X17.757 Y-1.831 Z-2.481 F500.
X17.489 Y-1.484
G2 X12.198 Y14. I20.011 J15.484 F1500.
G1 Y36.
G2 X17.483 Y51.477 I25.302 J0.
G1 X17.49 Y51.486 F500.
X17.685 Y51.738 Z-2.163
Z5. F1500.
X20.35 Y-2.083
Z-2.163 F200.
X20.141 Y-1.844 Z-2.481 F500.
X19.819 Y-1.476
G2 X14.002 Y14. I17.681 J15.476 F1500.
G1 Y36.
G2 X19.82 Y51.477 I23.498 J0.
G1 X19.828 Y51.486 F500.
X20.037 Y51.725 Z-2.163
Z5. F1500.
X22.914 Y-2.079
Z-2.163 F200.
X22.688 Y-1.857 Z-2.481 F500.
X22.311 Y-1.487
G2 X15.807 Y14. I15.189 J15.487 F1500.
G1 Y36.
G2 X22.307 Y51.483 I21.693 J0.
G1 X22.316 Y51.492 F500.
X22.542 Y51.714 Z-2.163
Z5. F1500.
X25.764 Y-2.085
Z-2.163 F200.
X25.517 Y-1.885 Z-2.481 F500.
X25.014 Y-1.479
G2 X17.612 Y14. I12.486 J15.479 F1500.
G1 Y36.
G2 X25.018 Y51.482 I19.888 J0.
G1 X25.027 Y51.49 F500.
X25.274 Y51.689 Z-2.163
Z5. F1500.
X29.153 Y-2.082
Z-2.163 F200.
X28.881 Y-1.918 Z-2.481 F500.
X28.166 Y-1.487
G2 X19.417 Y14. I9.334 J15.487 F1500.
G1 Y36.
G2 X28.164 Y51.486 I18.083 J0.
G1 X28.175 Y51.493 F500.
X28.447 Y51.656 Z-2.163
Z5. F1500.
X32.82 Y-1.594
Z-1.35 F200.
Z-2.163 F500.
X32.518 Y-1.496 Z-2.481
X32.488 Y-1.487
G2 X21.222 Y14. I5.012 J15.487 F1500.
G1 Y36.
G2 X32.48 Y51.484 I16.278 J0.
X34.104 Y50.995 I0.459 J-1.416 F500.
G3 X35.675 Y50.357 I1.353 J1.078
G2 X37.5 Y50.472 I1.825 J-14.357 F1500.
G1 X62.5
G2 X76.973 Y36. I0. J-14.472
G1 Y14.
G2 X62.5 Y-0.472 I-14.473 J0.
G1 X37.5
G2 X23.028 Y14. I0. J14.472
G1 Y36.
G2 X35.675 Y50.357 I14.472 J0.
X37.167 Y49.559 I0.184 J-1.449 F500.
G3 X38.606 Y48.667 I1.439 J0.716
G1 X62.5 F1500.
G2 X75.168 Y36. I0. J-12.667
G1 Y14.
G2 X62.5 Y1.332 I-12.668 J0.
G1 X37.5
G2 X24.833 Y14. I0. J12.668
G1 Y36.
G2 X37.5 Y48.667 I12.667 J0.
G1 X38.606
G2 X39.96 Y47.765 I0. J-1.467 F500.
G3 X41.313 Y46.862 I1.354 J0.564
G1 X62.5 F1500.
G2 X73.363 Y36. I0. J-10.862
G1 Y14.
G2 X62.5 Y3.138 I-10.863 J0.
G1 X37.5
G2 X26.638 Y14. I0. J10.862
G1 Y36.
G2 X37.5 Y46.862 I10.862 J0.
G1 X41.313
G2 X42.667 Y45.96 I0. J-1.467 F500.
G3 X44.021 Y45.057 I1.354 J0.564
G1 X62.5 F1500.
G2 X71.558 Y36. I0. J-9.057
G1 Y14.
G2 X62.5 Y4.943 I-9.058 J0.
G1 X37.5
G2 X28.442 Y14. I0. J9.057
G1 Y36.
G2 X37.5 Y45.057 I9.058 J0.
G1 X44.021
G2 X45.375 Y44.155 I0. J-1.467 F500.
G3 X46.728 Y43.252 I1.354 J0.564
G1 X62.5 F1500.
G2 X69.753 Y36. I0. J-7.252
G1 Y14.
G2 X62.5 Y6.747 I-7.253 J0.
G1 X37.5
G2 X30.247 Y14. I0. J7.253
G1 Y36.
G2 X37.5 Y43.252 I7.253 J0.
G1 X46.728
G2 X48.082 Y42.35 I0. J-1.467 F500.
G3 X49.436 Y41.447 I1.354 J0.564
G1 X62.5 F1500.
G2 X67.948 Y36. I0. J-5.447
G1 Y14.
G2 X62.5 Y8.552 I-5.448 J0.
G1 X37.5
G2 X32.053 Y14. I0. J5.448
G1 Y36.
G2 X37.5 Y41.447 I5.447 J0.
G1 X49.436
G2 X50.79 Y40.545 I0. J-1.467 F500.
G3 X52.143 Y39.643 I1.354 J0.564
G1 X62.5 F1500.
G2 X66.143 Y36. I0. J-3.643
G1 Y14.
G2 X62.5 Y10.358 I-3.643 J0.
G1 X37.5
G2 X33.857 Y14. I0. J3.642
G1 Y36.
G2 X37.5 Y39.643 I3.643 J0.
G1 X52.143
G2 X53.535 Y38.715 I0. J-1.507 F500.
G3 X54.926 Y37.787 I1.391 J0.58
G1 X62.5 F1500.
G2 X64.287 Y36. I0. J-1.787
G1 Y14.
G2 X62.5 Y12.212 I-1.787 J0.
G1 X37.5
G2 X35.713 Y14. I0. J1.788
G1 Y36.
G2 X37.5 Y37.787 I1.787 J0.
G1 X54.926
S12000 M3
X55.419 Y37.87 Z-2.486 F333.3
X97.223 Y52.316 Z-2.953
G2 X99.104 Y51.478 Z-2.977 I0.493 J-1.425
S13000 M3
X101.485 Y43.722 I-36.604 J-15.478 F1500.
G1 X101.487 Y6.286 F500.
G2 X99.101 Y-1.487 I-38.987 J7.714 F1500.
G1 X99.096 Y-1.498 F500.
X98.972 Y-1.79 Z-2.659
Z5. F1500.
X96.862 Y52.093
Z-2.659 F200.
X96.991 Y51.803 Z-2.977 F500.
X97.138 Y51.476
G2 X100.438 Y36. I-34.638 J-15.476 F1500.
G1 Y14.
G2 X97.137 Y-1.478 I-37.938 J0.
G1 X97.132 Y-1.489 F500.
X97.002 Y-1.779 Z-2.659
Z5. F1500.
X94.858 Y52.093
Z-2.659 F200.
X94.994 Y51.806 Z-2.977 F500.
X95.148 Y51.481
G2 X98.632 Y36. I-32.648 J-15.481 F1500.
G1 Y14.
G2 X95.15 Y-1.477 I-36.132 J0.
G1 X95.144 Y-1.489 F500.
X95.008 Y-1.775 Z-2.659
Z5. F1500.
X92.83 Y52.091
Z-2.659 F200.
X92.973 Y51.808 Z-2.977 F500.
X93.14 Y51.478
G2 X96.827 Y36. I-30.64 J-15.478 F1500.
G1 Y14.
G2 X93.137 Y-1.484 I-34.327 J0.
G1 X93.131 Y-1.495 F500.
X92.988 Y-1.778 Z-2.659
Z5. F1500.
X90.771 Y52.093
Z-2.659 F200.
X90.922 Y51.813 Z-2.977 F500.
X91.102 Y51.48
G2 X95.022 Y36. I-28.602 J-15.48 F1500.
G1 Y14.
G2 X91.102 Y-1.48 I-32.522 J0.
G1 X91.096 Y-1.491 F500.
X90.945 Y-1.77 Z-2.659
Z5. F1500.
X88.674 Y52.093
Z-2.659 F200.
X88.834 Y51.819 Z-2.977 F500.
X89.03 Y51.483
G2 X93.217 Y36. I-26.53 J-15.483 F1500.
G1 Y14.
G2 X89.034 Y-1.477 I-30.717 J0.
G1 X89.027 Y-1.487 F500.
X88.868 Y-1.762 Z-2.659
Z5. F1500.
X86.534 Y52.087
Z-2.659 F200.
X86.704 Y51.819 Z-2.977 F500.
X86.918 Y51.482
G2 X91.412 Y36. I-24.418 J-15.482 F1500.
G1 Y14.
G2 X86.916 Y-1.485 I-28.912 J0.
G1 X86.91 Y-1.495 F500.
X86.739 Y-1.764 Z-2.659
Z5. F1500.
X84.328 Y52.09
Z-2.659 F200.
X84.51 Y51.829 Z-2.977 F500.
X84.749 Y51.486
G2 X89.607 Y36. I-22.249 J-15.486 F1500.
G1 Y14.
G2 X84.75 Y-1.483 I-27.107 J0.
G1 X84.743 Y-1.493 F500.
X84.562 Y-1.754 Z-2.659
Z5. F1500.
X82.043 Y52.09
Z-2.659 F200.
X82.237 Y51.839 Z-2.977 F500.
X82.511 Y51.484
G2 X87.802 Y36. I-20.011 J-15.484 F1500.
G1 Y14.
G2 X82.517 Y-1.477 I-25.302 J0.
G1 X82.51 Y-1.486 F500.
X82.315 Y-1.738 Z-2.659
Z5. F1500.
X79.644 Y52.09
Z-2.659 F200.
X79.853 Y51.851 Z-2.977 F500.
X80.181 Y51.476
G2 X85.997 Y36. I-17.681 J-15.476 F1500.
G1 Y14.
G2 X80.18 Y-1.477 I-23.497 J0.
G1 X80.172 Y-1.486 F500.
X79.963 Y-1.725 Z-2.659
Z5. F1500.
X77.071 Y52.093
Z-2.659 F200.
X77.298 Y51.871 Z-2.977 F500.
X77.689 Y51.487
G2 X84.192 Y36. I-15.189 J-15.487 F1500.
G1 Y14.
G2 X77.693 Y-1.483 I-21.692 J0.
G1 X77.684 Y-1.492 F500.
X77.458 Y-1.714 Z-2.659
Z5. F1500.
X74.228 Y52.091
Z-2.659 F200.
X74.475 Y51.892 Z-2.977 F500.
X74.986 Y51.479
G2 X82.387 Y36. I-12.486 J-15.479 F1500.
G1 Y14.
G2 X74.982 Y-1.482 I-19.887 J0.
G1 X74.973 Y-1.49 F500.
X74.726 Y-1.689 Z-2.659
Z5. F1500.
X70.838 Y52.087
Z-2.659 F200.
X71.11 Y51.923 Z-2.977 F500.
X71.834 Y51.487
G2 X80.582 Y36. I-9.334 J-15.487 F1500.
G1 Y14.
G2 X71.836 Y-1.486 I-18.082 J0.
G1 X71.825 Y-1.493 F500.
X71.553 Y-1.656 Z-2.659
Z5. F1500.
X67.18 Y51.594
Z-1.846 F200.
Z-2.659 F500.
X67.482 Y51.496 Z-2.977
X67.512 Y51.487
G2 X78.777 Y36. I-5.012 J-15.487 F1500.
G1 Y14.
G2 X67.52 Y-1.484 I-16.277 J0.
G1 X67.508 Y-1.488 F500.
X67.206 Y-1.586 Z-2.659
Z5. F1500.
X1.151 Y-2.083
Z-2.659 F200.
X1.028 Y-1.791 Z-2.977 F500.
X0.896 Y-1.478
G2 X-1.485 Y6.278 I36.604 J15.478 F1500.
G1 X-1.487 Y43.714 F500.
G2 X0.899 Y51.487 I38.987 J-7.714 F1500.
G1 X0.904 Y51.498 F500.
X1.028 Y51.79 Z-2.659
Z5. F1500.
X3.134 Y-2.084
Z-2.659 F200.
X3.005 Y-1.794 Z-2.977 F500.
X2.862 Y-1.476
G2 X-0.438 Y14. I34.638 J15.476 F1500.
G1 Y36.
G2 X2.863 Y51.478 I37.938 J0.
G1 X2.868 Y51.489 F500.
X2.998 Y51.779 Z-2.659
Z5. F1500.
X5.138 Y-2.084
Z-2.659 F200.
X5.002 Y-1.797 Z-2.977 F500.
X4.852 Y-1.481
G2 X1.367 Y14. I32.648 J15.481 F1500.
G1 Y36.
G2 X4.85 Y51.477 I36.133 J0.
G1 X4.856 Y51.489 F500.
X4.992 Y51.775 Z-2.659
Z5. F1500.
X7.165 Y-2.082
Z-2.659 F200.
X7.022 Y-1.799 Z-2.977 F500.
X6.86 Y-1.478
G2 X3.172 Y14. I30.64 J15.478 F1500.
G1 Y36.
G2 X6.863 Y51.484 I34.328 J0.
G1 X6.869 Y51.495 F500.
X7.012 Y51.778 Z-2.659
Z5. F1500.
X9.225 Y-2.084
Z-2.659 F200.
X9.074 Y-1.805 Z-2.977 F500.
X8.898 Y-1.48
G2 X4.977 Y14. I28.602 J15.48 F1500.
G1 Y36.
G2 X8.898 Y51.48 I32.523 J0.
G1 X8.904 Y51.491 F500.
X9.055 Y51.77 Z-2.659
Z5. F1500.
X11.321 Y-2.084
Z-2.659 F200.
X11.161 Y-1.81 Z-2.977 F500.
X10.97 Y-1.483
G2 X6.782 Y14. I26.53 J15.483 F1500.
G1 Y36.
G2 X10.966 Y51.477 I30.718 J0.
G1 X10.973 Y51.487 F500.
X11.132 Y51.762 Z-2.659
Z5. F1500.
X13.466 Y-2.087
Z-2.659 F200.
X13.296 Y-1.819 Z-2.977 F500.
X13.082 Y-1.482
G2 X8.587 Y14. I24.418 J15.482 F1500.
G1 Y36.
G2 X13.084 Y51.485 I28.913 J0.
G1 X13.09 Y51.495 F500.
X13.261 Y51.764 Z-2.659
Z5. F1500.
X15.666 Y-2.082
Z-2.659 F200.
X15.485 Y-1.821 Z-2.977 F500.
X15.251 Y-1.486
G2 X10.392 Y14. I22.249 J15.486 F1500.
G1 Y36.
G2 X15.25 Y51.483 I27.108 J0.
G1 X15.257 Y51.493 F500.
X15.438 Y51.754 Z-2.659
Z5. F1500.
X17.951 Y-2.082
Z-2.659 F200.
X17.757 Y-1.831 Z-2.977 F500.
X17.489 Y-1.484
G2 X12.198 Y14. I20.011 J15.484 F1500.
G1 Y36.
G2 X17.483 Y51.477 I25.302 J0.
G1 X17.49 Y51.486 F500.
X17.685 Y51.738 Z-2.659
Z5. F1500.
X20.35 Y-2.083
Z-2.659 F200.
X20.141 Y-1.844 Z-2.977 F500.
X19.819 Y-1.476
G2 X14.002 Y14. I17.681 J15.476 F1500.
G1 Y36.
G2 X19.82 Y51.477 I23.498 J0.
G1 X19.828 Y51.486 F500.
X20.037 Y51.725 Z-2.659
Z5. F1500.
X22.914 Y-2.079
Z-2.659 F200.
X22.688 Y-1.857 Z-2.977 F500.
X22.311 Y-1.487
G2 X15.807 Y14. I15.189 J15.487 F1500.
G1 Y36.
G2 X22.307 Y51.483 I21.693 J0.
G1 X22.316 Y51.492 F500.
X22.542 Y51.714 Z-2.659
Z5. F1500.
X25.764 Y-2.085
Z-2.659 F200.
X25.517 Y-1.885 Z-2.977 F500.
X25.014 Y-1.479
G2 X17.612 Y14. I12.486 J15.479 F1500.
G1 Y36.
G2 X25.018 Y51.482 I19.888 J0.
G1 X25.027 Y51.49 F500.
X25.274 Y51.689 Z-2.659
Z5. F1500.
X29.153 Y-2.082
Z-2.659 F200.
X28.881 Y-1.918 Z-2.977 F500.
X28.166 Y-1.487
G2 X19.417 Y14. I9.334 J15.487 F1500.
G1 Y36.
G2 X28.164 Y51.486 I18.083 J0.
G1 X28.175 Y51.493 F500.
X28.447 Y51.656 Z-2.659
Z5. F1500.
X32.82 Y-1.594
Z-1.846 F200.
Z-2.659 F500.
X32.518 Y-1.496 Z-2.977
X32.488 Y-1.487
G2 X21.222 Y14. I5.012 J15.487 F1500.
G1 Y36.
G2 X32.48 Y51.484 I16.278 J0.
X34.104 Y50.995 I0.459 J-1.416 F500.
G3 X35.675 Y50.357 I1.353 J1.078
G2 X37.5 Y50.472 I1.825 J-14.357 F1500.
G1 X62.5
G2 X76.973 Y36. I0. J-14.472
G1 Y14.
G2 X62.5 Y-0.472 I-14.473 J0.
G1 X37.5
G2 X23.028 Y14. I0. J14.472
G1 Y36.
G2 X35.675 Y50.357 I14.472 J0.
X37.167 Y49.559 I0.184 J-1.449 F500.
G3 X38.606 Y48.667 I1.439 J0.716
G1 X62.5 F1500.
G2 X75.168 Y36. I0. J-12.667
G1 Y14.
G2 X62.5 Y1.332 I-12.668 J0.
G1 X37.5
G2 X24.833 Y14. I0. J12.668
G1 Y36.
G2 X37.5 Y48.667 I12.667 J0.
G1 X38.606
G2 X39.96 Y47.765 I0. J-1.467 F500.
G3 X41.313 Y46.862 I1.354 J0.564
G1 X62.5 F1500.
G2 X73.363 Y36. I0. J-10.862
G1 Y14.
G2 X62.5 Y3.138 I-10.863 J0.
G1 X37.5
G2 X26.638 Y14. I0. J10.862
G1 Y36.
G2 X37.5 Y46.862 I10.862 J0.
G1 X41.313
G2 X42.667 Y45.96 I0. J-1.467 F500.
G3 X44.021 Y45.057 I1.354 J0.564
G1 X62.5 F1500.
G2 X71.558 Y36. I0. J-9.057
G1 Y14.
G2 X62.5 Y4.943 I-9.058 J0.
G1 X37.5
G2 X28.442 Y14. I0. J9.057
G1 Y36.
G2 X37.5 Y45.057 I9.058 J0.
G1 X44.021
G2 X45.375 Y44.155 I0. J-1.467 F500.
G3 X46.728 Y43.252 I1.354 J0.564
G1 X62.5 F1500.
G2 X69.753 Y36. I0. J-7.252
G1 Y14.
G2 X62.5 Y6.747 I-7.253 J0.
G1 X37.5
G2 X30.247 Y14. I0. J7.253
G1 Y36.
G2 X37.5 Y43.252 I7.253 J0.
G1 X46.728
G2 X48.082 Y42.35 I0. J-1.467 F500.
G3 X49.436 Y41.447 I1.354 J0.564
G1 X62.5 F1500.
G2 X67.948 Y36. I0. J-5.447
G1 Y14.
G2 X62.5 Y8.552 I-5.448 J0.
G1 X37.5
G2 X32.053 Y14. I0. J5.448
G1 Y36.
G2 X37.5 Y41.447 I5.447 J0.
G1 X49.436
G2 X50.79 Y40.545 I0. J-1.467 F500.
G3 X52.143 Y39.643 I1.354 J0.564
G1 X62.5 F1500.
G2 X66.143 Y36. I0. J-3.643
G1 Y14.
G2 X62.5 Y10.358 I-3.643 J0.
G1 X37.5
G2 X33.857 Y14. I0. J3.642
G1 Y36.
G2 X37.5 Y39.643 I3.643 J0.
G1 X52.143
G2 X53.535 Y38.715 I0. J-1.507 F500.
G3 X54.926 Y37.787 I1.391 J0.58
G1 X62.5 F1500.
G2 X64.287 Y36. I0. J-1.787
G1 Y14.
G2 X62.5 Y12.212 I-1.787 J0.
G1 X37.5
G2 X35.713 Y14. I0. J1.788
G1 Y36.
G2 X37.5 Y37.787 I1.787 J0.
G1 X54.926
S12000 M3
X55.419 Y37.87 Z-2.982 F333.3
X97.223 Y52.316 Z-3.449
G2 X99.104 Y51.478 Z-3.473 I0.493 J-1.425
S13000 M3
X101.485 Y43.722 I-36.604 J-15.478 F1500.
G1 X101.487 Y6.286 F500.
G2 X99.101 Y-1.487 I-38.987 J7.714 F1500.
G1 X99.096 Y-1.498 F500.
X98.972 Y-1.79 Z-3.156
Z5. F1500.
X96.862 Y52.093
Z-3.156 F200.
X96.991 Y51.803 Z-3.473 F500.
X97.138 Y51.476
G2 X100.438 Y36. I-34.638 J-15.476 F1500.
G1 Y14.
G2 X97.137 Y-1.478 I-37.938 J0.
G1 X97.132 Y-1.489 F500.
X97.002 Y-1.779 Z-3.156
Z5. F1500.
X94.858 Y52.093
Z-3.156 F200.
X94.994 Y51.806 Z-3.473 F500.
X95.148 Y51.481
G2 X98.632 Y36. I-32.648 J-15.481 F1500.
G1 Y14.
G2 X95.15 Y-1.477 I-36.132 J0.
G1 X95.144 Y-1.489 F500.
X95.008 Y-1.775 Z-3.156
Z5. F1500.
X92.83 Y52.091
Z-3.156 F200.
X92.973 Y51.808 Z-3.473 F500.
X93.14 Y51.478
G2 X96.827 Y36. I-30.64 J-15.478 F1500.
G1 Y14.
G2 X93.137 Y-1.484 I-34.327 J0.
G1 X93.131 Y-1.495 F500.
X92.988 Y-1.778 Z-3.156
Z5. F1500.
X90.771 Y52.093
Z-3.156 F200.
X90.922 Y51.813 Z-3.473 F500.
X91.102 Y51.48
G2 X95.022 Y36. I-28.602 J-15.48 F1500.
G1 Y14.
G2 X91.102 Y-1.48 I-32.522 J0.
G1 X91.096 Y-1.491 F500.
X90.945 Y-1.77 Z-3.156
Z5. F1500.
X88.674 Y52.093
Z-3.156 F200.
X88.834 Y51.819 Z-3.473 F500.
X89.03 Y51.483
G2 X93.217 Y36. I-26.53 J-15.483 F1500.
G1 Y14.
G2 X89.034 Y-1.477 I-30.717 J0.
G1 X89.027 Y-1.487 F500.
X88.868 Y-1.762 Z-3.156
Z5. F1500.
X86.534 Y52.087
Z-3.156 F200.
X86.704 Y51.819 Z-3.473 F500.
X86.918 Y51.482
G2 X91.412 Y36. I-24.418 J-15.482 F1500.
G1 Y14.
G2 X86.916 Y-1.485 I-28.912 J0.
G1 X86.91 Y-1.495 F500.
X86.739 Y-1.764 Z-3.156
Z5. F1500.
X84.328 Y52.09
Z-3.156 F200.
X84.51 Y51.829 Z-3.473 F500.
X84.749 Y51.486
G2 X89.607 Y36. I-22.249 J-15.486 F1500.
G1 Y14.
G2 X84.75 Y-1.483 I-27.107 J0.
G1 X84.743 Y-1.493 F500.
X84.562 Y-1.754 Z-3.156
Z5. F1500.
X82.043 Y52.09
Z-3.156 F200.
X82.237 Y51.839 Z-3.473 F500.
X82.511 Y51.484
G2 X87.802 Y36. I-20.011 J-15.484 F1500.
G1 Y14.
G2 X82.517 Y-1.477 I-25.302 J0.
G1 X82.51 Y-1.486 F500.
X82.315 Y-1.738 Z-3.156
Z5. F1500.
X79.644 Y52.09
Z-3.156 F200.
X79.853 Y51.851 Z-3.473 F500.
X80.181 Y51.476
G2 X85.997 Y36. I-17.681 J-15.476 F1500.
G1 Y14.
G2 X80.18 Y-1.477 I-23.497 J0.
G1 X80.172 Y-1.486 F500.
X79.963 Y-1.725 Z-3.156
Z5. F1500.
X77.071 Y52.093
Z-3.156 F200.
X77.298 Y51.871 Z-3.473 F500.
X77.689 Y51.487
G2 X84.192 Y36. I-15.189 J-15.487 F1500.
G1 Y14.
G2 X77.693 Y-1.483 I-21.692 J0.
G1 X77.684 Y-1.492 F500.
X77.458 Y-1.714 Z-3.156
Z5. F1500.
X74.228 Y52.091
Z-3.156 F200.
X74.475 Y51.892 Z-3.473 F500.
X74.986 Y51.479
G2 X82.387 Y36. I-12.486 J-15.479 F1500.
G1 Y14.
G2 X74.982 Y-1.482 I-19.887 J0.
G1 X74.973 Y-1.49 F500.
X74.726 Y-1.689 Z-3.156
Z5. F1500.
X70.838 Y52.087
Z-3.156 F200.
X71.11 Y51.923 Z-3.473 F500.
X71.834 Y51.487
G2 X80.582 Y36. I-9.334 J-15.487 F1500.
G1 Y14.
G2 X71.836 Y-1.486 I-18.082 J0.
G1 X71.825 Y-1.493 F500.
X71.553 Y-1.656 Z-3.156
Z5. F1500.
X67.18 Y51.594
Z-2.342 F200.
Z-3.156 F500.
X67.482 Y51.496 Z-3.473
X67.512 Y51.487
G2 X78.777 Y36. I-5.012 J-15.487 F1500.
G1 Y14.
G2 X67.52 Y-1.484 I-16.277 J0.
G1 X67.508 Y-1.488 F500.
X67.206 Y-1.586 Z-3.156
Z5. F1500.
X1.151 Y-2.083
Z-3.156 F200.
X1.028 Y-1.791 Z-3.473 F500.
X0.896 Y-1.478
G2 X-1.485 Y6.278 I36.604 J15.478 F1500.
G1 X-1.487 Y43.714 F500.
G2 X0.899 Y51.487 I38.987 J-7.714 F1500.
G1 X0.904 Y51.498 F500.
X1.028 Y51.79 Z-3.156
Z5. F1500.
X3.134 Y-2.084
Z-3.156 F200.
X3.005 Y-1.794 Z-3.473 F500.
X2.862 Y-1.476
G2 X-0.438 Y14. I34.638 J15.476 F1500.
G1 Y36.
G2 X2.863 Y51.478 I37.938 J0.
G1 X2.868 Y51.489 F500.
X2.998 Y51.779 Z-3.156
Z5. F1500.
X5.138 Y-2.084
Z-3.156 F200.
X5.002 Y-1.797 Z-3.473 F500.
X4.852 Y-1.481
G2 X1.367 Y14. I32.648 J15.481 F1500.
G1 Y36.
G2 X4.85 Y51.477 I36.133 J0.
G1 X4.856 Y51.489 F500.
X4.992 Y51.775 Z-3.156
Z5. F1500.
X7.165 Y-2.082
Z-3.156 F200.
X7.022 Y-1.799 Z-3.473 F500.
X6.86 Y-1.478
G2 X3.172 Y14. I30.64 J15.478 F1500.
G1 Y36.
G2 X6.863 Y51.484 I34.328 J0.
G1 X6.869 Y51.495 F500.
X7.012 Y51.778 Z-3.156
Z5. F1500.
X9.225 Y-2.084
Z-3.156 F200.
X9.074 Y-1.805 Z-3.473 F500.
X8.898 Y-1.48
G2 X4.977 Y14. I28.602 J15.48 F1500.
G1 Y36.
G2 X8.898 Y51.48 I32.523 J0.
G1 X8.904 Y51.491 F500.
X9.055 Y51.77 Z-3.156
Z5. F1500.
X11.321 Y-2.084
Z-3.156 F200.
X11.161 Y-1.81 Z-3.473 F500.
X10.97 Y-1.483
G2 X6.782 Y14. I26.53 J15.483 F1500.
G1 Y36.
G2 X10.966 Y51.477 I30.718 J0.
G1 X10.973 Y51.487 F500.
X11.132 Y51.762 Z-3.156
Z5. F1500.
X13.466 Y-2.087
Z-3.156 F200.
X13.296 Y-1.819 Z-3.473 F500.
X13.082 Y-1.482
G2 X8.587 Y14. I24.418 J15.482 F1500.
G1 Y36.
G2 X13.084 Y51.485 I28.913 J0.
G1 X13.09 Y51.495 F500.
X13.261 Y51.764 Z-3.156
Z5. F1500.
X15.666 Y-2.082
Z-3.156 F200.
X15.485 Y-1.821 Z-3.473 F500.
X15.251 Y-1.486
G2 X10.392 Y14. I22.249 J15.486 F1500.
G1 Y36.
G2 X15.25 Y51.483 I27.108 J0.
G1 X15.257 Y51.493 F500.
X15.438 Y51.754 Z-3.156
Z5. F1500.
X17.951 Y-2.082
Z-3.156 F200.
X17.757 Y-1.831 Z-3.473 F500.
X17.489 Y-1.484
G2 X12.198 Y14. I20.011 J15.484 F1500.
G1 Y36.
G2 X17.483 Y51.477 I25.302 J0.
G1 X17.49 Y51.486 F500.
X17.685 Y51.738 Z-3.156
Z5. F1500.
X20.35 Y-2.083
Z-3.156 F200.
X20.141 Y-1.844 Z-3.473 F500.
X19.819 Y-1.476
G2 X14.002 Y14. I17.681 J15.476 F1500.
G1 Y36.
G2 X19.82 Y51.477 I23.498 J0.
G1 X19.828 Y51.486 F500.
X20.037 Y51.725 Z-3.156
Z5. F1500.
X22.914 Y-2.079
Z-3.156 F200.
X22.688 Y-1.857 Z-3.473 F500.
X22.311 Y-1.487
G2 X15.807 Y14. I15.189 J15.487 F1500.
G1 Y36.
G2 X22.307 Y51.483 I21.693 J0.
G1 X22.316 Y51.492 F500.
X22.542 Y51.714 Z-3.156
Z5. F1500.
X25.764 Y-2.085
Z-3.156 F200.
X25.517 Y-1.885 Z-3.473 F500.
X25.014 Y-1.479
G2 X17.612 Y14. I12.486 J15.479 F1500.
G1 Y36.
G2 X25.018 Y51.482 I19.888 J0.
G1 X25.027 Y51.49 F500.
X25.274 Y51.689 Z-3.156
Z5. F1500.
X29.153 Y-2.082
Z-3.156 F200.
X28.881 Y-1.918 Z-3.473 F500.
X28.166 Y-1.487
G2 X19.417 Y14. I9.334 J15.487 F1500.
G1 Y36.
G2 X28.164 Y51.486 I18.083 J0.
G1 X28.175 Y51.493 F500.
X28.447 Y51.656 Z-3.156
Z5. F1500.
X32.82 Y-1.594
Z-2.342 F200.
Z-3.156 F500.
X32.518 Y-1.496 Z-3.473
X32.488 Y-1.487
G2 X21.222 Y14. I5.012 J15.487 F1500.
G1 Y36.
G2 X32.48 Y51.484 I16.278 J0.
X34.104 Y50.995 I0.459 J-1.416 F500.
G3 X35.675 Y50.357 I1.353 J1.078
G2 X37.5 Y50.472 I1.825 J-14.357 F1500.
G1 X62.5
G2 X76.973 Y36. I0. J-14.472
G1 Y14.
G2 X62.5 Y-0.472 I-14.473 J0.
G1 X37.5
G2 X23.028 Y14. I0. J14.472
G1 Y36.
G2 X35.675 Y50.357 I14.472 J0.
X37.167 Y49.559 I0.184 J-1.449 F500.
G3 X38.606 Y48.667 I1.439 J0.716
G1 X62.5 F1500.
G2 X75.168 Y36. I0. J-12.667
G1 Y14.
G2 X62.5 Y1.332 I-12.668 J0.
G1 X37.5
G2 X24.833 Y14. I0. J12.668
G1 Y36.
G2 X37.5 Y48.667 I12.667 J0.
G1 X38.606
G2 X39.96 Y47.765 I0. J-1.467 F500.
G3 X41.313 Y46.862 I1.354 J0.564
G1 X62.5 F1500.
G2 X73.363 Y36. I0. J-10.862
G1 Y14.
G2 X62.5 Y3.138 I-10.863 J0.
G1 X37.5
G2 X26.638 Y14. I0. J10.862
G1 Y36.
G2 X37.5 Y46.862 I10.862 J0.
G1 X41.313
G2 X42.667 Y45.96 I0. J-1.467 F500.
G3 X44.021 Y45.057 I1.354 J0.564
G1 X62.5 F1500.
G2 X71.558 Y36. I0. J-9.057
G1 Y14.
G2 X62.5 Y4.943 I-9.058 J0.
G1 X37.5
G2 X28.442 Y14. I0. J9.057
G1 Y36.
G2 X37.5 Y45.057 I9.058 J0.
G1 X44.021
G2 X45.375 Y44.155 I0. J-1.467 F500.
G3 X46.728 Y43.252 I1.354 J0.564
G1 X62.5 F1500.
G2 X69.753 Y36. I0. J-7.252
G1 Y14.
G2 X62.5 Y6.747 I-7.253 J0.
G1 X37.5
G2 X30.247 Y14. I0. J7.253
G1 Y36.
G2 X37.5 Y43.252 I7.253 J0.
G1 X46.728
G2 X48.082 Y42.35 I0. J-1.467 F500.
G3 X49.436 Y41.447 I1.354 J0.564
G1 X62.5 F1500.
G2 X67.948 Y36. I0. J-5.447
G1 Y14.
G2 X62.5 Y8.552 I-5.448 J0.
G1 X37.5
G2 X32.053 Y14. I0. J5.448
G1 Y36.
G2 X37.5 Y41.447 I5.447 J0.
G1 X49.436
G2 X50.79 Y40.545 I0. J-1.467 F500.
G3 X52.143 Y39.643 I1.354 J0.564
G1 X62.5 F1500.
G2 X66.143 Y36. I0. J-3.643
G1 Y14.
G2 X62.5 Y10.358 I-3.643 J0.
G1 X37.5
G2 X33.857 Y14. I0. J3.642
G1 Y36.
G2 X37.5 Y39.643 I3.643 J0.
G1 X52.143
G2 X53.535 Y38.715 I0. J-1.507 F500.
G3 X54.926 Y37.787 I1.391 J0.58
G1 X62.5 F1500.
G2 X64.287 Y36. I0. J-1.787
G1 Y14.
G2 X62.5 Y12.212 I-1.787 J0.
G1 X37.5
G2 X35.713 Y14. I0. J1.788
G1 Y36.
G2 X37.5 Y37.787 I1.787 J0.
G1 X54.926
S12000 M3
X55.419 Y37.87 Z-3.478 F333.3
X97.223 Y52.316 Z-3.945
G2 X99.104 Y51.478 Z-3.969 I0.493 J-1.425
S13000 M3
X101.485 Y43.722 I-36.604 J-15.478 F1500.
G1 X101.487 Y6.286 F500.
G2 X99.101 Y-1.487 I-38.987 J7.714 F1500.
G1 X99.096 Y-1.498 F500.
X98.972 Y-1.79 Z-3.652
Z5. F1500.
X96.862 Y52.093
Z-3.652 F200.
X96.991 Y51.803 Z-3.969 F500.
X97.138 Y51.476
G2 X100.438 Y36. I-34.638 J-15.476 F1500.
G1 Y14.
G2 X97.137 Y-1.478 I-37.938 J0.
G1 X97.132 Y-1.489 F500.
X97.002 Y-1.779 Z-3.652
Z5. F1500.
X94.858 Y52.093
Z-3.652 F200.
X94.994 Y51.806 Z-3.969 F500.
X95.148 Y51.481
G2 X98.632 Y36. I-32.648 J-15.481 F1500.
G1 Y14.
G2 X95.15 Y-1.477 I-36.132 J0.
G1 X95.144 Y-1.489 F500.
X95.008 Y-1.775 Z-3.652
Z5. F1500.
X92.83 Y52.091
Z-3.652 F200.
X92.973 Y51.808 Z-3.969 F500.
X93.14 Y51.478
G2 X96.827 Y36. I-30.64 J-15.478 F1500.
G1 Y14.
G2 X93.137 Y-1.484 I-34.327 J0.
G1 X93.131 Y-1.495 F500.
X92.988 Y-1.778 Z-3.652
Z5. F1500.
X90.771 Y52.093
Z-3.652 F200.
X90.922 Y51.813 Z-3.969 F500.
X91.102 Y51.48
G2 X95.022 Y36. I-28.602 J-15.48 F1500.
G1 Y14.
G2 X91.102 Y-1.48 I-32.522 J0.
G1 X91.096 Y-1.491 F500.
X90.945 Y-1.77 Z-3.652
Z5. F1500.
X88.674 Y52.093
Z-3.652 F200.
X88.834 Y51.819 Z-3.969 F500.
X89.03 Y51.483
G2 X93.217 Y36. I-26.53 J-15.483 F1500.
G1 Y14.
G2 X89.034 Y-1.477 I-30.717 J0.
G1 X89.027 Y-1.487 F500.
X88.868 Y-1.762 Z-3.652
Z5. F1500.
X86.534 Y52.087
Z-3.652 F200.
X86.704 Y51.819 Z-3.969 F500.
X86.918 Y51.482
G2 X91.412 Y36. I-24.418 J-15.482 F1500.
G1 Y14.
G2 X86.916 Y-1.485 I-28.912 J0.
G1 X86.91 Y-1.495 F500.
X86.739 Y-1.764 Z-3.652
Z5. F1500.
X84.328 Y52.09
Z-3.652 F200.
X84.51 Y51.829 Z-3.969 F500.
X84.749 Y51.486
G2 X89.607 Y36. I-22.249 J-15.486 F1500.
G1 Y14.
G2 X84.75 Y-1.483 I-27.107 J0.
G1 X84.743 Y-1.493 F500.
X84.562 Y-1.754 Z-3.652
Z5. F1500.
X82.043 Y52.09
Z-3.652 F200.
X82.237 Y51.839 Z-3.969 F500.
X82.511 Y51.484
G2 X87.802 Y36. I-20.011 J-15.484 F1500.
G1 Y14.
G2 X82.517 Y-1.477 I-25.302 J0.
G1 X82.51 Y-1.486 F500.
X82.315 Y-1.738 Z-3.652
Z5. F1500.
X79.644 Y52.09
Z-3.652 F200.
X79.853 Y51.851 Z-3.969 F500.
X80.181 Y51.476
G2 X85.997 Y36. I-17.681 J-15.476 F1500.
G1 Y14.
G2 X80.18 Y-1.477 I-23.497 J0.
G1 X80.172 Y-1.486 F500.
X79.963 Y-1.725 Z-3.652
Z5. F1500.
X77.071 Y52.093
Z-3.652 F200.
X77.298 Y51.871 Z-3.969 F500.
X77.689 Y51.487
G2 X84.192 Y36. I-15.189 J-15.487 F1500.
G1 Y14.
G2 X77.693 Y-1.483 I-21.692 J0.
G1 X77.684 Y-1.492 F500.
X77.458 Y-1.714 Z-3.652
Z5. F1500.
X74.228 Y52.091
Z-3.652 F200.
X74.475 Y51.892 Z-3.969 F500.
X74.986 Y51.479
G2 X82.387 Y36. I-12.486 J-15.479 F1500.
G1 Y14.
G2 X74.982 Y-1.482 I-19.887 J0.
G1 X74.973 Y-1.49 F500.
X74.726 Y-1.689 Z-3.652
Z5. F1500.
X70.838 Y52.087
Z-3.652 F200.
X71.11 Y51.923 Z-3.969 F500.
X71.834 Y51.487
G2 X80.582 Y36. I-9.334 J-15.487 F1500.
G1 Y14.
G2 X71.836 Y-1.486 I-18.082 J0.
G1 X71.825 Y-1.493 F500.
X71.553 Y-1.656 Z-3.652
Z5. F1500.
X67.18 Y51.594
Z-2.838 F200.
Z-3.652 F500.
X67.482 Y51.496 Z-3.969
X67.512 Y51.487
G2 X78.777 Y36. I-5.012 J-15.487 F1500.
G1 Y14.
G2 X67.52 Y-1.484 I-16.277 J0.
G1 X67.508 Y-1.488 F500.
X67.206 Y-1.586 Z-3.652
Z5. F1500.
X1.151 Y-2.083
Z-3.652 F200.
X1.028 Y-1.791 Z-3.969 F500.
X0.896 Y-1.478
G2 X-1.485 Y6.278 I36.604 J15.478 F1500.
G1 X-1.487 Y43.714 F500.
G2 X0.899 Y51.487 I38.987 J-7.714 F1500.
G1 X0.904 Y51.498 F500.
X1.028 Y51.79 Z-3.652
Z5. F1500.
X3.134 Y-2.084
Z-3.652 F200.
X3.005 Y-1.794 Z-3.969 F500.
X2.862 Y-1.476
G2 X-0.438 Y14. I34.638 J15.476 F1500.
G1 Y36.
G2 X2.863 Y51.478 I37.938 J0.
G1 X2.868 Y51.489 F500.
X2.998 Y51.779 Z-3.652
Z5. F1500.
X5.138 Y-2.084
Z-3.652 F200.
X5.002 Y-1.797 Z-3.969 F500.
X4.852 Y-1.481
G2 X1.367 Y14. I32.648 J15.481 F1500.
G1 Y36.
G2 X4.85 Y51.477 I36.133 J0.
G1 X4.856 Y51.489 F500.
X4.992 Y51.775 Z-3.652
Z5. F1500.
X7.165 Y-2.082
Z-3.652 F200.
X7.022 Y-1.799 Z-3.969 F500.
X6.86 Y-1.478
G2 X3.172 Y14. I30.64 J15.478 F1500.
G1 Y36.
G2 X6.863 Y51.484 I34.328 J0.
G1 X6.869 Y51.495 F500.
X7.012 Y51.778 Z-3.652
Z5. F1500.
X9.225 Y-2.084
Z-3.652 F200.
X9.074 Y-1.805 Z-3.969 F500.
X8.898 Y-1.48
G2 X4.977 Y14. I28.602 J15.48 F1500.
G1 Y36.
G2 X8.898 Y51.48 I32.523 J0.
G1 X8.904 Y51.491 F500.
X9.055 Y51.77 Z-3.652
Z5. F1500.
X11.321 Y-2.084
Z-3.652 F200.
X11.161 Y-1.81 Z-3.969 F500.
X10.97 Y-1.483
G2 X6.782 Y14. I26.53 J15.483 F1500.
G1 Y36.
G2 X10.966 Y51.477 I30.718 J0.
G1 X10.973 Y51.487 F500.
X11.132 Y51.762 Z-3.652
Z5. F1500.
X13.466 Y-2.087
Z-3.652 F200.
X13.296 Y-1.819 Z-3.969 F500.
X13.082 Y-1.482
G2 X8.587 Y14. I24.418 J15.482 F1500.
G1 Y36.
G2 X13.084 Y51.485 I28.913 J0.
G1 X13.09 Y51.495 F500.
X13.261 Y51.764 Z-3.652
Z5. F1500.
X15.666 Y-2.082
Z-3.652 F200.
X15.485 Y-1.821 Z-3.969 F500.
X15.251 Y-1.486
G2 X10.392 Y14. I22.249 J15.486 F1500.
G1 Y36.
G2 X15.25 Y51.483 I27.108 J0.
G1 X15.257 Y51.493 F500.
X15.438 Y51.754 Z-3.652
Z5. F1500.
X17.951 Y-2.082
Z-3.652 F200.
X17.757 Y-1.831 Z-3.969 F500.
X17.489 Y-1.484
G2 X12.198 Y14. I20.011 J15.484 F1500.
G1 Y36.
G2 X17.483 Y51.477 I25.302 J0.
G1 X17.49 Y51.486 F500.
X17.685 Y51.738 Z-3.652
Z5. F1500.
X20.35 Y-2.083
Z-3.652 F200.
X20.141 Y-1.844 Z-3.969 F500.
X19.819 Y-1.476
G2 X14.002 Y14. I17.681 J15.476 F1500.
G1 Y36.
G2 X19.82 Y51.477 I23.498 J0.
G1 X19.828 Y51.486 F500.
X20.037 Y51.725 Z-3.652
Z5. F1500.
X22.914 Y-2.079
Z-3.652 F200.
X22.688 Y-1.857 Z-3.969 F500.
X22.311 Y-1.487
G2 X15.807 Y14. I15.189 J15.487 F1500.
G1 Y36.
G2 X22.307 Y51.483 I21.693 J0.
G1 X22.316 Y51.492 F500.
X22.542 Y51.714 Z-3.652
Z5. F1500.
X25.764 Y-2.085
Z-3.652 F200.
X25.517 Y-1.885 Z-3.969 F500.
X25.014 Y-1.479
G2 X17.612 Y14. I12.486 J15.479 F1500.
G1 Y36.
G2 X25.018 Y51.482 I19.888 J0.
G1 X25.027 Y51.49 F500.
X25.274 Y51.689 Z-3.652
Z5. F1500.
X29.153 Y-2.082
Z-3.652 F200.
X28.881 Y-1.918 Z-3.969 F500.
X28.166 Y-1.487
G2 X19.417 Y14. I9.334 J15.487 F1500.
G1 Y36.
G2 X28.164 Y51.486 I18.083 J0.
G1 X28.175 Y51.493 F500.
X28.447 Y51.656 Z-3.652
Z5. F1500.
X32.82 Y-1.594
Z-2.838 F200.
Z-3.652 F500.
X32.518 Y-1.496 Z-3.969
X32.488 Y-1.487
G2 X21.222 Y14. I5.012 J15.487 F1500.
G1 Y36.
G2 X32.48 Y51.484 I16.278 J0.
X34.104 Y50.995 I0.459 J-1.416 F500.
G3 X35.675 Y50.357 I1.353 J1.078
G2 X37.5 Y50.472 I1.825 J-14.357 F1500.
G1 X62.5
G2 X76.973 Y36. I0. J-14.472
G1 Y14.
G2 X62.5 Y-0.472 I-14.473 J0.
G1 X37.5
G2 X23.028 Y14. I0. J14.472
G1 Y36.
G2 X35.675 Y50.357 I14.472 J0.
X37.167 Y49.559 I0.184 J-1.449 F500.
G3 X38.606 Y48.667 I1.439 J0.716
G1 X62.5 F1500.
G2 X75.168 Y36. I0. J-12.667
G1 Y14.
G2 X62.5 Y1.332 I-12.668 J0.
G1 X37.5
G2 X24.833 Y14. I0. J12.668
G1 Y36.
G2 X37.5 Y48.667 I12.667 J0.
G1 X38.606
G2 X39.96 Y47.765 I0. J-1.467 F500.
G3 X41.313 Y46.862 I1.354 J0.564
G1 X62.5 F1500.
G2 X73.363 Y36. I0. J-10.862
G1 Y14.
G2 X62.5 Y3.138 I-10.863 J0.
G1 X37.5
G2 X26.638 Y14. I0. J10.862
G1 Y36.
G2 X37.5 Y46.862 I10.862 J0.
G1 X41.313
G2 X42.667 Y45.96 I0. J-1.467 F500.
G3 X44.021 Y45.057 I1.354 J0.564
G1 X62.5 F1500.
G2 X71.558 Y36. I0. J-9.057
G1 Y14.
G2 X62.5 Y4.943 I-9.058 J0.
G1 X37.5
G2 X28.442 Y14. I0. J9.057
G1 Y36.
G2 X37.5 Y45.057 I9.058 J0.
G1 X44.021
G2 X45.375 Y44.155 I0. J-1.467 F500.
G3 X46.728 Y43.252 I1.354 J0.564
G1 X62.5 F1500.
G2 X69.753 Y36. I0. J-7.252
G1 Y14.
G2 X62.5 Y6.747 I-7.253 J0.
G1 X37.5
G2 X30.247 Y14. I0. J7.253
G1 Y36.
G2 X37.5 Y43.252 I7.253 J0.
G1 X46.728
G2 X48.082 Y42.35 I0. J-1.467 F500.
G3 X49.436 Y41.447 I1.354 J0.564
G1 X62.5 F1500.
G2 X67.948 Y36. I0. J-5.447
G1 Y14.
G2 X62.5 Y8.552 I-5.448 J0.
G1 X37.5
G2 X32.053 Y14. I0. J5.448
G1 Y36.
G2 X37.5 Y41.447 I5.447 J0.
G1 X49.436
G2 X50.79 Y40.545 I0. J-1.467 F500.
G3 X52.143 Y39.643 I1.354 J0.564
G1 X62.5 F1500.
G2 X66.143 Y36. I0. J-3.643
G1 Y14.
G2 X62.5 Y10.358 I-3.643 J0.
G1 X37.5
G2 X33.857 Y14. I0. J3.642
G1 Y36.
G2 X37.5 Y39.643 I3.643 J0.
G1 X52.143
G2 X53.535 Y38.715 I0. J-1.507 F500.
G3 X54.926 Y37.787 I1.391 J0.58
G1 X62.5 F1500.
G2 X64.287 Y36. I0. J-1.787
G1 Y14.
G2 X62.5 Y12.212 I-1.787 J0.
G1 X37.5
G2 X35.713 Y14. I0. J1.788
G1 Y36.
G2 X37.5 Y37.787 I1.787 J0.
G1 X54.926
S12000 M3
X55.419 Y37.87 Z-3.975 F333.3
X97.223 Y52.316 Z-4.441
G2 X99.104 Y51.478 Z-4.465 I0.493 J-1.425
S13000 M3
X101.485 Y43.722 I-36.604 J-15.478 F1500.
G1 X101.487 Y6.286 F500.
G2 X99.101 Y-1.487 I-38.987 J7.714 F1500.
G1 X99.096 Y-1.498 F500.
X98.972 Y-1.79 Z-4.148
Z5. F1500.
X96.862 Y52.093
Z-4.148 F200.
X96.991 Y51.803 Z-4.465 F500.
X97.138 Y51.476
G2 X100.438 Y36. I-34.638 J-15.476 F1500.
G1 Y14.
G2 X97.137 Y-1.478 I-37.938 J0.
G1 X97.132 Y-1.489 F500.
X97.002 Y-1.779 Z-4.148
Z5. F1500.
X94.858 Y52.093
Z-4.148 F200.
X94.994 Y51.806 Z-4.465 F500.
X95.148 Y51.481
G2 X98.632 Y36. I-32.648 J-15.481 F1500.
G1 Y14.
G2 X95.15 Y-1.477 I-36.132 J0.
G1 X95.144 Y-1.489 F500.
X95.008 Y-1.775 Z-4.148
Z5. F1500.
X92.83 Y52.091
Z-4.148 F200.
X92.973 Y51.808 Z-4.465 F500.
X93.14 Y51.478
G2 X96.827 Y36. I-30.64 J-15.478 F1500.
G1 Y14.
G2 X93.137 Y-1.484 I-34.327 J0.
G1 X93.131 Y-1.495 F500.
X92.988 Y-1.778 Z-4.148
Z5. F1500.
X90.771 Y52.093
Z-4.148 F200.
X90.922 Y51.813 Z-4.465 F500.
X91.102 Y51.48
G2 X95.022 Y36. I-28.602 J-15.48 F1500.
G1 Y14.
G2 X91.102 Y-1.48 I-32.522 J0.
G1 X91.096 Y-1.491 F500.
X90.945 Y-1.77 Z-4.148
Z5. F1500.
X88.674 Y52.093
Z-4.148 F200.
X88.834 Y51.819 Z-4.465 F500.
X89.03 Y51.483
G2 X93.217 Y36. I-26.53 J-15.483 F1500.
G1 Y14.
G2 X89.034 Y-1.477 I-30.717 J0.
G1 X89.027 Y-1.487 F500.
X88.868 Y-1.762 Z-4.148
Z5. F1500.
X86.534 Y52.087
Z-4.148 F200.
X86.704 Y51.819 Z-4.465 F500.
X86.918 Y51.482
G2 X91.412 Y36. I-24.418 J-15.482 F1500.
G1 Y14.
G2 X86.916 Y-1.485 I-28.912 J0.
G1 X86.91 Y-1.495 F500.
X86.739 Y-1.764 Z-4.148
Z5. F1500.
X84.328 Y52.09
Z-4.148 F200.
X84.51 Y51.829 Z-4.465 F500.
X84.749 Y51.486
G2 X89.607 Y36. I-22.249 J-15.486 F1500.
G1 Y14.
G2 X84.75 Y-1.483 I-27.107 J0.
G1 X84.743 Y-1.493 F500.
X84.562 Y-1.754 Z-4.148
Z5. F1500.
X82.043 Y52.09
Z-4.148 F200.
X82.237 Y51.839 Z-4.465 F500.
X82.511 Y51.484
G2 X87.802 Y36. I-20.011 J-15.484 F1500.
G1 Y14.
G2 X82.517 Y-1.477 I-25.302 J0.
G1 X82.51 Y-1.486 F500.
X82.315 Y-1.738 Z-4.148
Z5. F1500.
X79.644 Y52.09
Z-4.148 F200.
X79.853 Y51.851 Z-4.465 F500.
X80.181 Y51.476
G2 X85.997 Y36. I-17.681 J-15.476 F1500.
G1 Y14.
G2 X80.18 Y-1.477 I-23.497 J0.
G1 X80.172 Y-1.486 F500.
X79.963 Y-1.725 Z-4.148
Z5. F1500.
X77.071 Y52.093
Z-4.148 F200.
X77.298 Y51.871 Z-4.465 F500.
X77.689 Y51.487
G2 X84.192 Y36. I-15.189 J-15.487 F1500.
G1 Y14.
G2 X77.693 Y-1.483 I-21.692 J0.
G1 X77.684 Y-1.492 F500.
X77.458 Y-1.714 Z-4.148
Z5. F1500.
X74.228 Y52.091
Z-4.148 F200.
X74.475 Y51.892 Z-4.465 F500.
X74.986 Y51.479
G2 X82.387 Y36. I-12.486 J-15.479 F1500.
G1 Y14.
G2 X74.982 Y-1.482 I-19.887 J0.
G1 X74.973 Y-1.49 F500.
X74.726 Y-1.689 Z-4.148
Z5. F1500.
X70.838 Y52.087
Z-4.148 F200.
X71.11 Y51.923 Z-4.465 F500.
X71.834 Y51.487
G2 X80.582 Y36. I-9.334 J-15.487 F1500.
G1 Y14.
G2 X71.836 Y-1.486 I-18.082 J0.
G1 X71.825 Y-1.493 F500.
X71.553 Y-1.656 Z-4.148
Z5. F1500.
X67.18 Y51.594
Z-3.334 F200.
Z-4.148 F500.
X67.482 Y51.496 Z-4.465
X67.512 Y51.487
G2 X78.777 Y36. I-5.012 J-15.487 F1500.
G1 Y14.
G2 X67.52 Y-1.484 I-16.277 J0.
G1 X67.508 Y-1.488 F500.
X67.206 Y-1.586 Z-4.148
Z5. F1500.
X1.151 Y-2.083
Z-4.148 F200.
X1.028 Y-1.791 Z-4.465 F500.
X0.896 Y-1.478
G2 X-1.485 Y6.278 I36.604 J15.478 F1500.
G1 X-1.487 Y43.714 F500.
G2 X0.899 Y51.487 I38.987 J-7.714 F1500.
G1 X0.904 Y51.498 F500.
X1.028 Y51.79 Z-4.148
Z5. F1500.
X3.134 Y-2.084
Z-4.148 F200.
X3.005 Y-1.794 Z-4.465 F500.
X2.862 Y-1.476
G2 X-0.438 Y14. I34.638 J15.476 F1500.
G1 Y36.
G2 X2.863 Y51.478 I37.938 J0.
G1 X2.868 Y51.489 F500.
X2.998 Y51.779 Z-4.148
Z5. F1500.
X5.138 Y-2.084
Z-4.148 F200.
X5.002 Y-1.797 Z-4.465 F500.
X4.852 Y-1.481
G2 X1.367 Y14. I32.648 J15.481 F1500.
G1 Y36.
G2 X4.85 Y51.477 I36.133 J0.
G1 X4.856 Y51.489 F500.
X4.992 Y51.775 Z-4.148
Z5. F1500.
X7.165 Y-2.082
Z-4.148 F200.
X7.022 Y-1.799 Z-4.465 F500.
X6.86 Y-1.478
G2 X3.172 Y14. I30.64 J15.478 F1500.
G1 Y36.
G2 X6.863 Y51.484 I34.328 J0.
G1 X6.869 Y51.495 F500.
X7.012 Y51.778 Z-4.148
Z5. F1500.
X9.225 Y-2.084
Z-4.148 F200.
X9.074 Y-1.805 Z-4.465 F500.
X8.898 Y-1.48
G2 X4.977 Y14. I28.602 J15.48 F1500.
G1 Y36.
G2 X8.898 Y51.48 I32.523 J0.
G1 X8.904 Y51.491 F500.
X9.055 Y51.77 Z-4.148
Z5. F1500.
X11.321 Y-2.084
Z-4.148 F200.
X11.161 Y-1.81 Z-4.465 F500.
X10.97 Y-1.483
G2 X6.782 Y14. I26.53 J15.483 F1500.
G1 Y36.
G2 X10.966 Y51.477 I30.718 J0.
G1 X10.973 Y51.487 F500.
X11.132 Y51.762 Z-4.148
Z5. F1500.
X13.466 Y-2.087
Z-4.148 F200.
X13.296 Y-1.819 Z-4.465 F500.
X13.082 Y-1.482
G2 X8.587 Y14. I24.418 J15.482 F1500.
G1 Y36.
G2 X13.084 Y51.485 I28.913 J0.
G1 X13.09 Y51.495 F500.
X13.261 Y51.764 Z-4.148
Z5. F1500.
X15.666 Y-2.082
Z-4.148 F200.
X15.485 Y-1.821 Z-4.465 F500.
X15.251 Y-1.486
G2 X10.392 Y14. I22.249 J15.486 F1500.
G1 Y36.
G2 X15.25 Y51.483 I27.108 J0.
G1 X15.257 Y51.493 F500.
X15.438 Y51.754 Z-4.148
Z5. F1500.
X17.951 Y-2.082
Z-4.148 F200.
X17.757 Y-1.831 Z-4.465 F500.
X17.489 Y-1.484
G2 X12.198 Y14. I20.011 J15.484 F1500.
G1 Y36.
G2 X17.483 Y51.477 I25.302 J0.
G1 X17.49 Y51.486 F500.
X17.685 Y51.738 Z-4.148
Z5. F1500.
X20.35 Y-2.083
Z-4.148 F200.
X20.141 Y-1.844 Z-4.465 F500.
X19.819 Y-1.476
G2 X14.002 Y14. I17.681 J15.476 F1500.
G1 Y36.
G2 X19.82 Y51.477 I23.498 J0.
G1 X19.828 Y51.486 F500.
X20.037 Y51.725 Z-4.148
Z5. F1500.
X22.914 Y-2.079
Z-4.148 F200.
X22.688 Y-1.857 Z-4.465 F500.
X22.311 Y-1.487
G2 X15.807 Y14. I15.189 J15.487 F1500.
G1 Y36.
G2 X22.307 Y51.483 I21.693 J0.
G1 X22.316 Y51.492 F500.
X22.542 Y51.714 Z-4.148
Z5. F1500.
X25.764 Y-2.085
Z-4.148 F200.
X25.517 Y-1.885 Z-4.465 F500.
X25.014 Y-1.479
G2 X17.612 Y14. I12.486 J15.479 F1500.
G1 Y36.
G2 X25.018 Y51.482 I19.888 J0.
G1 X25.027 Y51.49 F500.
X25.274 Y51.689 Z-4.148
Z5. F1500.
X29.153 Y-2.082
Z-4.148 F200.
X28.881 Y-1.918 Z-4.465 F500.
X28.166 Y-1.487
G2 X19.417 Y14. I9.334 J15.487 F1500.
G1 Y36.
G2 X28.164 Y51.486 I18.083 J0.
G1 X28.175 Y51.493 F500.
X28.447 Y51.656 Z-4.148
Z5. F1500.
X32.82 Y-1.594
Z-3.334 F200.
Z-4.148 F500.
X32.518 Y-1.496 Z-4.465
X32.488 Y-1.487
G2 X21.222 Y14. I5.012 J15.487 F1500.
G1 Y36.
G2 X32.48 Y51.484 I16.278 J0.
X34.104 Y50.995 I0.459 J-1.416 F500.
G3 X35.675 Y50.357 I1.353 J1.078
G2 X37.5 Y50.472 I1.825 J-14.357 F1500.
G1 X62.5
G2 X76.973 Y36. I0. J-14.472
G1 Y14.
G2 X62.5 Y-0.472 I-14.473 J0.
G1 X37.5
G2 X23.028 Y14. I0. J14.472
G1 Y36.
G2 X35.675 Y50.357 I14.472 J0.
X37.167 Y49.559 I0.184 J-1.449 F500.
G3 X38.606 Y48.667 I1.439 J0.716
G1 X62.5 F1500.
G2 X75.168 Y36. I0. J-12.667
G1 Y14.
G2 X62.5 Y1.332 I-12.668 J0.
G1 X37.5
G2 X24.833 Y14. I0. J12.668
G1 Y36.
G2 X37.5 Y48.667 I12.667 J0.
G1 X38.606
G2 X39.96 Y47.765 I0. J-1.467 F500.
G3 X41.313 Y46.862 I1.354 J0.564
G1 X62.5 F1500.
G2 X73.363 Y36. I0. J-10.862
G1 Y14.
G2 X62.5 Y3.138 I-10.863 J0.
G1 X37.5
G2 X26.638 Y14. I0. J10.862
G1 Y36.
G2 X37.5 Y46.862 I10.862 J0.
G1 X41.313
G2 X42.667 Y45.96 I0. J-1.467 F500.
G3 X44.021 Y45.057 I1.354 J0.564
G1 X62.5 F1500.
G2 X71.558 Y36. I0. J-9.057
G1 Y14.
G2 X62.5 Y4.943 I-9.058 J0.
G1 X37.5
G2 X28.442 Y14. I0. J9.057
G1 Y36.
G2 X37.5 Y45.057 I9.058 J0.
G1 X44.021
G2 X45.375 Y44.155 I0. J-1.467 F500.
G3 X46.728 Y43.252 I1.354 J0.564
G1 X62.5 F1500.
G2 X69.753 Y36. I0. J-7.252
G1 Y14.
G2 X62.5 Y6.747 I-7.253 J0.
G1 X37.5
G2 X30.247 Y14. I0. J7.253
G1 Y36.
G2 X37.5 Y43.252 I7.253 J0.
G1 X46.728
G2 X48.082 Y42.35 I0. J-1.467 F500.
G3 X49.436 Y41.447 I1.354 J0.564
G1 X62.5 F1500.
G2 X67.948 Y36. I0. J-5.447
G1 Y14.
G2 X62.5 Y8.552 I-5.448 J0.
G1 X37.5
G2 X32.053 Y14. I0. J5.448
G1 Y36.
G2 X37.5 Y41.447 I5.447 J0.
G1 X49.436
G2 X50.79 Y40.545 I0. J-1.467 F500.
G3 X52.143 Y39.643 I1.354 J0.564
G1 X62.5 F1500.
G2 X66.143 Y36. I0. J-3.643
G1 Y14.
G2 X62.5 Y10.358 I-3.643 J0.
G1 X37.5
G2 X33.857 Y14. I0. J3.642
G1 Y36.
G2 X37.5 Y39.643 I3.643 J0.
G1 X52.143
G2 X53.535 Y38.715 I0. J-1.507 F500.
G3 X54.926 Y37.787 I1.391 J0.58
G1 X62.5 F1500.
G2 X64.287 Y36. I0. J-1.787
G1 Y14.
G2 X62.5 Y12.212 I-1.787 J0.
G1 X37.5
G2 X35.713 Y14. I0. J1.788
G1 Y36.
G2 X37.5 Y37.787 I1.787 J0.
G1 X54.926
S12000 M3
X55.419 Y37.87 Z-4.471 F333.3
X97.223 Y52.316 Z-4.938
G2 X99.104 Y51.478 Z-4.962 I0.493 J-1.425
S13000 M3
X101.485 Y43.722 I-36.604 J-15.478 F1500.
G1 X101.487 Y6.286 F500.
G2 X99.101 Y-1.487 I-38.987 J7.714 F1500.
G1 X99.096 Y-1.498 F500.
X98.972 Y-1.79 Z-4.644
Z5. F1500.
X96.862 Y52.093
Z-4.644 F200.
X96.991 Y51.803 Z-4.962 F500.
X97.138 Y51.476
G2 X100.438 Y36. I-34.638 J-15.476 F1500.
G1 Y14.
G2 X97.137 Y-1.478 I-37.938 J0.
G1 X97.132 Y-1.489 F500.
X97.002 Y-1.779 Z-4.644
Z5. F1500.
X94.858 Y52.093
Z-4.644 F200.
X94.994 Y51.806 Z-4.962 F500.
X95.148 Y51.481
G2 X98.632 Y36. I-32.648 J-15.481 F1500.
G1 Y14.
G2 X95.15 Y-1.477 I-36.132 J0.
G1 X95.144 Y-1.489 F500.
X95.008 Y-1.775 Z-4.644
Z5. F1500.
X92.83 Y52.091
Z-4.644 F200.
X92.973 Y51.808 Z-4.962 F500.
X93.14 Y51.478
G2 X96.827 Y36. I-30.64 J-15.478 F1500.
G1 Y14.
G2 X93.137 Y-1.484 I-34.327 J0.
G1 X93.131 Y-1.495 F500.
X92.988 Y-1.778 Z-4.644
Z5. F1500.
X90.771 Y52.093
Z-4.644 F200.
X90.922 Y51.813 Z-4.962 F500.
X91.102 Y51.48
G2 X95.022 Y36. I-28.602 J-15.48 F1500.
G1 Y14.
G2 X91.102 Y-1.48 I-32.522 J0.
G1 X91.096 Y-1.491 F500.
X90.945 Y-1.77 Z-4.644
Z5. F1500.
X88.674 Y52.093
Z-4.644 F200.
X88.834 Y51.819 Z-4.962 F500.
X89.03 Y51.483
G2 X93.217 Y36. I-26.53 J-15.483 F1500.
G1 Y14.
G2 X89.034 Y-1.477 I-30.717 J0.
G1 X89.027 Y-1.487 F500.
X88.868 Y-1.762 Z-4.644
Z5. F1500.
X86.534 Y52.087
Z-4.644 F200.
X86.704 Y51.819 Z-4.962 F500.
X86.918 Y51.482
G2 X91.412 Y36. I-24.418 J-15.482 F1500.
G1 Y14.
G2 X86.916 Y-1.485 I-28.912 J0.
G1 X86.91 Y-1.495 F500.
X86.739 Y-1.764 Z-4.644
Z5. F1500.
X84.328 Y52.09
Z-4.644 F200.
X84.51 Y51.829 Z-4.962 F500.
X84.749 Y51.486
G2 X89.607 Y36. I-22.249 J-15.486 F1500.
G1 Y14.
G2 X84.75 Y-1.483 I-27.107 J0.
G1 X84.743 Y-1.493 F500.
X84.562 Y-1.754 Z-4.644
Z5. F1500.
X82.043 Y52.09
Z-4.644 F200.
X82.237 Y51.839 Z-4.962 F500.
X82.511 Y51.484
G2 X87.802 Y36. I-20.011 J-15.484 F1500.
G1 Y14.
G2 X82.517 Y-1.477 I-25.302 J0.
G1 X82.51 Y-1.486 F500.
X82.315 Y-1.738 Z-4.644
Z5. F1500.
X79.644 Y52.09
Z-4.644 F200.
X79.853 Y51.851 Z-4.962 F500.
X80.181 Y51.476
G2 X85.997 Y36. I-17.681 J-15.476 F1500.
G1 Y14.
G2 X80.18 Y-1.477 I-23.497 J0.
G1 X80.172 Y-1.486 F500.
X79.963 Y-1.725 Z-4.644
Z5. F1500.
X77.071 Y52.093
Z-4.644 F200.
X77.298 Y51.871 Z-4.962 F500.
X77.689 Y51.487
G2 X84.192 Y36. I-15.189 J-15.487 F1500.
G1 Y14.
G2 X77.693 Y-1.483 I-21.692 J0.
G1 X77.684 Y-1.492 F500.
X77.458 Y-1.714 Z-4.644
Z5. F1500.
X74.228 Y52.091
Z-4.644 F200.
X74.475 Y51.892 Z-4.962 F500.
X74.986 Y51.479
G2 X82.387 Y36. I-12.486 J-15.479 F1500.
G1 Y14.
G2 X74.982 Y-1.482 I-19.887 J0.
G1 X74.973 Y-1.49 F500.
X74.726 Y-1.689 Z-4.644
Z5. F1500.
X70.838 Y52.087
Z-4.644 F200.
X71.11 Y51.923 Z-4.962 F500.
X71.834 Y51.487
G2 X80.582 Y36. I-9.334 J-15.487 F1500.
G1 Y14.
G2 X71.836 Y-1.486 I-18.082 J0.
G1 X71.825 Y-1.493 F500.
X71.553 Y-1.656 Z-4.644
Z5. F1500.
X67.18 Y51.594
Z-3.83 F200.
Z-4.644 F500.
X67.482 Y51.496 Z-4.962
X67.512 Y51.487
G2 X78.777 Y36. I-5.012 J-15.487 F1500.
G1 Y14.
G2 X67.52 Y-1.484 I-16.277 J0.
G1 X67.508 Y-1.488 F500.
X67.206 Y-1.586 Z-4.644
Z5. F1500.
X1.151 Y-2.083
Z-4.644 F200.
X1.028 Y-1.791 Z-4.962 F500.
X0.896 Y-1.478
G2 X-1.485 Y6.278 I36.604 J15.478 F1500.
G1 X-1.487 Y43.714 F500.
G2 X0.899 Y51.487 I38.987 J-7.714 F1500.
G1 X0.904 Y51.498 F500.
X1.028 Y51.79 Z-4.644
Z5. F1500.
X3.134 Y-2.084
Z-4.644 F200.
X3.005 Y-1.794 Z-4.962 F500.
X2.862 Y-1.476
G2 X-0.438 Y14. I34.638 J15.476 F1500.
G1 Y36.
G2 X2.863 Y51.478 I37.938 J0.
G1 X2.868 Y51.489 F500.
X2.998 Y51.779 Z-4.644
Z5. F1500.
X5.138 Y-2.084
Z-4.644 F200.
X5.002 Y-1.797 Z-4.962 F500.
X4.852 Y-1.481
G2 X1.367 Y14. I32.648 J15.481 F1500.
G1 Y36.
G2 X4.85 Y51.477 I36.133 J0.
G1 X4.856 Y51.489 F500.
X4.992 Y51.775 Z-4.644
Z5. F1500.
X7.165 Y-2.082
Z-4.644 F200.
X7.022 Y-1.799 Z-4.962 F500.
X6.86 Y-1.478
G2 X3.172 Y14. I30.64 J15.478 F1500.
G1 Y36.
G2 X6.863 Y51.484 I34.328 J0.
G1 X6.869 Y51.495 F500.
X7.012 Y51.778 Z-4.644
Z5. F1500.
X9.225 Y-2.084
Z-4.644 F200.
X9.074 Y-1.805 Z-4.962 F500.
X8.898 Y-1.48
G2 X4.977 Y14. I28.602 J15.48 F1500.
G1 Y36.
G2 X8.898 Y51.48 I32.523 J0.
G1 X8.904 Y51.491 F500.
X9.055 Y51.77 Z-4.644
Z5. F1500.
X11.321 Y-2.084
Z-4.644 F200.
X11.161 Y-1.81 Z-4.962 F500.
X10.97 Y-1.483
G2 X6.782 Y14. I26.53 J15.483 F1500.
G1 Y36.
G2 X10.966 Y51.477 I30.718 J0.
G1 X10.973 Y51.487 F500.
X11.132 Y51.762 Z-4.644
Z5. F1500.
X13.466 Y-2.087
Z-4.644 F200.
X13.296 Y-1.819 Z-4.962 F500.
X13.082 Y-1.482
G2 X8.587 Y14. I24.418 J15.482 F1500.
G1 Y36.
G2 X13.084 Y51.485 I28.913 J0.
G1 X13.09 Y51.495 F500.
X13.261 Y51.764 Z-4.644
Z5. F1500.
X15.666 Y-2.082
Z-4.644 F200.
X15.485 Y-1.821 Z-4.962 F500.
X15.251 Y-1.486
G2 X10.392 Y14. I22.249 J15.486 F1500.
G1 Y36.
G2 X15.25 Y51.483 I27.108 J0.
G1 X15.257 Y51.493 F500.
X15.438 Y51.754 Z-4.644
Z5. F1500.
X17.951 Y-2.082
Z-4.644 F200.
X17.757 Y-1.831 Z-4.962 F500.
X17.489 Y-1.484
G2 X12.198 Y14. I20.011 J15.484 F1500.
G1 Y36.
G2 X17.483 Y51.477 I25.302 J0.
G1 X17.49 Y51.486 F500.
X17.685 Y51.738 Z-4.644
Z5. F1500.
X20.35 Y-2.083
Z-4.644 F200.
X20.141 Y-1.844 Z-4.962 F500.
X19.819 Y-1.476
G2 X14.002 Y14. I17.681 J15.476 F1500.
G1 Y36.
G2 X19.82 Y51.477 I23.498 J0.
G1 X19.828 Y51.486 F500.
X20.037 Y51.725 Z-4.644
Z5. F1500.
X22.914 Y-2.079
Z-4.644 F200.
X22.688 Y-1.857 Z-4.962 F500.
X22.311 Y-1.487
G2 X15.807 Y14. I15.189 J15.487 F1500.
G1 Y36.
G2 X22.307 Y51.483 I21.693 J0.
G1 X22.316 Y51.492 F500.
X22.542 Y51.714 Z-4.644
Z5. F1500.
X25.764 Y-2.085
Z-4.644 F200.
X25.517 Y-1.885 Z-4.962 F500.
X25.014 Y-1.479
G2 X17.612 Y14. I12.486 J15.479 F1500.
G1 Y36.
G2 X25.018 Y51.482 I19.888 J0.
G1 X25.027 Y51.49 F500.
X25.274 Y51.689 Z-4.644
Z5. F1500.
X29.153 Y-2.082
Z-4.644 F200.
X28.881 Y-1.918 Z-4.962 F500.
X28.166 Y-1.487
G2 X19.417 Y14. I9.334 J15.487 F1500.
G1 Y36.
G2 X28.164 Y51.486 I18.083 J0.
G1 X28.175 Y51.493 F500.
X28.447 Y51.656 Z-4.644
Z5. F1500.
X32.82 Y-1.594
Z-3.83 F200.
Z-4.644 F500.
X32.518 Y-1.496 Z-4.962
X32.488 Y-1.487
G2 X21.222 Y14. I5.012 J15.487 F1500.
G1 Y36.
G2 X32.48 Y51.484 I16.278 J0.
X34.104 Y50.995 I0.459 J-1.416 F500.
G3 X35.675 Y50.357 I1.353 J1.078
G2 X37.5 Y50.472 I1.825 J-14.357 F1500.
G1 X62.5
G2 X76.973 Y36. I0. J-14.472
G1 Y14.
G2 X62.5 Y-0.472 I-14.473 J0.
G1 X37.5
G2 X23.028 Y14. I0. J14.472
G1 Y36.
G2 X35.675 Y50.357 I14.472 J0.
X37.167 Y49.559 I0.184 J-1.449 F500.
G3 X38.606 Y48.667 I1.439 J0.716
G1 X62.5 F1500.
G2 X75.168 Y36. I0. J-12.667
G1 Y14.
G2 X62.5 Y1.332 I-12.668 J0.
G1 X37.5
G2 X24.833 Y14. I0. J12.668
G1 Y36.
G2 X37.5 Y48.667 I12.667 J0.
G1 X38.606
G2 X39.96 Y47.765 I0. J-1.467 F500.
G3 X41.313 Y46.862 I1.354 J0.564
G1 X62.5 F1500.
G2 X73.363 Y36. I0. J-10.862
G1 Y14.
G2 X62.5 Y3.138 I-10.863 J0.
G1 X37.5
G2 X26.638 Y14. I0. J10.862
G1 Y36.
G2 X37.5 Y46.862 I10.862 J0.
G1 X41.313
G2 X42.667 Y45.96 I0. J-1.467 F500.
G3 X44.021 Y45.057 I1.354 J0.564
G1 X62.5 F1500.
G2 X71.558 Y36. I0. J-9.057
G1 Y14.
G2 X62.5 Y4.943 I-9.058 J0.
G1 X37.5
G2 X28.442 Y14. I0. J9.057
G1 Y36.
G2 X37.5 Y45.057 I9.058 J0.
G1 X44.021
G2 X45.375 Y44.155 I0. J-1.467 F500.
G3 X46.728 Y43.252 I1.354 J0.564
G1 X62.5 F1500.
G2 X69.753 Y36. I0. J-7.252
G1 Y14.
G2 X62.5 Y6.747 I-7.253 J0.
G1 X37.5
G2 X30.247 Y14. I0. J7.253
G1 Y36.
G2 X37.5 Y43.252 I7.253 J0.
G1 X46.728
G2 X48.082 Y42.35 I0. J-1.467 F500.
G3 X49.436 Y41.447 I1.354 J0.564
G1 X62.5 F1500.
G2 X67.948 Y36. I0. J-5.447
G1 Y14.
G2 X62.5 Y8.552 I-5.448 J0.
G1 X37.5
G2 X32.053 Y14. I0. J5.448
G1 Y36.
G2 X37.5 Y41.447 I5.447 J0.
G1 X49.436
G2 X50.79 Y40.545 I0. J-1.467 F500.
G3 X52.143 Y39.643 I1.354 J0.564
G1 X62.5 F1500.
G2 X66.143 Y36. I0. J-3.643
G1 Y14.
G2 X62.5 Y10.358 I-3.643 J0.
G1 X37.5
G2 X33.857 Y14. I0. J3.642
G1 Y36.
G2 X37.5 Y39.643 I3.643 J0.
G1 X52.143
G2 X53.535 Y38.715 I0. J-1.507 F500.
G3 X54.926 Y37.787 I1.391 J0.58
G1 X62.5 F1500.
G2 X64.287 Y36. I0. J-1.787
G1 Y14.
G2 X62.5 Y12.212 I-1.787 J0.
G1 X37.5
G2 X35.713 Y14. I0. J1.788
G1 Y36.
G2 X37.5 Y37.787 I1.787 J0.
G1 X54.926
S12000 M3
X55.419 Y37.87 Z-4.967 F333.3
X97.223 Y52.316 Z-5.434
G2 X99.104 Y51.478 Z-5.458 I0.493 J-1.425
S13000 M3
X101.485 Y43.722 I-36.604 J-15.478 F1500.
G1 X101.487 Y6.286 F500.
G2 X99.101 Y-1.487 I-38.987 J7.714 F1500.
G1 X99.096 Y-1.498 F500.
X98.972 Y-1.79 Z-5.14
Z5. F1500.
X96.862 Y52.093
Z-5.14 F200.
X96.991 Y51.803 Z-5.458 F500.
X97.138 Y51.476
G2 X100.438 Y36. I-34.638 J-15.476 F1500.
G1 Y14.
G2 X97.137 Y-1.478 I-37.938 J0.
G1 X97.132 Y-1.489 F500.
X97.002 Y-1.779 Z-5.14
Z5. F1500.
X94.858 Y52.093
Z-5.14 F200.
X94.994 Y51.806 Z-5.458 F500.
X95.148 Y51.481
G2 X98.632 Y36. I-32.648 J-15.481 F1500.
G1 Y14.
G2 X95.15 Y-1.477 I-36.132 J0.
G1 X95.144 Y-1.489 F500.
X95.008 Y-1.775 Z-5.14
Z5. F1500.
X92.83 Y52.091
Z-5.14 F200.
X92.973 Y51.808 Z-5.458 F500.
X93.14 Y51.478
G2 X96.827 Y36. I-30.64 J-15.478 F1500.
G1 Y14.
G2 X93.137 Y-1.484 I-34.327 J0.
G1 X93.131 Y-1.495 F500.
X92.988 Y-1.778 Z-5.14
Z5. F1500.
X90.771 Y52.093
Z-5.14 F200.
X90.922 Y51.813 Z-5.458 F500.
X91.102 Y51.48
G2 X95.022 Y36. I-28.602 J-15.48 F1500.
G1 Y14.
G2 X91.102 Y-1.48 I-32.522 J0.
G1 X91.096 Y-1.491 F500.
X90.945 Y-1.77 Z-5.14
Z5. F1500.
X88.674 Y52.093
Z-5.14 F200.
X88.834 Y51.819 Z-5.458 F500.
X89.03 Y51.483
G2 X93.217 Y36. I-26.53 J-15.483 F1500.
G1 Y14.
G2 X89.034 Y-1.477 I-30.717 J0.
G1 X89.027 Y-1.487 F500.
X88.868 Y-1.762 Z-5.14
Z5. F1500.
X86.534 Y52.087
Z-5.14 F200.
X86.704 Y51.819 Z-5.458 F500.
X86.918 Y51.482
G2 X91.412 Y36. I-24.418 J-15.482 F1500.
G1 Y14.
G2 X86.916 Y-1.485 I-28.912 J0.
G1 X86.91 Y-1.495 F500.
X86.739 Y-1.764 Z-5.14
Z5. F1500.
X84.328 Y52.09
Z-5.14 F200.
X84.51 Y51.829 Z-5.458 F500.
X84.749 Y51.486
G2 X89.607 Y36. I-22.249 J-15.486 F1500.
G1 Y14.
G2 X84.75 Y-1.483 I-27.107 J0.
G1 X84.743 Y-1.493 F500.
X84.562 Y-1.754 Z-5.14
Z5. F1500.
X82.043 Y52.09
Z-5.14 F200.
X82.237 Y51.839 Z-5.458 F500.
X82.511 Y51.484
G2 X87.802 Y36. I-20.011 J-15.484 F1500.
G1 Y14.
G2 X82.517 Y-1.477 I-25.302 J0.
G1 X82.51 Y-1.486 F500.
X82.315 Y-1.738 Z-5.14
Z5. F1500.
X79.644 Y52.09
Z-5.14 F200.
X79.853 Y51.851 Z-5.458 F500.
X80.181 Y51.476
G2 X85.997 Y36. I-17.681 J-15.476 F1500.
G1 Y14.
G2 X80.18 Y-1.477 I-23.497 J0.
G1 X80.172 Y-1.486 F500.
X79.963 Y-1.725 Z-5.14
Z5. F1500.
X77.071 Y52.093
Z-5.14 F200.
X77.298 Y51.871 Z-5.458 F500.
X77.689 Y51.487
G2 X84.192 Y36. I-15.189 J-15.487 F1500.
G1 Y14.
G2 X77.693 Y-1.483 I-21.692 J0.
G1 X77.684 Y-1.492 F500.
X77.458 Y-1.714 Z-5.14
Z5. F1500.
X74.228 Y52.091
Z-5.14 F200.
X74.475 Y51.892 Z-5.458 F500.
X74.986 Y51.479
G2 X82.387 Y36. I-12.486 J-15.479 F1500.
G1 Y14.
G2 X74.982 Y-1.482 I-19.887 J0.
G1 X74.973 Y-1.49 F500.
X74.726 Y-1.689 Z-5.14
Z5. F1500.
X70.838 Y52.087
Z-5.14 F200.
X71.11 Y51.923 Z-5.458 F500.
X71.834 Y51.487
G2 X80.582 Y36. I-9.334 J-15.487 F1500.
G1 Y14.
G2 X71.836 Y-1.486 I-18.082 J0.
G1 X71.825 Y-1.493 F500.
X71.553 Y-1.656 Z-5.14
Z5. F1500.
X67.18 Y51.594
Z-4.327 F200.
Z-5.14 F500.
X67.482 Y51.496 Z-5.458
X67.512 Y51.487
G2 X78.777 Y36. I-5.012 J-15.487 F1500.
G1 Y14.
G2 X67.52 Y-1.484 I-16.277 J0.
G1 X67.508 Y-1.488 F500.
X67.206 Y-1.586 Z-5.14
Z5. F1500.
X1.151 Y-2.083
Z-5.14 F200.
X1.028 Y-1.791 Z-5.458 F500.
X0.896 Y-1.478
G2 X-1.485 Y6.278 I36.604 J15.478 F1500.
G1 X-1.487 Y43.714 F500.
G2 X0.899 Y51.487 I38.987 J-7.714 F1500.
G1 X0.904 Y51.498 F500.
X1.028 Y51.79 Z-5.14
Z5. F1500.
X3.134 Y-2.084
Z-5.14 F200.
X3.005 Y-1.794 Z-5.458 F500.
X2.862 Y-1.476
G2 X-0.438 Y14. I34.638 J15.476 F1500.
G1 Y36.
G2 X2.863 Y51.478 I37.938 J0.
G1 X2.868 Y51.489 F500.
X2.998 Y51.779 Z-5.14
Z5. F1500.
X5.138 Y-2.084
Z-5.14 F200.
X5.002 Y-1.797 Z-5.458 F500.
X4.852 Y-1.481
G2 X1.367 Y14. I32.648 J15.481 F1500.
G1 Y36.
G2 X4.85 Y51.477 I36.133 J0.
G1 X4.856 Y51.489 F500.
X4.992 Y51.775 Z-5.14
Z5. F1500.
X7.165 Y-2.082
Z-5.14 F200.
X7.022 Y-1.799 Z-5.458 F500.
X6.86 Y-1.478
G2 X3.172 Y14. I30.64 J15.478 F1500.
G1 Y36.
G2 X6.863 Y51.484 I34.328 J0.
G1 X6.869 Y51.495 F500.
X7.012 Y51.778 Z-5.14
Z5. F1500.
X9.225 Y-2.084
Z-5.14 F200.
X9.074 Y-1.805 Z-5.458 F500.
X8.898 Y-1.48
G2 X4.977 Y14. I28.602 J15.48 F1500.
G1 Y36.
G2 X8.898 Y51.48 I32.523 J0.
G1 X8.904 Y51.491 F500.
X9.055 Y51.77 Z-5.14
Z5. F1500.
X11.321 Y-2.084
Z-5.14 F200.
X11.161 Y-1.81 Z-5.458 F500.
X10.97 Y-1.483
G2 X6.782 Y14. I26.53 J15.483 F1500.
G1 Y36.
G2 X10.966 Y51.477 I30.718 J0.
G1 X10.973 Y51.487 F500.
X11.132 Y51.762 Z-5.14
Z5. F1500.
X13.466 Y-2.087
Z-5.14 F200.
X13.296 Y-1.819 Z-5.458 F500.
X13.082 Y-1.482
G2 X8.587 Y14. I24.418 J15.482 F1500.
G1 Y36.
G2 X13.084 Y51.485 I28.913 J0.
G1 X13.09 Y51.495 F500.
X13.261 Y51.764 Z-5.14
Z5. F1500.
X15.666 Y-2.082
Z-5.14 F200.
X15.485 Y-1.821 Z-5.458 F500.
X15.251 Y-1.486
G2 X10.392 Y14. I22.249 J15.486 F1500.
G1 Y36.
G2 X15.25 Y51.483 I27.108 J0.
G1 X15.257 Y51.493 F500.
X15.438 Y51.754 Z-5.14
Z5. F1500.
X17.951 Y-2.082
Z-5.14 F200.
X17.757 Y-1.831 Z-5.458 F500.
X17.489 Y-1.484
G2 X12.198 Y14. I20.011 J15.484 F1500.
G1 Y36.
G2 X17.483 Y51.477 I25.302 J0.
G1 X17.49 Y51.486 F500.
X17.685 Y51.738 Z-5.14
Z5. F1500.
X20.35 Y-2.083
Z-5.14 F200.
X20.141 Y-1.844 Z-5.458 F500.
X19.819 Y-1.476
G2 X14.002 Y14. I17.681 J15.476 F1500.
G1 Y36.
G2 X19.82 Y51.477 I23.498 J0.
G1 X19.828 Y51.486 F500.
X20.037 Y51.725 Z-5.14
Z5. F1500.
X22.914 Y-2.079
Z-5.14 F200.
X22.688 Y-1.857 Z-5.458 F500.
X22.311 Y-1.487
G2 X15.807 Y14. I15.189 J15.487 F1500.
G1 Y36.
G2 X22.307 Y51.483 I21.693 J0.
G1 X22.316 Y51.492 F500.
X22.542 Y51.714 Z-5.14
Z5. F1500.
X25.764 Y-2.085
Z-5.14 F200.
X25.517 Y-1.885 Z-5.458 F500.
X25.014 Y-1.479
G2 X17.612 Y14. I12.486 J15.479 F1500.
G1 Y36.
G2 X25.018 Y51.482 I19.888 J0.
G1 X25.027 Y51.49 F500.
X25.274 Y51.689 Z-5.14
Z5. F1500.
X29.153 Y-2.082
Z-5.14 F200.
X28.881 Y-1.918 Z-5.458 F500.
X28.166 Y-1.487
G2 X19.417 Y14. I9.334 J15.487 F1500.
G1 Y36.
G2 X28.164 Y51.486 I18.083 J0.
G1 X28.175 Y51.493 F500.
X28.447 Y51.656 Z-5.14
Z5. F1500.
X32.82 Y-1.594
Z-4.327 F200.
Z-5.14 F500.
X32.518 Y-1.496 Z-5.458
X32.488 Y-1.487
G2 X21.222 Y14. I5.012 J15.487 F1500.
G1 Y36.
G2 X32.48 Y51.484 I16.278 J0.
X34.104 Y50.995 I0.459 J-1.416 F500.
G3 X35.675 Y50.357 I1.353 J1.078
G2 X37.5 Y50.472 I1.825 J-14.357 F1500.
G1 X62.5
G2 X76.973 Y36. I0. J-14.472
G1 Y14.
G2 X62.5 Y-0.472 I-14.473 J0.
G1 X37.5
G2 X23.028 Y14. I0. J14.472
G1 Y36.
G2 X35.675 Y50.357 I14.472 J0.
X37.167 Y49.559 I0.184 J-1.449 F500.
G3 X38.606 Y48.667 I1.439 J0.716
G1 X62.5 F1500.
G2 X75.168 Y36. I0. J-12.667
G1 Y14.
G2 X62.5 Y1.332 I-12.668 J0.
G1 X37.5
G2 X24.833 Y14. I0. J12.668
G1 Y36.
G2 X37.5 Y48.667 I12.667 J0.
G1 X38.606
G2 X39.96 Y47.765 I0. J-1.467 F500.
G3 X41.313 Y46.862 I1.354 J0.564
G1 X62.5 F1500.
G2 X73.363 Y36. I0. J-10.862
G1 Y14.
G2 X62.5 Y3.138 I-10.863 J0.
G1 X37.5
G2 X26.638 Y14. I0. J10.862
G1 Y36.
G2 X37.5 Y46.862 I10.862 J0.
G1 X41.313
G2 X42.667 Y45.96 I0. J-1.467 F500.
G3 X44.021 Y45.057 I1.354 J0.564
G1 X62.5 F1500.
G2 X71.558 Y36. I0. J-9.057
G1 Y14.
G2 X62.5 Y4.943 I-9.058 J0.
G1 X37.5
G2 X28.442 Y14. I0. J9.057
G1 Y36.
G2 X37.5 Y45.057 I9.058 J0.
G1 X44.021
G2 X45.375 Y44.155 I0. J-1.467 F500.
G3 X46.728 Y43.252 I1.354 J0.564
G1 X62.5 F1500.
G2 X69.753 Y36. I0. J-7.252
G1 Y14.
G2 X62.5 Y6.747 I-7.253 J0.
G1 X37.5
G2 X30.247 Y14. I0. J7.253
G1 Y36.
G2 X37.5 Y43.252 I7.253 J0.
G1 X46.728
G2 X48.082 Y42.35 I0. J-1.467 F500.
G3 X49.436 Y41.447 I1.354 J0.564
G1 X62.5 F1500.
G2 X67.948 Y36. I0. J-5.447
G1 Y14.
G2 X62.5 Y8.552 I-5.448 J0.
G1 X37.5
G2 X32.053 Y14. I0. J5.448
G1 Y36.
G2 X37.5 Y41.447 I5.447 J0.
G1 X49.436
G2 X50.79 Y40.545 I0. J-1.467 F500.
G3 X52.143 Y39.643 I1.354 J0.564
G1 X62.5 F1500.
G2 X66.143 Y36. I0. J-3.643
G1 Y14.
G2 X62.5 Y10.358 I-3.643 J0.
G1 X37.5
G2 X33.857 Y14. I0. J3.642
G1 Y36.
G2 X37.5 Y39.643 I3.643 J0.
G1 X52.143
G2 X53.535 Y38.715 I0. J-1.507 F500.
G3 X54.926 Y37.787 I1.391 J0.58
G1 X62.5 F1500.
G2 X64.287 Y36. I0. J-1.787
G1 Y14.
G2 X62.5 Y12.212 I-1.787 J0.
G1 X37.5
G2 X35.713 Y14. I0. J1.788
G1 Y36.
G2 X37.5 Y37.787 I1.787 J0.
G1 X54.926
S12000 M3
X55.419 Y37.87 Z-5.463 F333.3
X97.223 Y52.316 Z-5.93
G2 X99.104 Y51.478 Z-5.954 I0.493 J-1.425
S13000 M3
X101.485 Y43.722 I-36.604 J-15.478 F1500.
G1 X101.487 Y6.286 F500.
G2 X99.101 Y-1.487 I-38.987 J7.714 F1500.
G1 X99.096 Y-1.498 F500.
X98.972 Y-1.79 Z-5.636
Z5. F1500.
X96.862 Y52.093
Z-5.636 F200.
X96.991 Y51.803 Z-5.954 F500.
X97.138 Y51.476
G2 X100.438 Y36. I-34.638 J-15.476 F1500.
G1 Y14.
G2 X97.137 Y-1.478 I-37.938 J0.
G1 X97.132 Y-1.489 F500.
X97.002 Y-1.779 Z-5.636
Z5. F1500.
X94.858 Y52.093
Z-5.636 F200.
X94.994 Y51.806 Z-5.954 F500.
X95.148 Y51.481
G2 X98.632 Y36. I-32.648 J-15.481 F1500.
G1 Y14.
G2 X95.15 Y-1.477 I-36.132 J0.
G1 X95.144 Y-1.489 F500.
X95.008 Y-1.775 Z-5.636
Z5. F1500.
X92.83 Y52.091
Z-5.636 F200.
X92.973 Y51.808 Z-5.954 F500.
X93.14 Y51.478
G2 X96.827 Y36. I-30.64 J-15.478 F1500.
G1 Y14.
G2 X93.137 Y-1.484 I-34.327 J0.
G1 X93.131 Y-1.495 F500.
X92.988 Y-1.778 Z-5.636
Z5. F1500.
X90.771 Y52.093
Z-5.636 F200.
X90.922 Y51.813 Z-5.954 F500.
X91.102 Y51.48
G2 X95.022 Y36. I-28.602 J-15.48 F1500.
G1 Y14.
G2 X91.102 Y-1.48 I-32.522 J0.
G1 X91.096 Y-1.491 F500.
X90.945 Y-1.77 Z-5.636
Z5. F1500.
X88.674 Y52.093
Z-5.636 F200.
X88.834 Y51.819 Z-5.954 F500.
X89.03 Y51.483
G2 X93.217 Y36. I-26.53 J-15.483 F1500.
G1 Y14.
G2 X89.034 Y-1.477 I-30.717 J0.
G1 X89.027 Y-1.487 F500.
X88.868 Y-1.762 Z-5.636
Z5. F1500.
X86.534 Y52.087
Z-5.636 F200.
X86.704 Y51.819 Z-5.954 F500.
X86.918 Y51.482
G2 X91.412 Y36. I-24.418 J-15.482 F1500.
G1 Y14.
G2 X86.916 Y-1.485 I-28.912 J0.
G1 X86.91 Y-1.495 F500.
X86.739 Y-1.764 Z-5.636
Z5. F1500.
X84.328 Y52.09
Z-5.636 F200.
X84.51 Y51.829 Z-5.954 F500.
X84.749 Y51.486
G2 X89.607 Y36. I-22.249 J-15.486 F1500.
G1 Y14.
G2 X84.75 Y-1.483 I-27.107 J0.
G1 X84.743 Y-1.493 F500.
X84.562 Y-1.754 Z-5.636
Z5. F1500.
X82.043 Y52.09
Z-5.636 F200.
X82.237 Y51.839 Z-5.954 F500.
X82.511 Y51.484
G2 X87.802 Y36. I-20.011 J-15.484 F1500.
G1 Y14.
G2 X82.517 Y-1.477 I-25.302 J0.
G1 X82.51 Y-1.486 F500.
X82.315 Y-1.738 Z-5.636
Z5. F1500.
X79.644 Y52.09
Z-5.636 F200.
X79.853 Y51.851 Z-5.954 F500.
X80.181 Y51.476
G2 X85.997 Y36. I-17.681 J-15.476 F1500.
G1 Y14.
G2 X80.18 Y-1.477 I-23.497 J0.
G1 X80.172 Y-1.486 F500.
X79.963 Y-1.725 Z-5.636
Z5. F1500.
X77.071 Y52.093
Z-5.636 F200.
X77.298 Y51.871 Z-5.954 F500.
X77.689 Y51.487
G2 X84.192 Y36. I-15.189 J-15.487 F1500.
G1 Y14.
G2 X77.693 Y-1.483 I-21.692 J0.
G1 X77.684 Y-1.492 F500.
X77.458 Y-1.714 Z-5.636
Z5. F1500.
X74.228 Y52.091
Z-5.636 F200.
X74.475 Y51.892 Z-5.954 F500.
X74.986 Y51.479
G2 X82.387 Y36. I-12.486 J-15.479 F1500.
G1 Y14.
G2 X74.982 Y-1.482 I-19.887 J0.
G1 X74.973 Y-1.49 F500.
X74.726 Y-1.689 Z-5.636
Z5. F1500.
X70.838 Y52.087
Z-5.636 F200.
X71.11 Y51.923 Z-5.954 F500.
X71.834 Y51.487
G2 X80.582 Y36. I-9.334 J-15.487 F1500.
G1 Y14.
G2 X71.836 Y-1.486 I-18.082 J0.
G1 X71.825 Y-1.493 F500.
X71.553 Y-1.656 Z-5.636
Z5. F1500.
X67.18 Y51.594
Z-4.823 F200.
Z-5.636 F500.
X67.482 Y51.496 Z-5.954
X67.512 Y51.487
G2 X78.777 Y36. I-5.012 J-15.487 F1500.
G1 Y14.
G2 X67.52 Y-1.484 I-16.277 J0.
G1 X67.508 Y-1.488 F500.
X67.206 Y-1.586 Z-5.636
Z5. F1500.
X1.151 Y-2.083
Z-5.636 F200.
X1.028 Y-1.791 Z-5.954 F500.
X0.896 Y-1.478
G2 X-1.485 Y6.278 I36.604 J15.478 F1500.
G1 X-1.487 Y43.714 F500.
G2 X0.899 Y51.487 I38.987 J-7.714 F1500.
G1 X0.904 Y51.498 F500.
X1.028 Y51.79 Z-5.636
Z5. F1500.
X3.134 Y-2.084
Z-5.636 F200.
X3.005 Y-1.794 Z-5.954 F500.
X2.862 Y-1.476
G2 X-0.438 Y14. I34.638 J15.476 F1500.
G1 Y36.
G2 X2.863 Y51.478 I37.938 J0.
G1 X2.868 Y51.489 F500.
X2.998 Y51.779 Z-5.636
Z5. F1500.
X5.138 Y-2.084
Z-5.636 F200.
X5.002 Y-1.797 Z-5.954 F500.
X4.852 Y-1.481
G2 X1.367 Y14. I32.648 J15.481 F1500.
G1 Y36.
G2 X4.85 Y51.477 I36.133 J0.
G1 X4.856 Y51.489 F500.
X4.992 Y51.775 Z-5.636
Z5. F1500.
X7.165 Y-2.082
Z-5.636 F200.
X7.022 Y-1.799 Z-5.954 F500.
X6.86 Y-1.478
G2 X3.172 Y14. I30.64 J15.478 F1500.
G1 Y36.
G2 X6.863 Y51.484 I34.328 J0.
G1 X6.869 Y51.495 F500.
X7.012 Y51.778 Z-5.636
Z5. F1500.
X9.225 Y-2.084
Z-5.636 F200.
X9.074 Y-1.805 Z-5.954 F500.
X8.898 Y-1.48
G2 X4.977 Y14. I28.602 J15.48 F1500.
G1 Y36.
G2 X8.898 Y51.48 I32.523 J0.
G1 X8.904 Y51.491 F500.
X9.055 Y51.77 Z-5.636
Z5. F1500.
X11.321 Y-2.084
Z-5.636 F200.
X11.161 Y-1.81 Z-5.954 F500.
X10.97 Y-1.483
G2 X6.782 Y14. I26.53 J15.483 F1500.
G1 Y36.
G2 X10.966 Y51.477 I30.718 J0.
G1 X10.973 Y51.487 F500.
X11.132 Y51.762 Z-5.636
Z5. F1500.
X13.466 Y-2.087
Z-5.636 F200.
X13.296 Y-1.819 Z-5.954 F500.
X13.082 Y-1.482
G2 X8.587 Y14. I24.418 J15.482 F1500.
G1 Y36.
G2 X13.084 Y51.485 I28.913 J0.
G1 X13.09 Y51.495 F500.
X13.261 Y51.764 Z-5.636
Z5. F1500.
X15.666 Y-2.082
Z-5.636 F200.
X15.485 Y-1.821 Z-5.954 F500.
X15.251 Y-1.486
G2 X10.392 Y14. I22.249 J15.486 F1500.
G1 Y36.
G2 X15.25 Y51.483 I27.108 J0.
G1 X15.257 Y51.493 F500.
X15.438 Y51.754 Z-5.636
Z5. F1500.
X17.951 Y-2.082
Z-5.636 F200.
X17.757 Y-1.831 Z-5.954 F500.
X17.489 Y-1.484
G2 X12.198 Y14. I20.011 J15.484 F1500.
G1 Y36.
G2 X17.483 Y51.477 I25.302 J0.
G1 X17.49 Y51.486 F500.
X17.685 Y51.738 Z-5.636
Z5. F1500.
X20.35 Y-2.083
Z-5.636 F200.
X20.141 Y-1.844 Z-5.954 F500.
X19.819 Y-1.476
G2 X14.002 Y14. I17.681 J15.476 F1500.
G1 Y36.
G2 X19.82 Y51.477 I23.498 J0.
G1 X19.828 Y51.486 F500.
X20.037 Y51.725 Z-5.636
Z5. F1500.
X22.914 Y-2.079
Z-5.636 F200.
X22.688 Y-1.857 Z-5.954 F500.
X22.311 Y-1.487
G2 X15.807 Y14. I15.189 J15.487 F1500.
G1 Y36.
G2 X22.307 Y51.483 I21.693 J0.
G1 X22.316 Y51.492 F500.
X22.542 Y51.714 Z-5.636
Z5. F1500.
X25.764 Y-2.085
Z-5.636 F200.
X25.517 Y-1.885 Z-5.954 F500.
X25.014 Y-1.479
G2 X17.612 Y14. I12.486 J15.479 F1500.
G1 Y36.
G2 X25.018 Y51.482 I19.888 J0.
G1 X25.027 Y51.49 F500.
X25.274 Y51.689 Z-5.636
Z5. F1500.
X29.153 Y-2.082
Z-5.636 F200.
X28.881 Y-1.918 Z-5.954 F500.
X28.166 Y-1.487
G2 X19.417 Y14. I9.334 J15.487 F1500.
G1 Y36.
G2 X28.164 Y51.486 I18.083 J0.
G1 X28.175 Y51.493 F500.
X28.447 Y51.656 Z-5.636
Z5. F1500.
X32.82 Y-1.594
Z-4.823 F200.
Z-5.636 F500.
X32.518 Y-1.496 Z-5.954
X32.488 Y-1.487
G2 X21.222 Y14. I5.012 J15.487 F1500.
G1 Y36.
G2 X32.48 Y51.484 I16.278 J0.
X34.104 Y50.995 I0.459 J-1.416 F500.
G3 X35.675 Y50.357 I1.353 J1.078
G2 X37.5 Y50.472 I1.825 J-14.357 F1500.
G1 X62.5
G2 X76.973 Y36. I0. J-14.472
G1 Y14.
G2 X62.5 Y-0.472 I-14.473 J0.
G1 X37.5
G2 X23.028 Y14. I0. J14.472
G1 Y36.
G2 X35.675 Y50.357 I14.472 J0.
X37.167 Y49.559 I0.184 J-1.449 F500.
G3 X38.606 Y48.667 I1.439 J0.716
G1 X62.5 F1500.
G2 X75.168 Y36. I0. J-12.667
G1 Y14.
G2 X62.5 Y1.332 I-12.668 J0.
G1 X37.5
G2 X24.833 Y14. I0. J12.668
G1 Y36.
G2 X37.5 Y48.667 I12.667 J0.
G1 X38.606
G2 X39.96 Y47.765 I0. J-1.467 F500.
G3 X41.313 Y46.862 I1.354 J0.564
G1 X62.5 F1500.
G2 X73.363 Y36. I0. J-10.862
G1 Y14.
G2 X62.5 Y3.138 I-10.863 J0.
G1 X37.5
G2 X26.638 Y14. I0. J10.862
G1 Y36.
G2 X37.5 Y46.862 I10.862 J0.
G1 X41.313
G2 X42.667 Y45.96 I0. J-1.467 F500.
G3 X44.021 Y45.057 I1.354 J0.564
G1 X62.5 F1500.
G2 X71.558 Y36. I0. J-9.057
G1 Y14.
G2 X62.5 Y4.943 I-9.058 J0.
G1 X37.5
G2 X28.442 Y14. I0. J9.057
G1 Y36.
G2 X37.5 Y45.057 I9.058 J0.
G1 X44.021
G2 X45.375 Y44.155 I0. J-1.467 F500.
G3 X46.728 Y43.252 I1.354 J0.564
G1 X62.5 F1500.
G2 X69.753 Y36. I0. J-7.252
G1 Y14.
G2 X62.5 Y6.747 I-7.253 J0.
G1 X37.5
G2 X30.247 Y14. I0. J7.253
G1 Y36.
G2 X37.5 Y43.252 I7.253 J0.
G1 X46.728
G2 X48.082 Y42.35 I0. J-1.467 F500.
G3 X49.436 Y41.447 I1.354 J0.564
G1 X62.5 F1500.
G2 X67.948 Y36. I0. J-5.447
G1 Y14.
G2 X62.5 Y8.552 I-5.448 J0.
G1 X37.5
G2 X32.053 Y14. I0. J5.448
G1 Y36.
G2 X37.5 Y41.447 I5.447 J0.
G1 X49.436
G2 X50.79 Y40.545 I0. J-1.467 F500.
G3 X52.143 Y39.643 I1.354 J0.564
G1 X62.5 F1500.
G2 X66.143 Y36. I0. J-3.643
G1 Y14.
G2 X62.5 Y10.358 I-3.643 J0.
G1 X37.5
G2 X33.857 Y14. I0. J3.642
G1 Y36.
G2 X37.5 Y39.643 I3.643 J0.
G1 X52.143
G2 X53.535 Y38.715 I0. J-1.507 F500.
G3 X54.926 Y37.787 I1.391 J0.58
G1 X62.5 F1500.
G2 X64.287 Y36. I0. J-1.787
G1 Y14.
G2 X62.5 Y12.212 I-1.787 J0.
G1 X37.5
G2 X35.713 Y14. I0. J1.788
G1 Y36.
G2 X37.5 Y37.787 I1.787 J0.
G1 X54.926
S12000 M3
X55.419 Y37.87 Z-5.959 F333.3
X97.223 Y52.316 Z-6.426
G2 X99.104 Y51.478 Z-6.45 I0.493 J-1.425
S13000 M3
X101.485 Y43.722 I-36.604 J-15.478 F1500.
G1 X101.487 Y6.286 F500.
G2 X99.101 Y-1.487 I-38.987 J7.714 F1500.
G1 X99.096 Y-1.498 F500.
X98.972 Y-1.79 Z-6.133
Z5. F1500.
X96.862 Y52.093
Z-6.133 F200.
X96.991 Y51.803 Z-6.45 F500.
X97.138 Y51.476
G2 X100.438 Y36. I-34.638 J-15.476 F1500.
G1 Y14.
G2 X97.137 Y-1.478 I-37.938 J0.
G1 X97.132 Y-1.489 F500.
X97.002 Y-1.779 Z-6.133
Z5. F1500.
X94.858 Y52.093
Z-6.133 F200.
X94.994 Y51.806 Z-6.45 F500.
X95.148 Y51.481
G2 X98.632 Y36. I-32.648 J-15.481 F1500.
G1 Y14.
G2 X95.15 Y-1.477 I-36.132 J0.
G1 X95.144 Y-1.489 F500.
X95.008 Y-1.775 Z-6.133
Z5. F1500.
X92.83 Y52.091
Z-6.133 F200.
X92.973 Y51.808 Z-6.45 F500.
X93.14 Y51.478
G2 X96.827 Y36. I-30.64 J-15.478 F1500.
G1 Y14.
G2 X93.137 Y-1.484 I-34.327 J0.
G1 X93.131 Y-1.495 F500.
X92.988 Y-1.778 Z-6.133
Z5. F1500.
X90.771 Y52.093
Z-6.133 F200.
X90.922 Y51.813 Z-6.45 F500.
X91.102 Y51.48
G2 X95.022 Y36. I-28.602 J-15.48 F1500.
G1 Y14.
G2 X91.102 Y-1.48 I-32.522 J0.
G1 X91.096 Y-1.491 F500.
X90.945 Y-1.77 Z-6.133
Z5. F1500.
X88.674 Y52.093
Z-6.133 F200.
X88.834 Y51.819 Z-6.45 F500.
X89.03 Y51.483
G2 X93.217 Y36. I-26.53 J-15.483 F1500.
G1 Y14.
G2 X89.034 Y-1.477 I-30.717 J0.
G1 X89.027 Y-1.487 F500.
X88.868 Y-1.762 Z-6.133
Z5. F1500.
X86.534 Y52.087
Z-6.133 F200.
X86.704 Y51.819 Z-6.45 F500.
X86.918 Y51.482
G2 X91.412 Y36. I-24.418 J-15.482 F1500.
G1 Y14.
G2 X86.916 Y-1.485 I-28.912 J0.
G1 X86.91 Y-1.495 F500.
X86.739 Y-1.764 Z-6.133
Z5. F1500.
X84.328 Y52.09
Z-6.133 F200.
X84.51 Y51.829 Z-6.45 F500.
X84.749 Y51.486
G2 X89.607 Y36. I-22.249 J-15.486 F1500.
G1 Y14.
G2 X84.75 Y-1.483 I-27.107 J0.
G1 X84.743 Y-1.493 F500.
X84.562 Y-1.754 Z-6.133
Z5. F1500.
X82.043 Y52.09
Z-6.133 F200.
X82.237 Y51.839 Z-6.45 F500.
X82.511 Y51.484
G2 X87.802 Y36. I-20.011 J-15.484 F1500.
G1 Y14.
G2 X82.517 Y-1.477 I-25.302 J0.
G1 X82.51 Y-1.486 F500.
X82.315 Y-1.738 Z-6.133
Z5. F1500.
X79.644 Y52.09
Z-6.133 F200.
X79.853 Y51.851 Z-6.45 F500.
X80.181 Y51.476
G2 X85.997 Y36. I-17.681 J-15.476 F1500.
G1 Y14.
G2 X80.18 Y-1.477 I-23.497 J0.
G1 X80.172 Y-1.486 F500.
X79.963 Y-1.725 Z-6.133
Z5. F1500.
X77.071 Y52.093
Z-6.133 F200.
X77.298 Y51.871 Z-6.45 F500.
X77.689 Y51.487
G2 X84.192 Y36. I-15.189 J-15.487 F1500.
G1 Y14.
G2 X77.693 Y-1.483 I-21.692 J0.
G1 X77.684 Y-1.492 F500.
X77.458 Y-1.714 Z-6.133
Z5. F1500.
X74.228 Y52.091
Z-6.133 F200.
X74.475 Y51.892 Z-6.45 F500.
X74.986 Y51.479
G2 X82.387 Y36. I-12.486 J-15.479 F1500.
G1 Y14.
G2 X74.982 Y-1.482 I-19.887 J0.
G1 X74.973 Y-1.49 F500.
X74.726 Y-1.689 Z-6.133
Z5. F1500.
X70.838 Y52.087
Z-6.133 F200.
X71.11 Y51.923 Z-6.45 F500.
X71.834 Y51.487
G2 X80.582 Y36. I-9.334 J-15.487 F1500.
G1 Y14.
G2 X71.836 Y-1.486 I-18.082 J0.
G1 X71.825 Y-1.493 F500.
X71.553 Y-1.656 Z-6.133
Z5. F1500.
X67.18 Y51.594
Z-5.319 F200.
Z-6.133 F500.
X67.482 Y51.496 Z-6.45
X67.512 Y51.487
G2 X78.777 Y36. I-5.012 J-15.487 F1500.
G1 Y14.
G2 X67.52 Y-1.484 I-16.277 J0.
G1 X67.508 Y-1.488 F500.
X67.206 Y-1.586 Z-6.133
Z5. F1500.
X1.151 Y-2.083
Z-6.133 F200.
X1.028 Y-1.791 Z-6.45 F500.
X0.896 Y-1.478
G2 X-1.485 Y6.278 I36.604 J15.478 F1500.
G1 X-1.487 Y43.714 F500.
G2 X0.899 Y51.487 I38.987 J-7.714 F1500.
G1 X0.904 Y51.498 F500.
X1.028 Y51.79 Z-6.133
Z5. F1500.
X3.134 Y-2.084
Z-6.133 F200.
X3.005 Y-1.794 Z-6.45 F500.
X2.862 Y-1.476
G2 X-0.438 Y14. I34.638 J15.476 F1500.
G1 Y36.
G2 X2.863 Y51.478 I37.938 J0.
G1 X2.868 Y51.489 F500.
X2.998 Y51.779 Z-6.133
Z5. F1500.
X5.138 Y-2.084
Z-6.133 F200.
X5.002 Y-1.797 Z-6.45 F500.
X4.852 Y-1.481
G2 X1.367 Y14. I32.648 J15.481 F1500.
G1 Y36.
G2 X4.85 Y51.477 I36.133 J0.
G1 X4.856 Y51.489 F500.
X4.992 Y51.775 Z-6.133
Z5. F1500.
X7.165 Y-2.082
Z-6.133 F200.
X7.022 Y-1.799 Z-6.45 F500.
X6.86 Y-1.478
G2 X3.172 Y14. I30.64 J15.478 F1500.
G1 Y36.
G2 X6.863 Y51.484 I34.328 J0.
G1 X6.869 Y51.495 F500.
X7.012 Y51.778 Z-6.133
Z5. F1500.
X9.225 Y-2.084
Z-6.133 F200.
X9.074 Y-1.805 Z-6.45 F500.
X8.898 Y-1.48
G2 X4.977 Y14. I28.602 J15.48 F1500.
G1 Y36.
