(A3_02_T8_PROJECT_ENGRAVE)
(T8  Chamfering Bit - 1/8AcA?A3 Shank      D=3.175 CR=0. TAPER=45deg - ZMIN=-5.573 - chamfer mill)
( =================================================== )
(   Z Origin Set To   : Stock Top )
(   Stock Height                    : 50. mm )
(   Toolpath Z Maximum from Stock Top: 15. mm )
(   Toolpath Z Min from Stock Top: -5.573 mm )
(  )
( =================================================== )

( The following values are based on the part position info used in fusion and can be used to roughly align the machine offset from anchor 1 if you use that feature. )
(   X Offset   : 0. mm )
(   Y Offset   : 290. mm )

( =================================================== )

G90 G94
G17
G21
(When using Fusion for Personal Use, the feedrate of rapid)
(moves is reduced to match the feedrate of cutting moves,)
(which can increase machining time. Unrestricted rapid moves)
(are available with a Fusion Subscription.)

(A3_T8_PROJECT_ENGRAVE)
M6 T8 
(8)
M400
M851 S100
S12000 M3
G54
G0 X13.577 Y19.914
Z15.
G1 Z2. F400.
Z-1. F133.3
X13.342 Y20.481 F400.
X13.136 Y21.05
X12.951 Y21.661
X12.806 Y22.23
X12.683 Y22.849
X12.601 Y23.382
X12.538 Y24.004
X12.507 Y24.566
X12.503 Y25.186
X12.526 Y25.741
X12.583 Y26.392
X12.676 Y27.035
X12.779 Y27.571
X12.931 Y28.201
X13.104 Y28.787
X13.292 Y29.331
X13.545 Y29.961
X13.801 Y30.513
X14.064 Y31.021
X14.406 Y31.608
X14.738 Y32.115
X15.071 Y32.58
X15.494 Y33.111
X15.896 Y33.565
X16.295 Y33.977
X16.767 Y34.417
X17.18 Y34.767
X17.691 Y35.161
X18.225 Y35.528
X18.691 Y35.816
X19.231 Y36.115
X19.728 Y36.359
X20.297 Y36.606
X20.825 Y36.803
X21.421 Y36.994
X21.978 Y37.14
X22.584 Y37.271
X23.181 Y37.365
X23.781 Y37.434
X24.395 Y37.47
X24.93 Y37.48
X25.457 Y37.47
X26.012 Y37.437
X26.625 Y37.375
X27.224 Y37.281
X27.748 Y37.175
X28.263 Y37.05
X28.801 Y36.893
X29.335 Y36.712
X29.878 Y36.496
X30.378 Y36.271
X30.923 Y35.996
X31.451 Y35.692
X31.905 Y35.403
X32.394 Y35.062
X32.869 Y34.69
X33.301 Y34.32
X33.73 Y33.918
X34.146 Y33.486
X34.542 Y33.037
X34.885 Y32.609
X35.237 Y32.126
X35.576 Y31.613
X35.896 Y31.069
X36.176 Y30.541
X36.422 Y30.016
X36.651 Y29.465
X36.85 Y28.919
X37.025 Y28.347
X37.167 Y27.801
X37.289 Y27.231
X37.384 Y26.638
X37.449 Y26.075
X37.488 Y25.521
X37.499 Y24.951
X37.487 Y24.415
X37.448 Y23.815
X37.373 Y23.209
X37.283 Y22.673
X37.162 Y22.105
X37.019 Y21.568
X36.852 Y21.038
X36.672 Y20.544
X36.471 Y20.055
X36.218 Y19.509
X35.937 Y18.975
X35.661 Y18.501
X35.362 Y18.034
X35.06 Y17.602
X34.718 Y17.149
X34.367 Y16.726
X33.967 Y16.289
X33.551 Y15.872
X33.141 Y15.5
X32.694 Y15.131
X32.238 Y14.788
X31.735 Y14.45
X31.259 Y14.158
X30.73 Y13.873
X30.206 Y13.619
X29.624 Y13.375
X29.082 Y13.177
X28.482 Y12.992
X27.961 Y12.856
X27.348 Y12.728
X26.786 Y12.638
X26.164 Y12.568
X25.597 Y12.532
X24.928 Y12.52
X24.269 Y12.544
X23.704 Y12.591
X23.051 Y12.676
X22.493 Y12.778
X21.872 Y12.918
X21.238 Y13.099
X20.698 Y13.28
X20.114 Y13.507
X19.592 Y13.74
X19.031 Y14.022
X18.53 Y14.306
X17.996 Y14.642
X17.522 Y14.977
X17.032 Y15.356
X16.577 Y15.751
X16.144 Y16.16
X15.727 Y16.601
X15.329 Y17.061
X14.953 Y17.548
X14.593 Y18.059
X14.263 Y18.589
X13.971 Y19.107
X13.708 Y19.631
X13.577 Y19.914
Z5.
X23.882 Y32.959
Z2.
Z-1. F133.3
X23.905 Y33.456 F400.
X23.912 Y34.849
Y35.242
X23.568 Y35.209
X22.998 Y35.106
X22.332 Y34.955
X22.007 Y34.86
X21.954 Y34.838
Z5.
X21.935 Y34.807
Z2.
Z-1. F133.3
X22.161 Y34.558 F400.
X23.079 Y33.63
X23.744 Y32.988
X23.856 Y32.893
Z5.
X26.102 Y32.96
Z2.
Z-1. F133.3
X26.086 Y33.411 F400.
X26.08 Y35.257
X26.405 Y35.216
Z5.
X26.442 Y35.211
Z2.
Z-1. F133.3
X26.716 Y35.163 F400.
X27.447 Y35.005
X27.93 Y34.874
Z5.
X28.057 Y34.808
Z2.
Z-1. F133.3
X28.015 Y34.759 F400.
X27.458 Y34.186
X26.404 Y33.15
X26.123 Y32.893
Z5.
X18.785 Y33.226
Z2.
Z-1. F133.3
X19.727 Y33.882 F400.
X23.912 Y29.698
Y27.654
X18.532 Y33.032
X18.671 Y33.142
Z5.
X30.593 Y33.65
Z2.
Z-1. F133.3
X30.654 Y33.61 F400.
X31.147 Y33.26
Z5.
X31.393 Y33.006
Z2.
Z-1. F133.3
X31.339 Y32.946 F400.
X30.283 Y31.864
X26.08 Y27.654
Y29.697
X30.25 Y33.868
X30.503 Y33.708
Z5.
X16.972 Y18.588
Z2.
Z-1. F133.3
X17.559 Y19.152 F400.
X20.153 Y21.726
X23.416 Y24.99
X16.943 Y31.461
X16.375 Y30.658
X16.087 Y30.198
X15.827 Y29.723
X15.579 Y29.203
X15.37 Y28.692
X15.182 Y28.148
X15.025 Y27.593
X14.898 Y27.03
X14.802 Y26.461
X14.736 Y25.878
X14.703 Y25.301
X14.701 Y24.724
X14.73 Y24.148
X14.79 Y23.575
X14.883 Y22.996
X15.007 Y22.434
X15.163 Y21.88
X15.338 Y21.368
X15.541 Y20.867
X15.772 Y20.378
X16.031 Y19.903
X16.382 Y19.337
X16.715 Y18.853
X16.892 Y18.631
X16.926 Y18.598
Z5.
X33.063 Y18.596
Z2.
Z-1. F133.3
X33.177 Y18.725 F400.
X33.44 Y19.097
X33.796 Y19.665
X34.107 Y20.219
X34.358 Y20.732
X34.59 Y21.284
X34.779 Y21.813
X34.949 Y22.383
X35.084 Y22.956
X35.18 Y23.499
X35.251 Y24.08
X35.288 Y24.661
X35.293 Y25.242
X35.264 Y25.822
X35.207 Y26.365
X35.115 Y26.937
X34.998 Y27.471
X34.842 Y28.032
X34.665 Y28.551
X34.446 Y29.096
X34.195 Y29.627
X33.929 Y30.117
X33.636 Y30.594
X33.256 Y31.142
X33.14 Y31.296
Z5.
X33.029 Y31.389
Z2.
Z-1. F133.3
X32.899 Y31.294 F400.
X32.484 Y30.919
X31.384 Y29.852
X27.544 Y26.019
X26.545 Y25.021
X31.619 Y19.954
X32.938 Y18.661
X33.019 Y18.588
Z5.
X23.847 Y22.281
Z2.
Z-1. F133.3
X23.244 Y21.703 F400.
X20.945 Y19.421
X18.505 Y16.98
X19.238 Y16.449
X19.457 Y16.305
Z5.
X19.561 Y16.243
Z2.
Z-1. F133.3
X19.763 Y16.134 F400.
X23.912 Y20.281
X23.907 Y21.746
X23.884 Y22.206
Z5.
X30.366 Y16.206
Z2.
Z-1. F133.3
X30.598 Y16.345 F400.
X31.093 Y16.691
X31.371 Y16.911
X31.387 Y16.926
Z5.
X31.393 Y16.973
Z2.
Z-1. F133.3
X30.797 Y17.593 F400.
X28.382 Y20.024
X26.08 Y22.326
Y20.281
X29.371 Y16.998
X29.961 Y16.436
X30.183 Y16.254
X30.278 Y16.203
Z5.
X23.897 Y14.828
Z2.
Z-1. F133.3
X23.902 Y15.644 F400.
X23.881 Y17.155
X22.385 Y15.65
X21.969 Y15.202
Z5.
X21.946 Y15.141
Z2.
Z-1. F133.3
X22.115 Y15.085 F400.
X22.706 Y14.946
X23.468 Y14.8
X23.814 Y14.753
X23.871 Y14.752
Z5.
X26.111 Y14.811
Z2.
Z-1. F133.3
X26.107 Y14.844 F400.
X26.085 Y15.388
X26.08 Y17.121
X27.434 Y15.766
X27.964 Y15.212
Z5.
X27.982 Y15.149
Z2.
Z-1. F133.3
X27.961 Y15.139 F400.
X27.688 Y15.054
X27.007 Y14.891
X26.374 Y14.767
X26.126 Y14.738
Z5.
X62.5
Z2.
Z-1. F133.3
Y37.295 F400.
X87.5
Y12.705
X62.5
Y14.738
Z5.
X66.048 Y26.638
Z2.
Z-1. F133.3
X66.164 Y27.169 F400.
X66.299 Y27.653
X66.482 Y28.186
X66.686 Y28.678
X66.913 Y29.148
X67.165 Y29.601
X67.466 Y30.073
X67.767 Y30.488
X68.091 Y30.885
X68.458 Y31.287
X68.858 Y31.673
X69.272 Y32.026
X69.677 Y32.335
X70.1 Y32.62
X70.578 Y32.904
X71.064 Y33.153
X71.534 Y33.36
X72.017 Y33.542
X72.554 Y33.707
X73.062 Y33.83
X73.579 Y33.925
X74.141 Y33.993
X74.68 Y34.024
X75.189 Y34.025
X75.73 Y33.995
X76.26 Y33.934
X76.78 Y33.843
X77.323 Y33.714
X77.861 Y33.549
X78.345 Y33.369
X78.817 Y33.163
X79.113 Y33.016
X79.133 Y33.006
X79.619 Y32.733
X80.077 Y32.438
X80.488 Y32.138
X80.883 Y31.816
X81.291 Y31.439
X81.668 Y31.047
X82. Y30.658
X82.311 Y30.251
X82.623 Y29.787
X82.884 Y29.342
X83.122 Y28.881
X83.347 Y28.371
X83.532 Y27.87
X83.678 Y27.394
X83.807 Y26.87
X83.854 Y26.638
X80.996 Y26.64
X80.619 Y26.665
X80.25 Y26.721
X79.882 Y26.809
X79.535 Y26.923
X79.201 Y27.064
X78.875 Y27.234
X78.571 Y27.425
X78.258 Y27.661
X77.987 Y27.903
X77.717 Y28.187
X77.49 Y28.471
X77.29 Y28.768
X77.109 Y29.087
X76.958 Y29.415
X76.833 Y29.756
X76.733 Y30.118
X76.665 Y30.482
X76.627 Y30.855
X76.619 Y31.249
X76.645 Y31.626
X76.701 Y31.995
X76.788 Y32.363
X76.903 Y32.71
X77.044 Y33.044
X77.213 Y33.37
X77.424 Y33.702
X77.644 Y33.992
X77.906 Y34.282
X78.171 Y34.531
X78.478 Y34.774
X78.782 Y34.976
X79.097 Y35.151
X79.426 Y35.3
X79.776 Y35.425
X80.13 Y35.519
X80.495 Y35.585
X80.881 Y35.621
X81.59 Y35.627
X84.541
X80.996 Y35.626
X80.619 Y35.6
X80.25 Y35.544
X79.882 Y35.457
X79.535 Y35.342
X79.201 Y35.201
X78.875 Y35.032
X78.571 Y34.84
X78.258 Y34.604
X77.987 Y34.362
X77.717 Y34.078
X77.49 Y33.794
X77.29 Y33.497
X77.109 Y33.179
X76.958 Y32.851
X76.833 Y32.509
X76.733 Y32.148
X76.665 Y31.783
X76.627 Y31.41
X76.619 Y31.017
X76.645 Y30.639
X76.701 Y30.27
X76.788 Y29.902
X76.903 Y29.555
X77.044 Y29.221
X77.213 Y28.896
X77.405 Y28.592
X77.619 Y28.305
X77.859 Y28.032
X78.141 Y27.761
X78.423 Y27.531
X78.719 Y27.328
X79.03 Y27.149
X79.363 Y26.991
X79.703 Y26.864
X80.055 Y26.764
X80.428 Y26.69
X80.8 Y26.649
X81.214 Y26.638
X83.854
X83.737 Y27.169
X83.602 Y27.653
X83.429 Y28.159
X83.23 Y28.647
X83.004 Y29.117
X82.737 Y29.601
X82.436 Y30.073
X82.134 Y30.488
X81.811 Y30.885
X81.443 Y31.287
X81.043 Y31.673
X80.63 Y32.026
X80.225 Y32.335
X79.802 Y32.62
X79.323 Y32.904
X78.837 Y33.153
X78.367 Y33.36
X77.884 Y33.542
X77.347 Y33.707
X76.84 Y33.83
X76.322 Y33.925
X75.76 Y33.993
X75.221 Y34.024
X74.713 Y34.025
X74.172 Y33.995
X73.642 Y33.934
X73.121 Y33.843
X72.579 Y33.714
X72.041 Y33.549
X71.556 Y33.369
X71.085 Y33.163
X70.598 Y32.915
X70.119 Y32.632
X69.667 Y32.328
X69.262 Y32.019
X68.874 Y31.688
X68.474 Y31.303
X68.105 Y30.902
X67.781 Y30.507
X67.479 Y30.092
X67.177 Y29.621
X66.925 Y29.17
X66.697 Y28.702
X66.482 Y28.186
X66.308 Y27.681
X66.172 Y27.2
X66.055 Y26.671
X66.048 Y26.638
X68.906 Y26.64
X69.283 Y26.665
X69.652 Y26.721
X70.02 Y26.809
X70.367 Y26.923
X70.701 Y27.064
X71.027 Y27.234
X71.33 Y27.425
X71.617 Y27.64
X71.89 Y27.879
X72.162 Y28.162
X72.391 Y28.444
X72.594 Y28.739
X72.773 Y29.051
X72.931 Y29.383
X73.058 Y29.724
X73.159 Y30.076
X73.232 Y30.448
X73.273 Y30.821
X73.283 Y31.201
X73.261 Y31.592
X73.207 Y31.962
X73.125 Y32.322
X73.011 Y32.678
X72.872 Y33.013
X72.708 Y33.334
X72.516 Y33.646
X72.283 Y33.961
X72.043 Y34.234
X71.786 Y34.482
X71.483 Y34.731
X71.183 Y34.937
X70.871 Y35.116
X70.539 Y35.274
X70.199 Y35.401
X69.846 Y35.502
X69.474 Y35.575
X69.101 Y35.616
X68.687 Y35.627
X65.361
X68.906 Y35.626
X69.283 Y35.6
X69.652 Y35.544
X70.02 Y35.457
X70.367 Y35.342
X70.701 Y35.201
X71.027 Y35.032
X71.33 Y34.84
X71.617 Y34.626
X71.89 Y34.386
X72.162 Y34.104
X72.391 Y33.822
X72.594 Y33.526
X72.773 Y33.215
X72.931 Y32.882
X73.058 Y32.542
X73.159 Y32.19
X73.232 Y31.817
X73.273 Y31.444
X73.283 Y31.064
X73.261 Y30.673
X73.207 Y30.303
X73.125 Y29.944
X73.011 Y29.587
X72.872 Y29.252
X72.708 Y28.931
X72.516 Y28.62
X72.283 Y28.305
X72.043 Y28.032
X71.786 Y27.783
X71.483 Y27.535
X71.183 Y27.328
X70.871 Y27.149
X70.539 Y26.991
X70.199 Y26.864
X69.846 Y26.764
X69.474 Y26.69
X69.101 Y26.649
X68.687 Y26.638
X66.048
Z5.
Y23.304
Z2.
Z-1. F133.3
X68.906 Y23.303 F400.
X69.283 Y23.277
X69.652 Y23.221
X70.02 Y23.134
X70.367 Y23.02
X70.701 Y22.879
X71.027 Y22.709
X71.33 Y22.517
X71.617 Y22.303
X71.89 Y22.063
X72.162 Y21.781
X72.391 Y21.499
X72.594 Y21.203
X72.773 Y20.892
X72.931 Y20.559
X73.058 Y20.219
X73.159 Y19.867
X73.232 Y19.494
X73.273 Y19.122
X73.283 Y18.742
X73.261 Y18.351
X73.207 Y17.981
X73.125 Y17.621
X73.011 Y17.265
X72.872 Y16.929
X72.708 Y16.608
X72.516 Y16.297
X72.283 Y15.982
X72.043 Y15.709
X71.786 Y15.46
X71.483 Y15.212
X71.183 Y15.006
X70.871 Y14.826
X70.539 Y14.669
X70.199 Y14.541
X69.846 Y14.441
X69.474 Y14.367
X69.101 Y14.327
X68.687 Y14.316
X65.361
X68.906 Y14.317
X69.283 Y14.343
X69.652 Y14.399
X70.02 Y14.486
X70.367 Y14.6
X70.701 Y14.741
X71.027 Y14.911
X71.33 Y15.103
X71.617 Y15.317
X71.89 Y15.557
X72.162 Y15.839
X72.391 Y16.121
X72.594 Y16.417
X72.773 Y16.728
X72.931 Y17.061
X73.058 Y17.401
X73.159 Y17.753
X73.232 Y18.125
X73.273 Y18.498
X73.283 Y18.878
X73.261 Y19.27
X73.207 Y19.639
X73.125 Y19.999
X73.011 Y20.355
X72.872 Y20.691
X72.708 Y21.012
X72.516 Y21.323
X72.282 Y21.638
X72.043 Y21.911
X71.786 Y22.159
X71.483 Y22.408
X71.183 Y22.614
X70.871 Y22.794
X70.539 Y22.951
X70.199 Y23.079
X69.846 Y23.179
X69.474 Y23.253
X69.101 Y23.293
X68.687 Y23.304
X66.048
X66.164 Y22.774
X66.299 Y22.29
X66.482 Y21.757
X66.7 Y21.234
X66.929 Y20.765
X67.182 Y20.313
X67.479 Y19.85
X67.809 Y19.4
X68.136 Y19.006
X68.482 Y18.631
X68.858 Y18.27
X68.874 Y18.255
X69.298 Y17.895
X69.733 Y17.569
X70.157 Y17.286
X70.598 Y17.028
X71.095 Y16.775
X71.566 Y16.57
X72.05 Y16.39
X72.579 Y16.229
X73.128 Y16.098
X73.647 Y16.008
X74.175 Y15.947
X74.714 Y15.917
X75.223 Y15.918
X75.76 Y15.95
X76.294 Y16.014
X76.78 Y16.1
X77.323 Y16.229
X77.861 Y16.393
X78.345 Y16.574
X78.817 Y16.78
X79.303 Y17.028
X79.783 Y17.311
X80.234 Y17.615
X80.64 Y17.924
X81.027 Y18.254
X81.428 Y18.64
X81.796 Y19.04
X82.12 Y19.436
X82.423 Y19.85
X82.724 Y20.321
X82.977 Y20.773
X83.205 Y21.24
X83.419 Y21.757
X83.594 Y22.262
X83.73 Y22.743
X83.847 Y23.272
X83.854 Y23.304
X80.996 Y23.303
X80.619 Y23.277
X80.25 Y23.221
X79.882 Y23.134
X79.535 Y23.02
X79.201 Y22.879
X78.875 Y22.709
X78.571 Y22.517
X78.258 Y22.282
X77.987 Y22.039
X77.717 Y21.755
X77.49 Y21.471
X77.29 Y21.175
X77.109 Y20.856
X76.958 Y20.528
X76.833 Y20.187
X76.733 Y19.825
X76.665 Y19.461
X76.627 Y19.088
X76.619 Y18.694
X76.645 Y18.317
X76.701 Y17.947
X76.788 Y17.58
X76.903 Y17.233
X77.044 Y16.899
X77.213 Y16.573
X77.405 Y16.269
X77.619 Y15.982
X77.859 Y15.709
X78.141 Y15.438
X78.423 Y15.208
X78.748 Y14.987
X79.066 Y14.807
X79.394 Y14.656
X79.736 Y14.531
X80.097 Y14.431
X80.461 Y14.363
X80.834 Y14.324
X81.283 Y14.316
X84.541
X80.996 Y14.317
X80.619 Y14.343
X80.25 Y14.399
X79.882 Y14.486
X79.535 Y14.6
X79.201 Y14.741
X78.875 Y14.911
X78.571 Y15.103
X78.258 Y15.338
X77.987 Y15.58
X77.717 Y15.865
X77.49 Y16.148
X77.29 Y16.445
X77.109 Y16.764
X76.958 Y17.092
X76.833 Y17.433
X76.733 Y17.795
X76.665 Y18.159
X76.627 Y18.532
X76.619 Y18.926
X76.645 Y19.303
X76.701 Y19.673
X76.788 Y20.04
X76.903 Y20.387
X77.044 Y20.721
X77.213 Y21.047
X77.405 Y21.351
X77.619 Y21.638
X77.859 Y21.911
X78.141 Y22.182
X78.423 Y22.412
X78.719 Y22.614
X79.03 Y22.794
X79.363 Y22.951
X79.703 Y23.079
X80.055 Y23.179
X80.428 Y23.253
X80.8 Y23.293
X81.214 Y23.304
X83.854
X83.737 Y22.774
X83.602 Y22.29
X83.429 Y21.783
X83.23 Y21.296
X83.004 Y20.825
X82.737 Y20.342
X82.436 Y19.87
X82.134 Y19.454
X81.811 Y19.057
X81.443 Y18.656
X81.043 Y18.269
X80.63 Y17.916
X80.225 Y17.608
X79.802 Y17.322
X79.323 Y17.039
X78.837 Y16.79
X78.367 Y16.582
X77.884 Y16.401
X77.347 Y16.236
X76.84 Y16.113
X76.322 Y16.018
X75.79 Y15.953
X75.255 Y15.92
X74.747 Y15.916
X74.206 Y15.945
X73.709 Y15.999
X73.155 Y16.093
X72.604 Y16.222
X72.106 Y16.372
X71.62 Y16.548
X71.116 Y16.765
X70.618 Y17.017
X70.177 Y17.275
X69.751 Y17.556
X69.315 Y17.881
X68.891 Y18.24
X68.498 Y18.616
X68.15 Y18.989
X67.823 Y19.382
X67.492 Y19.831
X67.213 Y20.263
X66.956 Y20.712
X66.711 Y21.209
X66.492 Y21.731
X66.318 Y22.23
X66.172 Y22.743
X66.055 Y23.272
X66.048 Y23.304
Z5.
X66.426 Y14.316
Z2.
Z-1. F133.3
X64.295 F400.
X85.607 Y35.627
X83.475
Z5.
X83.422
Z2.
Z-1. F133.3
X85.607 F400.
X64.295 Y14.316
X66.479
Z5.
X83.475
Z2.
Z-1. F133.3
X85.607 F400.
X64.295 Y35.627
X66.426
Z5.
X66.479
Z2.
Z-1. F133.3
X64.295 F400.
X85.607 Y14.316
X83.422
Z5.
X85.11 Y23.069
Z2.
Z-1. F133.3
X85.2 Y23.63 F400.
X85.26 Y24.225
X85.285 Y24.792
X85.28 Y25.36
X85.24 Y25.956
X85.166 Y26.549
X85.11 Y26.874
Z5.
X64.791
Z2.
Z-1. F133.3
X64.698 Y26.283 F400.
X64.642 Y25.718
X64.616 Y25.121
X64.624 Y24.523
X64.665 Y23.957
X64.741 Y23.364
X64.791 Y23.069
Z5.
X68.868 Y26.639
Z2.
Z-1. F133.3
X69.239 Y26.661 F400.
X69.602 Y26.712
X69.963 Y26.793
X70.305 Y26.901
X70.635 Y27.034
X70.956 Y27.194
X71.286 Y27.395
X71.573 Y27.604
X71.865 Y27.855
X72.113 Y28.107
X72.36 Y28.403
X72.564 Y28.693
X72.76 Y29.026
X72.916 Y29.349
X73.055 Y29.714
X73.156 Y30.065
X73.227 Y30.421
X73.27 Y30.785
X73.283 Y31.054
Z5.
X81.034 Y23.304
Z2.
Z-1. F133.3
X80.663 Y23.282 F400.
X80.299 Y23.231
X79.939 Y23.149
X79.597 Y23.042
X79.266 Y22.909
X78.946 Y22.749
X78.615 Y22.547
X78.328 Y22.339
X78.037 Y22.087
X77.788 Y21.835
X77.542 Y21.54
X77.337 Y21.25
X77.141 Y20.916
X76.986 Y20.594
X76.858 Y20.261
X76.756 Y19.917
X76.679 Y19.556
X76.634 Y19.192
X76.618 Y18.888
Z5.
X79.608 Y32.74
Z2.
Z-1. F133.3
X79.479 Y32.815 F400.
Z5.
X79.616 Y32.735
Z2.
Z-1. F133.3
X80.082 Y32.435 F400.
X80.529 Y32.107
X80.953 Y31.754
X81.355 Y31.376
X81.733 Y30.974
X82.087 Y30.549
X82.414 Y30.103
X82.715 Y29.636
Z5.
X82.719 Y29.628
Z2.
Z-1. F133.3
X82.42 Y30.095 F400.
X82.09 Y30.546
X81.737 Y30.97
X81.355 Y31.376
X80.954 Y31.754
X80.525 Y32.11
X80.079 Y32.437
X79.608 Y32.74
Z5.
X70.422 Y17.127
Z2.
Z-1. F133.3
X70.294 Y17.203 F400.
Z5.
X70.286 Y17.208
Z2.
Z-1. F133.3
X69.819 Y17.508 F400.
X69.373 Y17.835
X68.948 Y18.189
X68.546 Y18.567
X68.168 Y18.969
X67.815 Y19.393
X67.487 Y19.84
X67.187 Y20.306
Z5.
X67.183 Y20.314
Z2.
Z-1. F133.3
X67.482 Y19.848 F400.
X67.812 Y19.397
X68.165 Y18.973
X68.546 Y18.567
X68.948 Y18.189
X69.377 Y17.833
X69.822 Y17.506
X70.288 Y17.206
X70.294 Y17.203
Z5.
X74.802 Y34.028
Z2.
Z-1. F133.3
X74.951 Y34.029 F400.
Z5.
X74.793 Y34.027
Z2.
Z-1. F133.3
X74.238 Y34.001 F400.
X73.688 Y33.94
X73.144 Y33.847
X72.607 Y33.72
X72.078 Y33.561
X71.56 Y33.37
X71.053 Y33.147
X70.56 Y32.893
Z5.
X70.552 Y32.889
Z2.
Z-1. F133.3
X70.422 Y32.815 F400.
Z5.
X75.1 Y15.915
Z2.
Z-1. F133.3
X75.654 Y15.941 F400.
X76.209 Y16.002
X76.753 Y16.095
X77.29 Y16.221
X77.791 Y16.371
X78.309 Y16.56
X78.816 Y16.78
X79.285 Y17.018
X79.35 Y17.054
Z5.
X79.342 Y17.05
Z2.
Z-1. F133.3
X78.849 Y16.795 F400.
X78.342 Y16.573
X77.824 Y16.382
X77.295 Y16.223
X76.758 Y16.096
X76.213 Y16.002
X75.663 Y15.942
X75.109 Y15.915
Z5.
X75.1
Z2.
Z-1. F133.3
X74.951 Y15.914 F400.
Z5.
X73.283 Y18.732
Z2.
Z-1. F133.3
X73.274 Y18.506 F400.
X73.233 Y18.132
X73.164 Y17.775
X73.067 Y17.429
X72.942 Y17.089
X72.778 Y16.737
X72.601 Y16.428
X72.383 Y16.11
X72.159 Y15.836
X71.892 Y15.558
X71.626 Y15.324
X71.318 Y15.094
X70.986 Y14.888
X70.667 Y14.725
X70.305 Y14.578
X69.963 Y14.47
X69.602 Y14.389
X69.239 Y14.338
X68.868 Y14.316
Z5.
X76.618 Y31.211
Z2.
Z-1. F133.3
X76.634 Y31.514 F400.
X76.679 Y31.878
X76.756 Y32.24
X76.858 Y32.584
X76.986 Y32.916
X77.141 Y33.239
X77.337 Y33.572
X77.542 Y33.862
X77.788 Y34.158
X78.037 Y34.41
X78.328 Y34.661
X78.615 Y34.87
X78.946 Y35.071
X79.266 Y35.231
X79.597 Y35.365
X79.939 Y35.472
X80.299 Y35.553
X80.663 Y35.604
X81.034 Y35.626
Z5.
X73.284 Y31.133
Z2.
Z-1. F133.3
X73.283 Y31.085 F400.
X73.264 Y30.707
X73.214 Y30.337
X73.131 Y29.968
X73.023 Y29.619
X72.887 Y29.283
X72.722 Y28.955
X72.535 Y28.648
X72.325 Y28.358
X72.089 Y28.082
X71.811 Y27.806
X71.533 Y27.573
X71.24 Y27.365
X70.932 Y27.181
X70.601 Y27.019
X70.263 Y26.886
X69.913 Y26.78
X69.541 Y26.701
X69.169 Y26.654
X68.789 Y26.638
Z5.
X76.618 Y18.81
Z2.
Z-1. F133.3
Y18.824 F400.
X76.635 Y19.202
X76.682 Y19.572
X76.759 Y19.933
X76.868 Y20.291
X77.001 Y20.628
X77.16 Y20.952
X77.348 Y21.266
X77.576 Y21.585
X77.812 Y21.861
X78.09 Y22.137
X78.369 Y22.37
X78.661 Y22.578
X78.97 Y22.762
X79.3 Y22.924
X79.639 Y23.057
X79.989 Y23.163
X80.36 Y23.241
X80.732 Y23.288
X81.112 Y23.304
Z5.
X82.795 Y29.5
Z2.
Z-1. F133.3
X82.719 Y29.628 F400.
Z5.
X67.107 Y20.443
Z2.
Z-1. F133.3
X67.183 Y20.314 F400.
Z5.
X70.552 Y32.889
Z2.
Z-1. F133.3
X70.587 Y32.908 F400.
X71.08 Y33.16
X71.561 Y33.37
X72.079 Y33.561
X72.607 Y33.72
X73.149 Y33.848
X73.693 Y33.941
X74.248 Y34.001
X74.802 Y34.028
Z5.
X79.479 Y17.127
Z2.
Z-1. F133.3
X79.35 Y17.054 F400.
Z5.
X73.284 Y18.81
Z2.
Z-1. F133.3
X73.267 Y18.418 F400.
X73.219 Y18.048
X73.142 Y17.687
X73.034 Y17.329
X72.901 Y16.992
X72.741 Y16.668
X72.554 Y16.354
X72.346 Y16.062
X72.113 Y15.784
X71.836 Y15.506
X71.56 Y15.271
X71.24 Y15.042
X70.932 Y14.858
X70.601 Y14.696
X70.263 Y14.563
X69.913 Y14.457
X69.541 Y14.379
X69.169 Y14.332
X68.789 Y14.316
Z5.
X76.618 Y31.133
Z2.
Z-1. F133.3
Y31.18 F400.
X76.638 Y31.558
X76.688 Y31.928
X76.77 Y32.297
X76.879 Y32.646
X77.015 Y32.982
X77.18 Y33.31
X77.367 Y33.617
X77.576 Y33.907
X77.812 Y34.184
X78.09 Y34.459
X78.369 Y34.693
X78.661 Y34.9
X78.97 Y35.085
X79.3 Y35.247
X79.639 Y35.38
X79.989 Y35.486
X80.36 Y35.564
X80.732 Y35.611
X81.112 Y35.627
Z5.
X84.777 Y24.284
Z2.
Z-1. F133.3
X84.721 Y23.719 F400.
X84.632 Y23.159
Z5.
X84.777 Y25.658
Z2.
Z-1. F133.3
X84.721 Y26.223 F400.
X84.632 Y26.784
Z5.
X65.269
Z2.
Z-1. F133.3
X65.181 Y26.223 F400.
X65.125 Y25.658
Z5.
Y24.284
Z2.
Z-1. F133.3
X65.181 Y23.719 F400.
X65.269 Y23.159
Z5.
X34.5 Y4.621
Z1.973
Z-1.33 F133.3
Y0.379 Z-5.573 F400.
X31. Y4.621 Z-1.33
Y0.379 Z-5.573
X34.5 Y4.621 Z-1.33
Z5.
X37. Y0.379
Z-1.743
Z-5.573 F133.3
Y4.621 Z-1.33 F400.
X38.75 Y3.349 Z-2.603
X40.5 Y4.621 Z-1.33
Y0.379 Z-5.573
Z5.
X43.
Z-1.743
Z-5.573 F133.3
Y4.621 Z-1.33 F400.
Z5.
X49. Y0.379
Z-1.743
Z-5.573 F133.3
Y4.621 Z-1.33 F400.
X52.5 Y3.349 Z-2.603
X49. Y2.5 Z-3.451
X52.5 Y0.379 Z-5.573
Z5.
X55.5 Y2.146
Z0.025
Z-3.805 F133.3
Y2.854 Z-3.098 F400.
X56.5
Y2.146 Z-3.805
X55.5
Z5.
X58. Y0.379
Z-1.743
Z-5.573 F133.3
Y4.621 Z-1.33 F400.
Z5.
Y3.985
Z1.752
Z-1.967 F133.3
X61.5 Y4.621 Z-1.33 F400.
Z5.
Y3.349
Z1.227
Z-2.603 F133.3
X58. Y2.712 Z-3.239 F400.
Z5.
X64. Y0.379
Z-1.743
Z-5.573 F133.3
Y4.621 Z-1.33 F400.
X65.75 Y3.349 Z-2.603
X67.5 Y4.621 Z-1.33
Y0.379 Z-5.573
Z5.
X83.5 Y45.379
Z1.973
Z-1.33 F133.3
Y49.621 Z-5.573 F400.
X87. Y45.379 Z-1.33
Y49.621 Z-5.573
X83.5 Y45.379 Z-1.33
Z5.
X81. Y49.621
Z-1.743
Z-5.573 F133.3
Y45.379 Z-1.33 F400.
X79.25 Y46.652 Z-2.603
X77.5 Y45.379 Z-1.33
Y49.621 Z-5.573
Z5.
X75.
Z-1.743
Z-5.573 F133.3
Y45.379 Z-1.33 F400.
Z5.
X69. Y47.288
Z0.591
Z-3.239 F133.3
X67.5 Y45.379 Z-1.33 F400.
X66. Y47.288 Z-3.239
Z5.
Y47.712
Z0.166
Z-3.664 F133.3
X67.5 Y49.621 Z-5.573 F400.
X69. Y47.712 Z-3.664
Z5.
X63. Y49.621
Z-1.743
Z-5.573 F133.3
Y45.379 Z-1.33 F400.
Z5.
Y45.591
Z1.925
Z-1.542 F133.3
X59.5 Y46.227 Z-2.179 F400.
Z5.
Y47.5
Z0.378
Z-3.451 F133.3
X63. Y46.864 Z-2.815 F400.
Z5.
X56.5 Y47.146
Z0.732
Z-3.098 F133.3
X55.5 F400.
Y47.854 Z-3.805
X56.5
Y47.146 Z-3.098
Z5.
X54. Y45.379
Z1.973
Z-1.33 F133.3
Y49.621 Z-5.573 F400.
Z5.
Y46.015
Z1.752
Z-1.967 F133.3
X50.5 Y45.379 Z-1.33 F400.
Z5.
Y46.652
Z1.227
Z-2.603 F133.3
X54. Y47.288 Z-3.239 F400.
Z5.
X48. Y49.621
Z-1.743
Z-5.573 F133.3
Y45.379 Z-1.33 F400.
X44.5 Y46.652 Z-2.603
X48. Y47.5 Z-3.451
X44.5 Y49.621 Z-5.573
Z5.
X42.
Z-1.743
Z-5.573 F133.3
Y45.379 Z-1.33 F400.
Z5.
Y45.591
Z1.925
Z-1.542 F133.3
X38.5 Y46.227 Z-2.179 F400.
Z5.
Y47.5
Z0.378
Z-3.451 F133.3
X42. Y46.864 Z-2.815 F400.
Z5.
X36. Y49.621
Z-1.743
Z-5.573 F133.3
Y45.379 Z-1.33 F400.
X34.25 Y46.652 Z-2.603
X32.5 Y45.379 Z-1.33
Y49.621 Z-5.573
Z5.
X30.
Z-1.743
Z-5.573 F133.3
Y45.379 Z-1.33 F400.
Z5.
Y47.924
Z-0.046
Z-3.876 F133.3
X27. Y46.652 Z-2.603 F400.
Z5.
X24.
Z1.227
Z-2.603 F133.3
Y49.621 Z-5.573 F400.
X20.5 Y45.379 Z-1.33
Y49.621 Z-5.573
X24. Y45.379 Z-1.33
Y46.652 Z-2.603
Z5.
X18. Y49.621
Z-1.743
Z-5.573 F133.3
Y45.379 Z-1.33 F400.
X14.5 Y46.652 Z-2.603
X18. Y47.5 Z-3.451
X14.5 Y49.621 Z-5.573
Z5.
X98.737 Y13.
Z-0.859
Z-4.689 F133.3
Y8. F400.
Z5.
X96.263
Z1.59
Z-2.214 F133.3
Y13. F400.
Z5.
Y11.5
Z1.59
Z-2.214 F133.3
X98.737 Y9.5 Z-4.689 F400.
Z5.
Y13.5
Z-0.859
Z-4.689 F133.3
Y18.5 F400.
Z5.
X96.263 Y14.5
Z1.59
Z-2.214 F133.3
X98.737 Y13.75 Z-4.689 F400.
Z5.
Y15.25
Z-0.859
Z-4.689 F133.3
X96.263 Y16. Z-2.214 F400.
Z5.
Y21.5
Z1.59
Z-2.214 F133.3
X98.737 Y19. Z-4.689 F400.
Y24.
Z5.
X96.263
Z1.59
Z-2.214 F133.3
Y19. F400.
X98.737 Y21.5 Z-4.689
Z5.
Y24.5
Z-0.859
Z-4.689 F133.3
Y29.5 F400.
Z5.
X96.263 Y25.5
Z1.59
Z-2.214 F133.3
X98.737 Y24.75 Z-4.689 F400.
Z5.
Y26.25
Z-0.859
Z-4.689 F133.3
X96.263 Y27. Z-2.214 F400.
Z5.
Y35.
Z1.59
Z-2.214 F133.3
X98.737 Y32.5 Z-4.689 F400.
X96.263 Y31.5 Z-2.214
X98.737 Y30. Z-4.689
Y35.
Z5.
Y40.5
Z-0.859
Z-4.689 F133.3
Y35.5 F400.
X96.263 Y37. Z-2.214
X98.737 Y38. Z-4.689
X96.263 Y40.5 Z-2.214
Z5.
X3.737 Y8.25
Z1.591
Z-2.214 F133.3
X2.5 Y6.75 Z-3.451 F400.
X1.263 Y8.25 Z-4.689
X2.5 Y9.5 Z-3.451
X3.737 Y8.25 Z-2.214
X1.263 Y11.75 Z-4.689
Z5.
X3.737
Z1.591
Z-2.214 F133.3
X1.263 Y8.25 Z-4.689 F400.
Z5.
X1.97 Y13.75
Z-0.152
Z-3.982 F133.3
X3.737 Y12.25 Z-2.214 F400.
Y17.25
Z5.
Y17.75
Z1.591
Z-2.214 F133.3
Y22.75 F400.
Z5.
Y23.25
Z1.591
Z-2.214 F133.3
Y28.25 F400.
Z5.
Y24.
Z1.591
Z-2.214 F133.3
X1.263 Y23.25 Z-4.689 F400.
Z5.
Y24.75
Z-0.859
Z-4.689 F133.3
X3.737 Y25.5 Z-2.214 F400.
Z5.
Y28.75
Z1.591
Z-2.214 F133.3
Y33.75 F400.
Z5.
Y39.25
Z1.591
Z-2.214 F133.3
Y34.25 F400.
X2.5 Y35.75 Z-3.451
X1.263 Y34.25 Z-4.689
Y39.25
Z5.
Y44.75
Z-0.859
Z-4.689 F133.3
X3.737 Y42.25 Z-2.214 F400.
X1.263 Y41.25 Z-4.689
X3.737 Y39.75 Z-2.214
Y44.75
Z15.
M5
M400
M852
G28
M30
