(A4_02_T8_PROJECT_ENGRAVE)
(T8  Chamfering Bit - 1/8AcA?A3 Shank      D=3.175 CR=0. TAPER=45deg - ZMIN=-5.573 - chamfer mill)
( =================================================== )
(   Z Origin Set To   : Stock Top )
(   Stock Height                    : 50. mm )
(   Toolpath Z Maximum from Stock Top: 15. mm )
(   Toolpath Z Min from Stock Top: -5.573 mm )
(  )
( =================================================== )

( The following values are based on the part position info used in fusion and can be used to roughly align the machine offset from anchor 1 if you use that feature. )
(   X Offset   : 0. mm )
(   Y Offset   : -240. mm )

( =================================================== )

G90 G94
G17
G21
(When using Fusion for Personal Use, the feedrate of rapid)
(moves is reduced to match the feedrate of cutting moves,)
(which can increase machining time. Unrestricted rapid moves)
(are available with a Fusion Subscription.)

(A4_T8_PROJECT_ENGRAVE)
M6 T8 
(8)
M400
M851 S100
S12000 M3
G54
G0 X16.433 Y34.119
Z15.
G1 Z2. F400.
Z-1. F133.3
X16.885 Y34.519 F400.
X17.342 Y34.89
X17.855 Y35.261
X18.341 Y35.58
X18.885 Y35.898
X19.364 Y36.15
X19.933 Y36.415
X20.463 Y36.632
X21.053 Y36.842
X21.598 Y37.007
X22.237 Y37.169
X22.862 Y37.291
X23.423 Y37.377
X24.078 Y37.443
X24.644 Y37.473
X25.303 Y37.478
X25.938 Y37.449
X26.503 Y37.398
X27.123 Y37.311
X27.682 Y37.206
X28.292 Y37.06
X28.809 Y36.911
X29.404 Y36.709
X29.908 Y36.51
X30.452 Y36.265
X30.942 Y36.017
X31.464 Y35.719
X31.936 Y35.421
X32.431 Y35.071
X32.908 Y34.699
X33.37 Y34.295
X33.82 Y33.866
X34.245 Y33.411
X34.63 Y32.961
X34.968 Y32.527
X35.315 Y32.035
X35.602 Y31.593
X35.868 Y31.146
X36.114 Y30.694
X36.353 Y30.207
X36.592 Y29.663
X36.803 Y29.104
X36.967 Y28.605
X37.109 Y28.103
X37.244 Y27.533
X37.343 Y26.992
X37.418 Y26.452
X37.468 Y25.913
X37.498 Y25.313
X37.495 Y24.707
X37.466 Y24.139
X37.414 Y23.585
X37.327 Y22.991
X37.22 Y22.435
X37.085 Y21.867
X36.917 Y21.293
X36.724 Y20.727
X36.51 Y20.187
X36.265 Y19.643
X36.004 Y19.125
X35.691 Y18.577
X35.372 Y18.072
X35.039 Y17.597
X34.694 Y17.15
X34.297 Y16.678
X33.887 Y16.242
X33.483 Y15.846
X33.044 Y15.455
X32.575 Y15.077
X32.117 Y14.741
X31.649 Y14.429
X31.156 Y14.135
X30.68 Y13.878
X30.131 Y13.613
X29.594 Y13.388
X29.077 Y13.199
X28.55 Y13.03
X27.999 Y12.881
X27.414 Y12.755
X26.888 Y12.664
X26.353 Y12.595
X25.811 Y12.548
X25.184 Y12.52
X24.554 Y12.524
X23.986 Y12.552
X23.377 Y12.608
X22.776 Y12.696
X22.195 Y12.808
X21.614 Y12.953
X21.062 Y13.116
X20.473 Y13.326
X19.951 Y13.54
X19.39 Y13.804
X18.901 Y14.064
X18.371 Y14.379
X17.914 Y14.681
X17.392 Y15.064
X16.892 Y15.474
X16.49 Y15.836
X16.032 Y16.291
X15.623 Y16.74
X15.257 Y17.18
X14.849 Y17.723
X14.511 Y18.226
X14.213 Y18.714
X13.889 Y19.31
X13.626 Y19.858
X13.401 Y20.385
X13.166 Y21.023
X12.985 Y21.605
X12.839 Y22.163
X12.706 Y22.797
X12.619 Y23.336
X12.545 Y23.984
X12.508 Y24.634
X12.501 Y25.189
X12.524 Y25.809
X12.572 Y26.37
X12.655 Y26.989
X12.76 Y27.553
X12.903 Y28.168
X13.067 Y28.732
X13.269 Y29.331
X13.497 Y29.898
X13.751 Y30.462
X14.028 Y30.997
X14.325 Y31.516
X14.632 Y31.997
X14.971 Y32.476
X15.329 Y32.939
X15.729 Y33.402
X16.144 Y33.84
X16.433 Y34.119
Z5.
X23.882 Y17.041
Z2.
Z-1. F133.3
X23.885 Y17.008 F400.
X23.907 Y16.47
X23.912 Y14.759
X23.751 Y14.769
X23.406 Y14.817
X22.726 Y14.952
X22.156 Y15.093
X21.954 Y15.162
Z5.
X21.935 Y15.193
Z2.
Z-1. F133.3
X22.031 Y15.304 F400.
X22.699 Y15.991
X23.612 Y16.888
X23.856 Y17.107
Z5.
X26.123
Z2.
Z-1. F133.3
X26.173 Y17.066 F400.
X26.751 Y16.514
X27.797 Y15.47
X28.057 Y15.192
Z5.
X26.405 Y14.784
Z2.
Z-1. F133.3
X26.08 Y14.743 F400.
X26.083 Y16.388
X26.102 Y17.04
Z5.
X26.442 Y14.789
Z2.
Z-1. F133.3
X27.022 Y14.899 F400.
X27.684 Y15.056
X27.93 Y15.126
Z5.
X18.785 Y16.774
Z2.
Z-1. F133.3
X19.727 Y16.118 F400.
X23.912 Y20.302
Y22.346
X18.532 Y16.968
X18.671 Y16.858
Z5.
X30.503 Y16.292
Z2.
Z-1. F133.3
X30.25 Y16.132 F400.
X26.08 Y20.303
Y22.346
X28.382 Y20.045
X30.797 Y17.614
X31.393 Y16.994
Z5.
X31.147 Y16.74
Z2.
Z-1. F133.3
X31.107 Y16.709 F400.
X30.593 Y16.35
Z5.
X16.972 Y31.412
Z2.
Z-1. F133.3
X17.072 Y31.32 F400.
X18.414 Y30.005
X23.416 Y25.01
X16.943 Y18.539
X16.595 Y19.025
X16.271 Y19.502
X15.993 Y19.967
X15.741 Y20.447
X15.517 Y20.94
X15.319 Y21.445
X15.139 Y21.992
X14.987 Y22.559
X14.869 Y23.124
X14.781 Y23.695
X14.725 Y24.269
X14.699 Y24.846
X14.706 Y25.433
X14.743 Y26.008
X14.812 Y26.581
X14.912 Y27.148
X15.035 Y27.675
X15.199 Y28.236
X15.393 Y28.777
X15.605 Y29.275
X15.844 Y29.761
X16.12 Y30.247
X16.494 Y30.832
X16.788 Y31.243
X16.926 Y31.402
Z5.
X33.063 Y31.404
Z2.
Z-1. F133.3
X33.112 Y31.354 F400.
X33.307 Y31.099
X33.647 Y30.579
X33.999 Y29.983
X34.253 Y29.49
X34.486 Y28.974
X34.691 Y28.446
X34.874 Y27.883
X35.017 Y27.346
X35.136 Y26.772
X35.222 Y26.192
X35.273 Y25.646
X35.295 Y25.065
X35.283 Y24.485
X35.243 Y23.94
X35.168 Y23.365
X35.06 Y22.795
X34.928 Y22.264
X34.757 Y21.707
X34.566 Y21.189
X34.346 Y20.682
X34.097 Y20.185
X33.82 Y19.699
X33.506 Y19.212
X33.14 Y18.704
Z5.
X33.029 Y18.611
Z2.
Z-1. F133.3
X33.02 Y18.616 F400.
X32.878 Y18.723
X32.45 Y19.113
X31.28 Y20.251
X26.545 Y24.979
X29.621 Y28.056
X32.385 Y30.801
X33.019 Y31.412
Z5.
X23.847 Y27.719
Z2.
Z-1. F133.3
X23.77 Y27.789 F400.
X22.653 Y28.879
X18.505 Y33.02
X18.999 Y33.383
X19.457 Y33.695
Z5.
X19.561 Y33.757
Z2.
Z-1. F133.3
X19.763 Y33.866 F400.
X23.912 Y29.719
X23.907 Y28.276
X23.884 Y27.794
Z5.
X30.366 Y33.793
Z2.
Z-1. F133.3
X30.388 Y33.783 F400.
X30.68 Y33.601
X31.172 Y33.25
X31.387 Y33.074
Z5.
X31.393 Y33.027
Z2.
Z-1. F133.3
X31.339 Y32.967 F400.
X30.283 Y31.885
X26.08 Y27.674
Y29.719
X29.374 Y33.005
X29.961 Y33.564
X30.183 Y33.746
X30.278 Y33.797
Z5.
X23.871 Y35.248
Z2.
Z-1. F133.3
X23.697 Y35.234 F400.
X23.101 Y35.133
X22.341 Y34.972
X22.001 Y34.881
X21.946 Y34.859
Z5.
X21.969 Y34.798
Z2.
Z-1. F133.3
X22.385 Y34.35 F400.
X23.881 Y32.845
X23.903 Y34.813
X23.897 Y35.172
Z5.
X26.126 Y35.262
Z2.
Z-1. F133.3
X26.175 Y35.26 F400.
X26.504 Y35.211
X27.211 Y35.063
X27.802 Y34.914
X27.982 Y34.851
Z5.
X27.964 Y34.788
Z2.
Z-1. F133.3
X27.632 Y34.437 F400.
X26.08 Y32.879
Y33.422
X26.087 Y34.711
X26.111 Y35.189
Z5.
X62.5
Z2.
Z-1. F133.3
Y37.295 F400.
X87.5
Y12.705
X62.5
Y35.189
Z5.
X66.048 Y23.362
Z2.
Z-1. F133.3
X66.164 Y22.831 F400.
X66.299 Y22.347
X66.482 Y21.814
X66.686 Y21.322
X66.913 Y20.852
X67.165 Y20.399
X67.466 Y19.927
X67.767 Y19.512
X68.091 Y19.115
X68.458 Y18.713
X68.858 Y18.327
X69.272 Y17.974
X69.677 Y17.665
X70.1 Y17.38
X70.578 Y17.096
X71.064 Y16.847
X71.534 Y16.64
X72.017 Y16.458
X72.554 Y16.293
X73.062 Y16.17
X73.579 Y16.075
X74.141 Y16.007
X74.68 Y15.976
X75.189 Y15.975
X75.73 Y16.005
X76.26 Y16.066
X76.78 Y16.157
X77.323 Y16.286
X77.861 Y16.45
X78.345 Y16.631
X78.817 Y16.837
X79.303 Y17.085
X79.783 Y17.368
X80.234 Y17.672
X80.64 Y17.981
X81.027 Y18.312
X81.428 Y18.697
X81.796 Y19.098
X82.12 Y19.493
X82.423 Y19.908
X82.724 Y20.379
X82.977 Y20.83
X83.205 Y21.298
X83.409 Y21.788
X83.419 Y21.814
X83.594 Y22.319
X83.73 Y22.8
X83.847 Y23.329
X83.854 Y23.362
X80.996 Y23.36
X80.619 Y23.335
X80.25 Y23.279
X79.882 Y23.191
X79.535 Y23.077
X79.201 Y22.936
X78.875 Y22.766
X78.571 Y22.575
X78.258 Y22.339
X77.987 Y22.097
X77.717 Y21.813
X77.49 Y21.529
X77.29 Y21.232
X77.109 Y20.913
X76.958 Y20.585
X76.833 Y20.244
X76.733 Y19.882
X76.665 Y19.518
X76.627 Y19.145
X76.619 Y18.751
X76.645 Y18.374
X76.701 Y18.005
X76.788 Y17.637
X76.903 Y17.29
X77.044 Y16.956
X77.213 Y16.63
X77.424 Y16.298
X77.644 Y16.008
X77.906 Y15.718
X78.171 Y15.469
X78.478 Y15.226
X78.782 Y15.024
X79.097 Y14.849
X79.426 Y14.7
X79.776 Y14.575
X80.13 Y14.481
X80.495 Y14.415
X80.881 Y14.379
X81.59 Y14.373
X84.541
X80.996 Y14.374
X80.619 Y14.4
X80.25 Y14.456
X79.882 Y14.543
X79.535 Y14.658
X79.201 Y14.799
X78.875 Y14.968
X78.571 Y15.16
X78.258 Y15.396
X77.987 Y15.638
X77.717 Y15.922
X77.49 Y16.206
X77.29 Y16.503
X77.109 Y16.821
X76.958 Y17.149
X76.833 Y17.491
X76.733 Y17.852
X76.665 Y18.217
X76.627 Y18.59
X76.619 Y18.983
X76.645 Y19.361
X76.701 Y19.73
X76.788 Y20.098
X76.903 Y20.445
X77.044 Y20.779
X77.213 Y21.104
X77.405 Y21.408
X77.619 Y21.695
X77.859 Y21.968
X78.141 Y22.239
X78.423 Y22.469
X78.719 Y22.672
X79.03 Y22.851
X79.363 Y23.009
X79.703 Y23.136
X80.055 Y23.236
X80.428 Y23.31
X80.8 Y23.351
X81.214 Y23.362
X83.854
X83.737 Y22.831
X83.602 Y22.347
X83.429 Y21.841
X83.23 Y21.353
X83.004 Y20.883
X82.737 Y20.399
X82.436 Y19.927
X82.134 Y19.512
X81.811 Y19.115
X81.443 Y18.713
X81.043 Y18.327
X80.63 Y17.974
X80.225 Y17.665
X79.802 Y17.38
X79.323 Y17.096
X78.837 Y16.847
X78.367 Y16.64
X77.884 Y16.458
X77.347 Y16.293
X76.84 Y16.17
X76.322 Y16.075
X75.76 Y16.007
X75.221 Y15.976
X74.713 Y15.975
X74.172 Y16.005
X73.642 Y16.066
X73.121 Y16.157
X72.579 Y16.286
X72.041 Y16.45
X71.556 Y16.631
X71.085 Y16.837
X70.598 Y17.085
X70.119 Y17.368
X69.667 Y17.672
X69.262 Y17.981
X68.874 Y18.312
X68.474 Y18.697
X68.105 Y19.098
X67.781 Y19.493
X67.479 Y19.908
X67.177 Y20.379
X66.925 Y20.83
X66.697 Y21.298
X66.482 Y21.814
X66.308 Y22.319
X66.172 Y22.8
X66.055 Y23.329
X66.048 Y23.362
X68.906 Y23.36
X69.283 Y23.335
X69.652 Y23.279
X70.02 Y23.191
X70.367 Y23.077
X70.701 Y22.936
X71.027 Y22.766
X71.33 Y22.575
X71.617 Y22.36
X71.89 Y22.121
X72.162 Y21.838
X72.391 Y21.556
X72.594 Y21.261
X72.773 Y20.949
X72.931 Y20.617
X73.058 Y20.276
X73.159 Y19.924
X73.232 Y19.552
X73.273 Y19.179
X73.283 Y18.799
X73.261 Y18.408
X73.207 Y18.038
X73.125 Y17.678
X73.011 Y17.322
X72.872 Y16.987
X72.708 Y16.666
X72.516 Y16.354
X72.283 Y16.039
X72.043 Y15.767
X71.786 Y15.518
X71.483 Y15.269
X71.183 Y15.063
X70.871 Y14.884
X70.539 Y14.726
X70.199 Y14.599
X69.846 Y14.498
X69.474 Y14.425
X69.101 Y14.384
X68.687 Y14.373
X65.361
X68.906 Y14.374
X69.283 Y14.4
X69.652 Y14.456
X70.02 Y14.543
X70.367 Y14.658
X70.701 Y14.799
X71.027 Y14.968
X71.33 Y15.16
X71.617 Y15.374
X71.89 Y15.614
X72.162 Y15.896
X72.391 Y16.178
X72.594 Y16.474
X72.773 Y16.785
X72.931 Y17.118
X73.058 Y17.458
X73.159 Y17.81
X73.232 Y18.183
X73.273 Y18.556
X73.283 Y18.936
X73.261 Y19.327
X73.207 Y19.697
X73.125 Y20.056
X73.011 Y20.413
X72.872 Y20.748
X72.708 Y21.069
X72.516 Y21.38
X72.283 Y21.695
X72.043 Y21.968
X71.786 Y22.217
X71.483 Y22.465
X71.183 Y22.672
X70.871 Y22.851
X70.539 Y23.009
X70.199 Y23.136
X69.846 Y23.236
X69.474 Y23.31
X69.101 Y23.351
X68.687 Y23.362
X66.048
Z5.
Y26.696
Z2.
Z-1. F133.3
X68.906 Y26.697 F400.
X69.283 Y26.723
X69.652 Y26.779
X70.02 Y26.866
X70.367 Y26.98
X70.701 Y27.121
X71.027 Y27.291
X71.33 Y27.483
X71.617 Y27.697
X71.89 Y27.937
X72.162 Y28.219
X72.391 Y28.501
X72.594 Y28.797
X72.773 Y29.108
X72.931 Y29.441
X73.058 Y29.781
X73.159 Y30.133
X73.232 Y30.506
X73.273 Y30.878
X73.283 Y31.258
X73.261 Y31.649
X73.207 Y32.019
X73.125 Y32.379
X73.011 Y32.735
X72.872 Y33.071
X72.708 Y33.392
X72.516 Y33.703
X72.283 Y34.018
X72.043 Y34.291
X71.786 Y34.54
X71.483 Y34.788
X71.183 Y34.994
X70.871 Y35.174
X70.539 Y35.331
X70.199 Y35.459
X69.846 Y35.559
X69.474 Y35.633
X69.101 Y35.673
X68.687 Y35.684
X65.361
X68.906 Y35.683
X69.283 Y35.657
X69.652 Y35.601
X70.02 Y35.514
X70.367 Y35.4
X70.701 Y35.259
X71.027 Y35.089
X71.33 Y34.897
X71.617 Y34.683
X71.89 Y34.443
X72.162 Y34.161
X72.391 Y33.879
X72.594 Y33.583
X72.773 Y33.272
X72.931 Y32.939
X73.058 Y32.599
X73.159 Y32.247
X73.232 Y31.875
X73.273 Y31.502
X73.283 Y31.122
X73.261 Y30.73
X73.207 Y30.361
X73.125 Y30.001
X73.011 Y29.645
X72.872 Y29.309
X72.708 Y28.988
X72.516 Y28.677
X72.282 Y28.362
X72.043 Y28.089
X71.786 Y27.841
X71.483 Y27.592
X71.183 Y27.386
X70.871 Y27.206
X70.539 Y27.049
X70.199 Y26.921
X69.846 Y26.821
X69.474 Y26.747
X69.101 Y26.707
X68.687 Y26.696
X66.048
X66.164 Y27.226
X66.299 Y27.71
X66.482 Y28.243
X66.7 Y28.766
X66.929 Y29.235
X67.182 Y29.687
X67.479 Y30.15
X67.809 Y30.6
X68.136 Y30.994
X68.482 Y31.369
X68.874 Y31.745
X69.298 Y32.105
X69.733 Y32.431
X70.157 Y32.714
X70.598 Y32.972
X71.095 Y33.225
X71.566 Y33.43
X72.05 Y33.61
X72.579 Y33.771
X73.128 Y33.902
X73.647 Y33.992
X74.175 Y34.053
X74.714 Y34.083
X75.223 Y34.082
X75.76 Y34.05
X76.294 Y33.986
X76.78 Y33.9
X77.323 Y33.771
X77.861 Y33.607
X78.345 Y33.426
X78.817 Y33.22
X79.303 Y32.972
X79.783 Y32.689
X80.234 Y32.385
X80.64 Y32.076
X81.027 Y31.746
X81.428 Y31.36
X81.796 Y30.96
X82.12 Y30.564
X82.423 Y30.15
X82.724 Y29.679
X82.977 Y29.227
X83.205 Y28.76
X83.419 Y28.243
X83.594 Y27.738
X83.73 Y27.257
X83.847 Y26.728
X83.854 Y26.696
X80.996 Y26.697
X80.619 Y26.723
X80.25 Y26.779
X79.882 Y26.866
X79.535 Y26.98
X79.201 Y27.121
X78.875 Y27.291
X78.571 Y27.483
X78.258 Y27.718
X77.987 Y27.961
X77.717 Y28.245
X77.49 Y28.529
X77.29 Y28.825
X77.109 Y29.144
X76.958 Y29.472
X76.833 Y29.813
X76.733 Y30.175
X76.665 Y30.539
X76.627 Y30.912
X76.619 Y31.306
X76.645 Y31.683
X76.701 Y32.053
X76.788 Y32.42
X76.903 Y32.767
X77.044 Y33.101
X77.213 Y33.427
X77.405 Y33.731
X77.619 Y34.018
X77.859 Y34.291
X78.141 Y34.562
X78.423 Y34.792
X78.748 Y35.013
X79.066 Y35.193
X79.394 Y35.344
X79.736 Y35.469
X80.088 Y35.567
X80.097 Y35.569
X80.461 Y35.637
X80.834 Y35.676
X81.283 Y35.684
X84.541
X80.996 Y35.683
X80.619 Y35.657
X80.25 Y35.601
X79.882 Y35.514
X79.535 Y35.4
X79.201 Y35.259
X78.875 Y35.089
X78.571 Y34.897
X78.258 Y34.662
X77.987 Y34.42
X77.717 Y34.135
X77.49 Y33.852
X77.29 Y33.555
X77.109 Y33.236
X76.958 Y32.908
X76.833 Y32.567
X76.733 Y32.205
X76.665 Y31.841
X76.627 Y31.468
X76.619 Y31.074
X76.645 Y30.697
X76.701 Y30.327
X76.788 Y29.96
X76.903 Y29.613
X77.044 Y29.279
X77.213 Y28.953
X77.405 Y28.649
X77.619 Y28.362
X77.859 Y28.089
X78.141 Y27.818
X78.423 Y27.588
X78.719 Y27.386
X79.03 Y27.206
X79.363 Y27.049
X79.703 Y26.921
X80.055 Y26.821
X80.428 Y26.747
X80.8 Y26.707
X81.214 Y26.696
X83.854
X83.737 Y27.226
X83.602 Y27.71
X83.429 Y28.217
X83.23 Y28.704
X83.004 Y29.175
X82.737 Y29.658
X82.436 Y30.13
X82.134 Y30.546
X81.811 Y30.943
X81.443 Y31.344
X81.043 Y31.731
X80.63 Y32.084
X80.225 Y32.392
X79.802 Y32.678
X79.323 Y32.961
X78.837 Y33.21
X78.367 Y33.418
X77.884 Y33.599
X77.347 Y33.764
X76.84 Y33.887
X76.322 Y33.982
X75.79 Y34.047
X75.255 Y34.08
X74.747 Y34.084
X74.206 Y34.055
X73.709 Y34.001
X73.155 Y33.907
X72.604 Y33.778
X72.106 Y33.628
X71.62 Y33.452
X71.116 Y33.235
X70.618 Y32.983
X70.177 Y32.725
X69.751 Y32.444
X69.315 Y32.119
X68.891 Y31.76
X68.498 Y31.384
X68.15 Y31.011
X67.823 Y30.618
X67.492 Y30.169
X67.213 Y29.737
X66.956 Y29.288
X66.711 Y28.791
X66.492 Y28.269
X66.318 Y27.77
X66.172 Y27.257
X66.055 Y26.728
X66.048 Y26.696
Z5.
X66.426 Y35.684
Z2.
Z-1. F133.3
X64.295 F400.
X85.607 Y14.373
X83.475
Z5.
X83.422
Z2.
Z-1. F133.3
X85.607 F400.
X64.295 Y35.684
X66.479
Z5.
X83.475
Z2.
Z-1. F133.3
X85.607 F400.
X64.295 Y14.373
X66.426
Z5.
X66.479
Z2.
Z-1. F133.3
X64.295 F400.
X85.607 Y35.684
X83.422
Z5.
X85.11 Y26.931
Z2.
Z-1. F133.3
X85.166 Y26.607 F400.
X85.24 Y26.014
X85.28 Y25.417
X85.285 Y24.849
X85.26 Y24.282
X85.2 Y23.687
X85.11 Y23.126
Z5.
X64.791
Z2.
Z-1. F133.3
X64.75 Y23.362 F400.
X64.671 Y23.955
X64.626 Y24.55
X64.615 Y25.148
X64.64 Y25.746
X64.698 Y26.34
X64.791 Y26.931
Z5.
X68.868 Y23.361
Z2.
Z-1. F133.3
X69.093 Y23.352 F400.
X69.468 Y23.31
X69.824 Y23.242
X70.171 Y23.145
X70.51 Y23.02
X70.862 Y22.856
X71.172 Y22.679
X71.49 Y22.461
X71.764 Y22.236
X72.041 Y21.97
X72.275 Y21.704
X72.506 Y21.396
X72.711 Y21.064
X72.874 Y20.744
X73.021 Y20.383
X73.129 Y20.041
X73.21 Y19.68
X73.261 Y19.317
X73.283 Y18.946
Z5.
X81.034 Y26.696
Z2.
Z-1. F133.3
X80.765 Y26.709 F400.
X80.4 Y26.752
X80.044 Y26.823
X79.693 Y26.925
X79.328 Y27.064
X79.006 Y27.219
X78.672 Y27.415
X78.382 Y27.62
X78.087 Y27.866
X77.835 Y28.115
X77.584 Y28.406
X77.375 Y28.693
X77.174 Y29.023
X77.014 Y29.344
X76.88 Y29.674
X76.773 Y30.017
X76.692 Y30.377
X76.64 Y30.74
X76.618 Y31.112
Z5.
X82.719 Y20.372
Z2.
Z-1. F133.3
X82.562 Y20.119 F400.
X82.265 Y19.686
X81.925 Y19.25
X81.561 Y18.837
Z5.
X82.715 Y20.364
Z2.
Z-1. F133.3
X82.414 Y19.897 F400.
X82.087 Y19.451
X81.733 Y19.026
X81.355 Y18.624
X80.953 Y18.246
X80.529 Y17.893
X80.082 Y17.565
X79.616 Y17.265
Z5.
X79.608 Y17.26
Z2.
Z-1. F133.3
X80.074 Y17.56 F400.
X80.525 Y17.89
X80.949 Y18.243
X81.355 Y18.624
X81.561 Y18.837
Z5.
X67.107 Y29.557
Z2.
Z-1. F133.3
X67.183 Y29.686 F400.
Z5.
X67.187 Y29.694
Z2.
Z-1. F133.3
X67.487 Y30.16 F400.
X67.815 Y30.607
X68.168 Y31.031
X68.546 Y31.433
X68.948 Y31.811
X69.373 Y32.165
X69.819 Y32.492
X70.286 Y32.792
Z5.
X70.294 Y32.797
Z2.
Z-1. F133.3
X69.827 Y32.498 F400.
X69.381 Y32.171
X68.978 Y31.837
X68.575 Y31.461
X68.191 Y31.057
X67.837 Y30.634
X67.505 Y30.185
X67.203 Y29.72
X67.183 Y29.686
Z5.
X70.552 Y17.111
Z2.
Z-1. F133.3
X71.044 Y16.857 F400.
X71.55 Y16.634
X72.041 Y16.451
X72.568 Y16.29
X73.11 Y16.16
X73.653 Y16.065
X74.202 Y16.002
X74.727 Y15.974
X74.802 Y15.972
Z5.
X74.793 Y15.973
Z2.
Z-1. F133.3
X74.238 Y15.999 F400.
X73.688 Y16.06
X73.144 Y16.153
X72.607 Y16.28
X72.078 Y16.439
X71.56 Y16.63
X71.053 Y16.853
X70.56 Y17.107
Z5.
X70.552 Y17.111
Z2.
Z-1. F133.3
X70.422 Y17.185 F400.
Z5.
X74.951 Y34.086
Z2.
Z-1. F133.3
X75.1 Y34.085 F400.
Z5.
X75.109
Z2.
Z-1. F133.3
X75.663 Y34.058 F400.
X76.213 Y33.998
X76.758 Y33.904
X77.295 Y33.777
X77.824 Y33.618
X78.342 Y33.427
X78.849 Y33.204
X79.342 Y32.95
Z5.
X79.35 Y32.946
Z2.
Z-1. F133.3
X78.857 Y33.2 F400.
X78.351 Y33.423
X77.861 Y33.606
X77.333 Y33.767
X76.797 Y33.896
X76.248 Y33.993
X75.693 Y34.056
X75.14 Y34.084
X75.1 Y34.085
Z5.
X73.283 Y31.268
Z2.
Z-1. F133.3
X73.261 Y31.64 F400.
X73.21 Y32.003
X73.129 Y32.363
X73.021 Y32.706
X72.888 Y33.036
X72.728 Y33.357
X72.527 Y33.687
X72.318 Y33.974
X72.067 Y34.265
X71.815 Y34.514
X71.519 Y34.76
X71.229 Y34.965
X70.896 Y35.161
X70.573 Y35.316
X70.241 Y35.445
X69.897 Y35.546
X69.535 Y35.623
X69.171 Y35.668
X68.868 Y35.684
Z5.
X76.618 Y18.789
Z2.
Z-1. F133.3
X76.64 Y18.418 F400.
X76.692 Y18.054
X76.773 Y17.694
X76.892 Y17.32
X77.029 Y16.986
X77.207 Y16.641
X77.396 Y16.339
X77.626 Y16.03
X77.86 Y15.765
X78.138 Y15.498
X78.412 Y15.274
X78.73 Y15.056
X79.039 Y14.879
X79.391 Y14.715
X79.731 Y14.589
X80.077 Y14.493
X80.434 Y14.424
X80.808 Y14.383
X81.034 Y14.374
Z5.
X73.284 Y18.867
Z2.
Z-1. F133.3
X73.268 Y19.247 F400.
X73.221 Y19.619
X73.142 Y19.991
X73.036 Y20.341
X72.903 Y20.679
X72.741 Y21.01
X72.557 Y21.318
X72.349 Y21.611
X72.116 Y21.889
X71.84 Y22.167
X71.564 Y22.403
X71.245 Y22.632
X70.932 Y22.819
X70.608 Y22.978
X70.27 Y23.112
X69.913 Y23.22
X69.551 Y23.297
X69.181 Y23.345
X68.789 Y23.362
Z5.
X76.618 Y31.19
Z2.
Z-1. F133.3
X76.634 Y30.81 F400.
X76.681 Y30.438
X76.759 Y30.067
X76.865 Y29.716
X76.998 Y29.378
X77.16 Y29.048
X77.345 Y28.739
X77.573 Y28.42
X77.809 Y28.143
X78.086 Y27.867
X78.364 Y27.633
X78.656 Y27.426
X78.97 Y27.238
X79.294 Y27.079
X79.631 Y26.946
X79.989 Y26.837
X80.35 Y26.76
X80.721 Y26.713
X81.112 Y26.696
Z5.
X79.608 Y17.26
Z2.
Z-1. F133.3
X79.479 Y17.185 F400.
Z5.
X82.719 Y20.372
Z2.
Z-1. F133.3
X82.795 Y20.5 F400.
Z5.
X70.422 Y32.873
Z2.
Z-1. F133.3
X70.294 Y32.797 F400.
Z5.
X74.802 Y15.972
Z2.
Z-1. F133.3
X74.951 Y15.971 F400.
Z5.
X79.479 Y32.873
Z2.
Z-1. F133.3
X79.35 Y32.946 F400.
Z5.
X73.284 Y31.19
Z2.
Z-1. F133.3
X73.268 Y31.57 F400.
X73.221 Y31.942
X73.142 Y32.313
X73.036 Y32.664
X72.903 Y33.002
X72.741 Y33.332
X72.557 Y33.641
X72.349 Y33.933
X72.116 Y34.212
X71.84 Y34.49
X71.564 Y34.726
X71.245 Y34.954
X70.932 Y35.142
X70.608 Y35.301
X70.27 Y35.434
X69.913 Y35.543
X69.551 Y35.62
X69.181 Y35.667
X68.803 Y35.684
X68.789
Z5.
X76.618 Y18.867
Z2.
Z-1. F133.3
X76.634 Y18.488 F400.
X76.681 Y18.116
X76.759 Y17.744
X76.865 Y17.394
X76.998 Y17.055
X77.16 Y16.725
X77.345 Y16.416
X77.552 Y16.124
X77.785 Y15.845
X78.061 Y15.567
X78.337 Y15.332
X78.628 Y15.122
X78.935 Y14.935
X79.262 Y14.77
X79.599 Y14.634
X79.948 Y14.526
X80.317 Y14.443
X80.687 Y14.393
X81.064 Y14.374
X81.112 Y14.373
Z5.
X84.777 Y25.716
Z2.
Z-1. F133.3
X84.721 Y26.281 F400.
X84.632 Y26.841
Z5.
X84.777 Y24.342
Z2.
Z-1. F133.3
X84.721 Y23.777 F400.
X84.632 Y23.216
Z5.
X65.269
Z2.
Z-1. F133.3
X65.181 Y23.777 F400.
X65.125 Y24.342
Z5.
Y25.716
Z2.
Z-1. F133.3
X65.181 Y26.281 F400.
X65.269 Y26.841
Z5.
X22.5 Y45.379
Z1.973
Z-1.33 F133.3
X19. Y49.621 Z-5.573 F400.
Y45.379 Z-1.33
X22.5 Y49.621 Z-5.573
Y45.379 Z-1.33
Z5.
X25.
Z1.973
Z-1.33 F133.3
Y49.621 Z-5.573 F400.
X26.75 Y48.348 Z-4.3
X28.5 Y49.621 Z-5.573
Y45.379 Z-1.33
Z5.
X31.
Z1.973
Z-1.33 F133.3
Y49.621 Z-5.573 F400.
Z5.
X37. Y45.379
Z1.973
Z-1.33 F133.3
Y49.621 Z-5.573 F400.
X40.5 Y48.348 Z-4.3
X37. Y47.5 Z-3.451
X40.5 Y45.379 Z-1.33
Z5.
X43.5 Y47.146
Z0.732
Z-3.098 F133.3
Y47.854 Z-3.805 F400.
X44.5
Y47.146 Z-3.098
X43.5
Z5.
X46. Y45.379
Z1.973
Z-1.33 F133.3
X48.5 Y47.076 Z-3.027 F400.
X46. Y47.924 Z-3.876
X48.5 Y49.621 Z-5.573
Z5.
X52.
Z-1.743
Z-5.573 F133.3
Y45.379 Z-1.33 F400.
Z5.
X58.
Z1.973
Z-1.33 F133.3
Y49.621 Z-5.573 F400.
Z5.
Y49.409
Z-1.531
Z-5.361 F133.3
X61.5 Y48.773 Z-4.724 F400.
Z5.
Y47.5
Z0.378
Z-3.451 F133.3
X58. Y48.136 Z-4.088 F400.
Z5.
X64. Y45.379
Z1.973
Z-1.33 F133.3
Y49.621 Z-5.573 F400.
X66.5 Y48.348 Z-4.3
Z5.
X70. Y49.621
Z-1.743
Z-5.573 F133.3
Y45.379 Z-1.33 F400.
Z5.
Y48.985
Z-1.106
Z-4.936 F133.3
X73.5 Y49.621 Z-5.573 F400.
Z5.
Y48.348
Z-0.47
Z-4.3 F133.3
X70. Y47.712 Z-3.664 F400.
Z5.
X76. Y45.379
Z1.973
Z-1.33 F133.3
Y49.621 Z-5.573 F400.
X79.5 Y48.348 Z-4.3
X76. Y47.5 Z-3.451
X79.5 Y45.379 Z-1.33
Z5.
X85.25 Y2.712
Z0.591
Z-3.239 F133.3
X87. Y1.651 Z-4.3 F400.
X85.25 Y0.379 Z-5.573
X83.5 Y1.651 Z-4.3
X85.25 Y2.712 Z-3.239
Z5.
X87. Y1.651
Z-0.47
Z-4.3 F133.3
X83.5 Y4.621 Z-1.33 F400.
Z5.
Y1.651
Z-0.47
Z-4.3 F133.3
X87. Y4.621 Z-1.33 F400.
Z5.
X81.
Z1.973
Z-1.33 F133.3
Y0.379 Z-5.573 F400.
X77.5 Y1.651 Z-4.3
X81. Y2.5 Z-3.451
X77.5 Y4.621 Z-1.33
Z5.
X75.
Z1.973
Z-1.33 F133.3
Y0.379 Z-5.573 F400.
Z5.
Y1.651
Z-0.47
Z-4.3 F133.3
X72.25 Y2.5 Z-3.451 F400.
X75. Y3.349 Z-2.603
Z5.
X69. Y4.621
Z1.973
Z-1.33 F133.3
X66.5 Y2.924 Z-3.027 F400.
X69. Y2.076 Z-3.876
X66.5 Y0.379 Z-5.573
Z5.
X63. Y1.651
Z-0.47
Z-4.3 F133.3
X61.25 Y0.379 Z-5.573 F400.
Y4.621 Z-1.33
Z5.
X59.5 Y1.651
Z-0.47
Z-4.3 F133.3
X61.25 Y0.379 Z-5.573 F400.
Z5.
X57.
Z-1.743
Z-5.573 F133.3
Y4.621 Z-1.33 F400.
Z5.
X51.
Z1.973
Z-1.33 F133.3
Y0.379 Z-5.573 F400.
X47.5 Y1.651 Z-4.3
X51. Y2.5 Z-3.451
X47.5 Y4.621 Z-1.33
Z5.
X44.5 Y2.854
Z0.732
Z-3.098 F133.3
Y2.146 Z-3.805 F400.
X43.5
Y2.854 Z-3.098
X44.5
Z5.
X42. Y4.621
Z1.973
Z-1.33 F133.3
Y0.379 Z-5.573 F400.
X39.5 Y1.651 Z-4.3
Z5.
X36. Y0.379
Z-1.743
Z-5.573 F133.3
Y4.621 Z-1.33 F400.
Z5.
X30.
Z1.973
Z-1.33 F133.3
Y0.379 Z-5.573 F400.
Z5.
Y1.015
Z-1.106
Z-4.936 F133.3
X26.5 Y0.379 Z-5.573 F400.
Z5.
Y1.651
Z-0.47
Z-4.3 F133.3
X30. Y2.288 Z-3.664 F400.
Z5.
X24. Y0.379
Z-1.743
Z-5.573 F133.3
Y4.621 Z-1.33 F400.
Z5.
X18.
Z1.973
Z-1.33 F133.3
Y0.379 Z-5.573 F400.
X14.5 Y1.651 Z-4.3
X18. Y2.5 Z-3.451
X14.5 Y4.621 Z-1.33
Z5.
X96.263 Y43.25
Z1.59
Z-2.214 F133.3
X97.5 Y44.75 Z-3.451 F400.
X98.737 Y43.25 Z-4.689
X97.5 Y42. Z-3.451
X96.263 Y43.25 Z-2.214
X98.737 Y39.75 Z-4.689
Z5.
X96.263
Z1.59
Z-2.214 F133.3
X98.737 Y43.25 Z-4.689 F400.
Z5.
X98.03 Y37.75
Z-0.152
Z-3.982 F133.3
X96.263 Y39.25 Z-2.214 F400.
Y34.25
Z5.
Y33.75
Z1.59
Z-2.214 F133.3
Y28.75 F400.
Z5.
Y28.25
Z1.59
Z-2.214 F133.3
Y23.25 F400.
Z5.
Y27.5
Z1.59
Z-2.214 F133.3
X98.737 Y28.25 Z-4.689 F400.
Z5.
Y26.75
Z-0.859
Z-4.689 F133.3
X96.263 Y26. Z-2.214 F400.
Z5.
Y22.75
Z1.59
Z-2.214 F133.3
Y17.75 F400.
Z5.
Y12.25
Z1.59
Z-2.214 F133.3
Y17.25 F400.
X97.5 Y15.75 Z-3.451
X98.737 Y17.25 Z-4.689
Y12.25
Z5.
Y6.75
Z-0.859
Z-4.689 F133.3
X96.263 Y9.25 Z-2.214 F400.
X98.737 Y10.25 Z-4.689
X96.263 Y11.75 Z-2.214
Y6.75
Z5.
X1.263 Y35.5
Z-0.859
Z-4.689 F133.3
Y40.5 F400.
Z5.
X3.737
Z1.591
Z-2.214 F133.3
Y35.5 F400.
Z5.
Y37.
Z1.591
Z-2.214 F133.3
X1.263 Y39. Z-4.689 F400.
Z5.
Y35.
Z-0.859
Z-4.689 F133.3
Y30. F400.
Z5.
X3.737 Y34.
Z1.591
Z-2.214 F133.3
X1.263 Y34.75 Z-4.689 F400.
Z5.
Y33.25
Z-0.859
Z-4.689 F133.3
X3.737 Y32.5 Z-2.214 F400.
Z5.
Y27.
Z1.591
Z-2.214 F133.3
X1.263 Y29.5 Z-4.689 F400.
Y24.5
Z5.
X3.737
Z1.591
Z-2.214 F133.3
Y29.5 F400.
X1.263 Y27. Z-4.689
Z5.
Y24.
Z-0.859
Z-4.689 F133.3
Y19. F400.
Z5.
X3.737 Y23.
Z1.591
Z-2.214 F133.3
X1.263 Y23.75 Z-4.689 F400.
Z5.
Y22.25
Z-0.859
Z-4.689 F133.3
X3.737 Y21.5 Z-2.214 F400.
Z5.
Y13.5
Z1.591
Z-2.214 F133.3
X1.263 Y16. Z-4.689 F400.
X3.737 Y17. Z-2.214
X1.263 Y18.5 Z-4.689
Y13.5
Z5.
Y8.
Z-0.859
Z-4.689 F133.3
Y13. F400.
X3.737 Y11.5 Z-2.214
X1.263 Y10.5 Z-4.689
X3.737 Y8. Z-2.214
Z15.
M5
M400
M852
G28
M30
