(A5_02_T8_PROJECT_ENGRAVE)
(T8  Chamfering Bit - 1/8AcA?A3 Shank      D=3.175 CR=0. TAPER=45deg - ZMIN=-1. - chamfer mill)
( =================================================== )
(   Z Origin Set To   : Stock Top )
(   Stock Height                    : 100. mm )
(   Toolpath Z Maximum from Stock Top: 15. mm )
(   Toolpath Z Min from Stock Top: -1. mm )
(  )
( =================================================== )

( The following values are based on the part position info used in fusion and can be used to roughly align the machine offset from anchor 1 if you use that feature. )
(   X Offset   : -90. mm )
(   Y Offset   : -75. mm )

( =================================================== )

G90 G94
G17
G21
(When using Fusion for Personal Use, the feedrate of rapid)
(moves is reduced to match the feedrate of cutting moves,)
(which can increase machining time. Unrestricted rapid moves)
(are available with a Fusion Subscription.)

(A5_T8_PROJECT_ENGRAVE)
M6 T8 
(8)
M400
M851 S100
S12000 M3
G54
G0 X22.083 Y27.942
Z15.
G1 Z2. F400.
Z-1. F133.3
X22.383 Y28.214 F400.
X22.708 Y28.455
X23.056 Y28.663
X23.392 Y28.823
X23.707 Y28.941
X24.031 Y29.034
X24.395 Y29.105
X24.798 Y29.145
X25.171 Y29.146
X25.506 Y29.118
X25.838 Y29.063
X26.197 Y28.972
X26.579 Y28.836
X26.916 Y28.677
X27.207 Y28.508
X27.484 Y28.317
X27.77 Y28.081
X28.056 Y27.795
X28.294 Y27.507
X28.485 Y27.23
X28.653 Y26.939
X28.811 Y26.604
X28.947 Y26.222
X29.039 Y25.861
X29.093 Y25.529
X29.121 Y25.193
X29.12 Y24.823
X29.08 Y24.42
X29.001 Y24.023
X28.884 Y23.635
X28.729 Y23.261
X28.538 Y22.904
X28.313 Y22.568
X28.077 Y22.279
X27.843 Y22.038
X27.59 Y21.815
X27.292 Y21.595
X26.944 Y21.387
X26.608 Y21.227
X26.293 Y21.109
X25.969 Y21.016
X25.605 Y20.945
X25.202 Y20.905
X24.829 Y20.904
X24.494 Y20.932
X24.162 Y20.987
X23.803 Y21.078
X23.421 Y21.214
X23.084 Y21.373
X22.793 Y21.542
X22.516 Y21.733
X22.23 Y21.969
X21.944 Y22.255
X21.706 Y22.543
X21.515 Y22.82
X21.347 Y23.111
X21.189 Y23.446
X21.053 Y23.828
X20.961 Y24.189
X20.907 Y24.521
X20.879 Y24.857
X20.88 Y25.227
X20.92 Y25.63
X20.999 Y26.027
X21.116 Y26.415
X21.271 Y26.789
X21.462 Y27.146
X21.687 Y27.482
X21.923 Y27.771
X22.061 Y27.919
X22.083 Y27.942
Z5.
X25. Y24.981
Z2.
Z-1. F133.3
Y40. F400.
Z5.
X27.175 Y35.85
Z2.
Z-1. F133.3
X22.825 F400.
Z5.
Y34.35
Z2.
Z-1. F133.3
X27.175 F400.
Z5.
Y32.85
Z2.
Z-1. F133.3
X22.825 F400.
Z5.
X23. Y39.991
Z2.
Z-1. F133.3
X22.997 Y39.918 F400.
X23.004 Y39.484
X23.041 Y39.062
X23.107 Y38.648
X23.199 Y38.273
X23.304 Y37.966
X23.424 Y37.703
X23.564 Y37.465
X23.709 Y37.275
X23.876 Y37.105
X24.067 Y36.959
X24.253 Y36.856
X24.444 Y36.782
X24.674 Y36.727
X24.899 Y36.702
X25.164 Y36.707
X25.382 Y36.737
X25.603 Y36.799
X25.8 Y36.884
X25.995 Y37.005
X26.178 Y37.159
X26.316 Y37.31
X26.456 Y37.504
X26.592 Y37.744
X26.72 Y38.042
X26.819 Y38.35
X26.906 Y38.734
X26.965 Y39.133
X27. Y39.595
X27.001 Y39.991
Z5.
X35.607 Y35.607
Z2.
Z-1. F133.3
X24.987 Y24.987 F400.
Z5.
X34.21 Y31.134
Z2.
Z-1. F133.3
X31.134 Y34.21 F400.
Z5.
X30.073 Y33.149
Z2.
Z-1. F133.3
X33.149 Y30.073 F400.
Z5.
X32.089 Y29.013
Z2.
Z-1. F133.3
X29.013 Y32.089 F400.
Z5.
X34.186 Y37.014
Z2.
Z-1. F133.3
X34.133 Y36.965 F400.
X33.831 Y36.653
X33.558 Y36.328
X33.312 Y35.989
X33.112 Y35.659
X32.97 Y35.368
X32.868 Y35.096
X32.799 Y34.83
X32.766 Y34.593
X32.764 Y34.354
X32.797 Y34.116
X32.856 Y33.912
X32.938 Y33.724
X33.061 Y33.523
X33.204 Y33.346
X33.394 Y33.162
X33.57 Y33.029
X33.769 Y32.917
X33.969 Y32.838
X34.192 Y32.785
X34.431 Y32.765
X34.635 Y32.774
X34.871 Y32.812
X35.137 Y32.886
X35.439 Y33.006
X35.726 Y33.154
X36.059 Y33.363
X36.384 Y33.604
X36.71 Y33.883
X37.015 Y34.185
Z5.
X40. Y25.
Z2.
Z-1. F133.3
X24.981 F400.
Z5.
X35.85 Y22.825
Z2.
Z-1. F133.3
Y27.175 F400.
Z5.
X34.35
Z2.
Z-1. F133.3
Y22.825 F400.
Z5.
X32.85
Z2.
Z-1. F133.3
Y27.175 F400.
Z5.
X39.991 Y27.
Z2.
Z-1. F133.3
X39.918 Y27.003 F400.
X39.484 Y26.996
X39.062 Y26.959
X38.648 Y26.893
X38.273 Y26.801
X37.966 Y26.696
X37.703 Y26.576
X37.465 Y26.436
X37.275 Y26.291
X37.105 Y26.124
X36.959 Y25.933
X36.856 Y25.747
X36.782 Y25.556
X36.727 Y25.326
X36.702 Y25.101
X36.707 Y24.836
X36.737 Y24.618
X36.799 Y24.397
X36.884 Y24.2
X37.005 Y24.005
X37.159 Y23.822
X37.31 Y23.684
X37.504 Y23.544
X37.744 Y23.408
X38.042 Y23.28
X38.35 Y23.181
X38.734 Y23.094
X39.133 Y23.035
X39.595 Y23.
X39.991 Y22.999
Z5.
X35.607 Y14.393
Z2.
Z-1. F133.3
X24.987 Y25.013 F400.
Z5.
X34.21 Y18.866
Z2.
Z-1. F133.3
X31.134 Y15.79 F400.
Z5.
X30.073 Y16.851
Z2.
Z-1. F133.3
X33.149 Y19.927 F400.
Z5.
X32.089 Y20.987
Z2.
Z-1. F133.3
X29.013 Y17.911 F400.
Z5.
X34.185 Y12.985
Z2.
Z-1. F133.3
X33.883 Y13.29 F400.
X33.604 Y13.616
X33.363 Y13.941
X33.154 Y14.274
X33.006 Y14.561
X32.886 Y14.863
X32.812 Y15.129
X32.774 Y15.365
X32.765 Y15.569
X32.785 Y15.808
X32.838 Y16.031
X32.917 Y16.231
X33.029 Y16.43
X33.162 Y16.606
X33.346 Y16.796
X33.523 Y16.939
X33.724 Y17.062
X33.912 Y17.144
X34.116 Y17.203
X34.354 Y17.236
X34.593 Y17.233
X34.83 Y17.201
X35.096 Y17.132
X35.368 Y17.03
X35.659 Y16.888
X35.989 Y16.688
X36.328 Y16.442
X36.653 Y16.169
X36.965 Y15.867
X37.014 Y15.814
Z5.
X25. Y10.
Z2.
Z-1. F133.3
Y25.019 F400.
Z5.
X22.825 Y14.15
Z2.
Z-1. F133.3
X27.175 F400.
Z5.
Y15.65
Z2.
Z-1. F133.3
X22.825 F400.
Z5.
Y17.15
Z2.
Z-1. F133.3
X27.175 F400.
Z5.
X27. Y10.009
Z2.
Z-1. F133.3
X27.003 Y10.082 F400.
X26.996 Y10.516
X26.959 Y10.938
X26.893 Y11.352
X26.801 Y11.727
X26.696 Y12.034
X26.576 Y12.297
X26.436 Y12.535
X26.291 Y12.725
X26.124 Y12.895
X25.933 Y13.041
X25.747 Y13.144
X25.556 Y13.218
X25.326 Y13.273
X25.101 Y13.298
X24.836 Y13.293
X24.618 Y13.263
X24.397 Y13.201
X24.2 Y13.116
X24.005 Y12.995
X23.822 Y12.841
X23.684 Y12.69
X23.544 Y12.496
X23.408 Y12.256
X23.28 Y11.958
X23.181 Y11.65
X23.094 Y11.266
X23.035 Y10.867
X23. Y10.405
X22.999 Y10.009
Z5.
X14.393 Y14.393
Z2.
Z-1. F133.3
X25.013 Y25.013 F400.
Z5.
X15.79 Y18.866
Z2.
Z-1. F133.3
X18.866 Y15.79 F400.
Z5.
X19.927 Y16.851
Z2.
Z-1. F133.3
X16.851 Y19.927 F400.
Z5.
X17.911 Y20.987
Z2.
Z-1. F133.3
X20.987 Y17.911 F400.
Z5.
X15.814 Y12.986
Z2.
Z-1. F133.3
X15.867 Y13.035 F400.
X16.169 Y13.347
X16.442 Y13.672
X16.688 Y14.011
X16.888 Y14.342
X17.03 Y14.632
X17.132 Y14.904
X17.201 Y15.17
X17.233 Y15.407
X17.236 Y15.646
X17.203 Y15.884
X17.144 Y16.088
X17.062 Y16.276
X16.939 Y16.477
X16.796 Y16.654
X16.606 Y16.838
X16.43 Y16.971
X16.231 Y17.083
X16.031 Y17.162
X15.808 Y17.215
X15.569 Y17.235
X15.365 Y17.226
X15.129 Y17.188
X14.863 Y17.114
X14.561 Y16.994
X14.274 Y16.846
X13.941 Y16.637
X13.616 Y16.396
X13.29 Y16.117
X12.985 Y15.815
Z5.
X10. Y25.
Z2.
Z-1. F133.3
X25.019 F400.
Z5.
X14.15 Y27.175
Z2.
Z-1. F133.3
Y22.825 F400.
Z5.
X15.65
Z2.
Z-1. F133.3
Y27.175 F400.
Z5.
X17.15
Z2.
Z-1. F133.3
Y22.825 F400.
Z5.
X10.009 Y23.
Z2.
Z-1. F133.3
X10.082 Y22.997 F400.
X10.516 Y23.004
X10.938 Y23.041
X11.352 Y23.107
X11.727 Y23.199
X12.034 Y23.304
X12.297 Y23.424
X12.535 Y23.564
X12.725 Y23.709
X12.895 Y23.876
X13.041 Y24.067
X13.144 Y24.253
X13.218 Y24.444
X13.273 Y24.674
X13.298 Y24.899
X13.293 Y25.164
X13.263 Y25.382
X13.201 Y25.603
X13.116 Y25.8
X12.995 Y25.995
X12.841 Y26.178
X12.69 Y26.316
X12.496 Y26.456
X12.256 Y26.592
X11.958 Y26.72
X11.65 Y26.819
X11.266 Y26.906
X10.867 Y26.965
X10.405 Y27.
X10.009 Y27.001
Z5.
X14.393 Y35.607
Z2.
Z-1. F133.3
X25.013 Y24.987 F400.
Z5.
X18.866 Y34.21
Z2.
Z-1. F133.3
X15.79 Y31.134 F400.
Z5.
X16.851 Y30.073
Z2.
Z-1. F133.3
X19.927 Y33.149 F400.
Z5.
X20.987 Y32.089
Z2.
Z-1. F133.3
X17.911 Y29.013 F400.
Z5.
X12.986 Y34.186
Z2.
Z-1. F133.3
X13.035 Y34.133 F400.
X13.347 Y33.831
X13.672 Y33.558
X14.011 Y33.312
X14.342 Y33.112
X14.632 Y32.97
X14.904 Y32.868
X15.17 Y32.799
X15.407 Y32.766
X15.646 Y32.764
X15.884 Y32.797
X16.088 Y32.856
X16.276 Y32.938
X16.477 Y33.061
X16.654 Y33.204
X16.838 Y33.394
X16.971 Y33.57
X17.083 Y33.769
X17.162 Y33.969
X17.215 Y34.192
X17.235 Y34.431
X17.226 Y34.635
X17.188 Y34.871
X17.114 Y35.137
X16.994 Y35.439
X16.846 Y35.726
X16.637 Y36.059
X16.396 Y36.384
X16.117 Y36.71
X15.815 Y37.015
Z15.
M5
M400
M852
G28
M30
