(A6_02_T8_PROJECT_ENGRAVE)
(T8  Chamfering Bit - 1/8AcA?A3 Shank      D=3.175 CR=0. TAPER=45deg - ZMIN=-1. - chamfer mill)
( =================================================== )
(   Z Origin Set To   : Stock Top )
(   Stock Height                    : 100. mm )
(   Toolpath Z Maximum from Stock Top: 15. mm )
(   Toolpath Z Min from Stock Top: -1. mm )
(  )
( =================================================== )

( The following values are based on the part position info used in fusion and can be used to roughly align the machine offset from anchor 1 if you use that feature. )
(   X Offset   : -75. mm )
(   Y Offset   : 215. mm )

( =================================================== )

G90 G94
G17
G21
(When using Fusion for Personal Use, the feedrate of rapid)
(moves is reduced to match the feedrate of cutting moves,)
(which can increase machining time. Unrestricted rapid moves)
(are available with a Fusion Subscription.)

(A6_T8_PROJECT_ENGRAVE)
M6 T8 
(8)
M400
M851 S100
S12000 M3
G54
G0 X28.638 Y23.031
Z15.
G1 Z2. F400.
Z-1. F133.3
X28.43 Y22.683 F400.
X28.189 Y22.358
X27.917 Y22.058
X27.617 Y21.786
X27.292 Y21.545
X26.944 Y21.337
X26.608 Y21.177
X26.293 Y21.059
X25.969 Y20.966
X25.605 Y20.895
X25.202 Y20.855
X24.829 Y20.854
X24.494 Y20.882
X24.162 Y20.937
X23.803 Y21.028
X23.421 Y21.164
X23.084 Y21.323
X22.793 Y21.492
X22.516 Y21.683
X22.23 Y21.919
X21.944 Y22.205
X21.706 Y22.493
X21.515 Y22.77
X21.347 Y23.061
X21.189 Y23.396
X21.053 Y23.778
X20.961 Y24.139
X20.907 Y24.471
X20.879 Y24.807
X20.88 Y25.177
X20.92 Y25.58
X20.999 Y25.977
X21.116 Y26.365
X21.271 Y26.739
X21.462 Y27.096
X21.687 Y27.432
X21.923 Y27.721
X22.157 Y27.962
X22.41 Y28.185
X22.708 Y28.405
X23.056 Y28.613
X23.392 Y28.773
X23.707 Y28.891
X24.031 Y28.984
X24.395 Y29.055
X24.798 Y29.095
X25.171 Y29.096
X25.506 Y29.068
X25.838 Y29.013
X26.197 Y28.922
X26.579 Y28.786
X26.916 Y28.627
X27.207 Y28.458
X27.484 Y28.267
X27.77 Y28.031
X28.056 Y27.745
X28.294 Y27.457
X28.485 Y27.18
X28.653 Y26.889
X28.811 Y26.554
X28.947 Y26.172
X29.039 Y25.811
X29.093 Y25.479
X29.121 Y25.143
X29.12 Y24.773
X29.08 Y24.37
X29.001 Y23.973
X28.884 Y23.585
X28.729 Y23.211
X28.638 Y23.031
Z5.
X25. Y25.019
Z2.
Z-1. F133.3
Y10. F400.
Z5.
X27.175 Y14.15
Z2.
Z-1. F133.3
X22.825 F400.
Z5.
Y15.65
Z2.
Z-1. F133.3
X27.175 F400.
Z5.
Y17.15
Z2.
Z-1. F133.3
X22.825 F400.
Z5.
X23. Y10.009
Z2.
Z-1. F133.3
X22.999 Y10.405 F400.
X23.029 Y10.833
X23.09 Y11.266
X23.177 Y11.65
X23.275 Y11.958
X23.403 Y12.256
X23.539 Y12.496
X23.68 Y12.69
X23.818 Y12.841
X24.001 Y12.995
X24.197 Y13.116
X24.395 Y13.201
X24.616 Y13.263
X24.836 Y13.293
X25.101 Y13.298
X25.325 Y13.273
X25.554 Y13.218
X25.744 Y13.144
X25.929 Y13.041
X26.12 Y12.895
X26.287 Y12.725
X26.431 Y12.535
X26.571 Y12.297
X26.691 Y12.034
X26.797 Y11.727
X26.89 Y11.352
X26.957 Y10.938
X26.996 Y10.482
X27.003 Y10.057
X27.001 Y10.009
Z5.
X35.607 Y14.393
Z2.
Z-1. F133.3
X24.987 Y25.013 F400.
Z5.
X34.21 Y18.866
Z2.
Z-1. F133.3
X31.134 Y15.79 F400.
Z5.
X30.073 Y16.851
Z2.
Z-1. F133.3
X33.149 Y19.927 F400.
Z5.
X32.089 Y20.987
Z2.
Z-1. F133.3
X29.013 Y17.911 F400.
Z5.
X34.186 Y12.986
Z2.
Z-1. F133.3
X33.906 Y13.265 F400.
X33.624 Y13.588
X33.361 Y13.939
X33.151 Y14.271
X33.003 Y14.558
X32.882 Y14.859
X32.809 Y15.125
X32.771 Y15.362
X32.762 Y15.566
X32.782 Y15.805
X32.835 Y16.029
X32.915 Y16.229
X33.028 Y16.429
X33.162 Y16.606
X33.346 Y16.796
X33.522 Y16.938
X33.722 Y17.061
X33.91 Y17.142
X34.113 Y17.201
X34.351 Y17.233
X34.589 Y17.23
X34.826 Y17.198
X35.093 Y17.129
X35.364 Y17.027
X35.656 Y16.885
X35.987 Y16.686
X36.327 Y16.441
X36.653 Y16.169
X36.965 Y15.868
X37.015 Y15.815
Z5.
X40. Y25.
Z2.
Z-1. F133.3
X24.981 F400.
Z5.
X35.85 Y27.175
Z2.
Z-1. F133.3
Y22.825 F400.
Z5.
X34.35
Z2.
Z-1. F133.3
Y27.175 F400.
Z5.
X32.85
Z2.
Z-1. F133.3
Y22.825 F400.
Z5.
X39.991 Y23.
Z2.
Z-1. F133.3
X39.595 Y22.999 F400.
X39.167 Y23.029
X38.734 Y23.09
X38.35 Y23.177
X38.042 Y23.275
X37.744 Y23.403
X37.504 Y23.539
X37.31 Y23.68
X37.159 Y23.818
X37.005 Y24.001
X36.884 Y24.197
X36.799 Y24.395
X36.737 Y24.616
X36.707 Y24.836
X36.702 Y25.101
X36.727 Y25.325
X36.782 Y25.554
X36.856 Y25.744
X36.959 Y25.929
X37.105 Y26.12
X37.275 Y26.287
X37.465 Y26.431
X37.703 Y26.571
X37.966 Y26.691
X38.273 Y26.797
X38.648 Y26.89
X39.062 Y26.957
X39.518 Y26.996
X39.943 Y27.003
X39.991 Y27.001
Z5.
X35.607 Y35.607
Z2.
Z-1. F133.3
X24.987 Y24.987 F400.
Z5.
X31.134 Y34.21
Z2.
Z-1. F133.3
X34.21 Y31.134 F400.
Z5.
X33.149 Y30.073
Z2.
Z-1. F133.3
X30.073 Y33.149 F400.
Z5.
X29.013 Y32.089
Z2.
Z-1. F133.3
X32.089 Y29.013 F400.
Z5.
X37.014 Y34.186
Z2.
Z-1. F133.3
X36.735 Y33.906 F400.
X36.412 Y33.624
X36.061 Y33.361
X35.729 Y33.151
X35.442 Y33.003
X35.141 Y32.882
X34.875 Y32.809
X34.638 Y32.771
X34.434 Y32.762
X34.195 Y32.782
X33.971 Y32.835
X33.771 Y32.915
X33.571 Y33.028
X33.394 Y33.162
X33.203 Y33.346
X33.062 Y33.522
X32.939 Y33.722
X32.858 Y33.91
X32.799 Y34.113
X32.768 Y34.351
X32.77 Y34.589
X32.802 Y34.826
X32.871 Y35.093
X32.973 Y35.364
X33.115 Y35.656
X33.314 Y35.987
X33.559 Y36.327
X33.832 Y36.653
X34.132 Y36.965
X34.185 Y37.015
Z5.
X25. Y40.
Z2.
Z-1. F133.3
Y24.981 F400.
Z5.
X22.825 Y35.85
Z2.
Z-1. F133.3
X27.175 F400.
Z5.
Y34.35
Z2.
Z-1. F133.3
X22.825 F400.
Z5.
Y32.85
Z2.
Z-1. F133.3
X27.175 F400.
Z5.
X27. Y39.991
Z2.
Z-1. F133.3
X27.001 Y39.595 F400.
X26.971 Y39.167
X26.91 Y38.734
X26.823 Y38.35
X26.725 Y38.042
X26.597 Y37.744
X26.461 Y37.504
X26.32 Y37.31
X26.182 Y37.159
X25.999 Y37.005
X25.803 Y36.884
X25.605 Y36.799
X25.384 Y36.737
X25.164 Y36.707
X24.899 Y36.702
X24.675 Y36.727
X24.446 Y36.782
X24.256 Y36.856
X24.071 Y36.959
X23.88 Y37.105
X23.713 Y37.275
X23.569 Y37.465
X23.429 Y37.703
X23.309 Y37.966
X23.203 Y38.273
X23.11 Y38.648
X23.043 Y39.062
X23.004 Y39.518
X22.997 Y39.943
X22.999 Y39.991
Z5.
X14.393 Y35.607
Z2.
Z-1. F133.3
X25.013 Y24.987 F400.
Z5.
X18.866 Y34.21
Z2.
Z-1. F133.3
X15.79 Y31.134 F400.
Z5.
X16.851 Y30.073
Z2.
Z-1. F133.3
X19.927 Y33.149 F400.
Z5.
X20.987 Y32.089
Z2.
Z-1. F133.3
X17.911 Y29.013 F400.
Z5.
X12.985 Y34.185
Z2.
Z-1. F133.3
X13.035 Y34.132 F400.
X13.347 Y33.832
X13.673 Y33.559
X14.013 Y33.314
X14.344 Y33.115
X14.636 Y32.973
X14.907 Y32.871
X15.174 Y32.802
X15.411 Y32.77
X15.649 Y32.768
X15.887 Y32.799
X16.09 Y32.858
X16.278 Y32.939
X16.478 Y33.062
X16.654 Y33.203
X16.838 Y33.394
X16.972 Y33.571
X17.085 Y33.771
X17.165 Y33.971
X17.218 Y34.195
X17.239 Y34.434
X17.229 Y34.638
X17.191 Y34.875
X17.118 Y35.141
X16.997 Y35.442
X16.849 Y35.729
X16.639 Y36.061
X16.376 Y36.412
X16.094 Y36.735
X15.814 Y37.014
Z5.
X10. Y25.
Z2.
Z-1. F133.3
X25.019 F400.
Z5.
X14.15 Y22.825
Z2.
Z-1. F133.3
Y27.175 F400.
Z5.
X15.65
Z2.
Z-1. F133.3
Y22.825 F400.
Z5.
X17.15
Z2.
Z-1. F133.3
Y27.175 F400.
Z5.
X10.009 Y27.
Z2.
Z-1. F133.3
X10.405 Y27.001 F400.
X10.833 Y26.971
X11.266 Y26.91
X11.65 Y26.823
X11.958 Y26.725
X12.256 Y26.597
X12.496 Y26.461
X12.69 Y26.32
X12.841 Y26.182
X12.995 Y25.999
X13.116 Y25.803
X13.201 Y25.605
X13.263 Y25.384
X13.293 Y25.164
X13.298 Y24.899
X13.273 Y24.675
X13.218 Y24.446
X13.144 Y24.256
X13.041 Y24.071
X12.895 Y23.88
X12.725 Y23.713
X12.535 Y23.569
X12.297 Y23.429
X12.034 Y23.309
X11.727 Y23.203
X11.352 Y23.11
X10.938 Y23.043
X10.482 Y23.004
X10.057 Y22.997
X10.009 Y22.999
Z5.
X14.393 Y14.393
Z2.
Z-1. F133.3
X25.013 Y25.013 F400.
Z5.
X18.866 Y15.79
Z2.
Z-1. F133.3
X15.79 Y18.866 F400.
Z5.
X16.851 Y19.927
Z2.
Z-1. F133.3
X19.927 Y16.851 F400.
Z5.
X20.987 Y17.911
Z2.
Z-1. F133.3
X17.911 Y20.987 F400.
Z5.
X12.986 Y15.814
Z2.
Z-1. F133.3
X13.265 Y16.094 F400.
X13.588 Y16.376
X13.939 Y16.639
X14.271 Y16.849
X14.558 Y16.997
X14.859 Y17.118
X15.125 Y17.191
X15.362 Y17.229
X15.566 Y17.239
X15.805 Y17.218
X16.029 Y17.165
X16.229 Y17.085
X16.429 Y16.972
X16.606 Y16.838
X16.796 Y16.654
X16.938 Y16.478
X17.061 Y16.278
X17.142 Y16.09
X17.201 Y15.887
X17.233 Y15.649
X17.23 Y15.411
X17.198 Y15.174
X17.129 Y14.907
X17.027 Y14.636
X16.885 Y14.344
X16.686 Y14.013
X16.441 Y13.673
X16.169 Y13.347
X15.868 Y13.035
X15.815 Y12.985
Z15.
M5
M400
M852
G28
M30
